( Made using CamBam - http://www.cambam.co.uk )
( Corner_Brackets 8/5/2015 10:48:01 PM )
( T0 : 3.65 )
G21 G90 G64 G40
G0 Z3.0
( T0 : 3.65 )
T0 M6
( Main Holes )
G17
M3 S1000
G0 X10.575 Y70.0
G0 Z1.0
G1 F8.0 Z0.0
G2 F650.0 X9.5625 Y69.4154 Z-0.1667 I-0.675 J0.0
G2 Y70.5846 Z-0.3333 I0.3375 J0.5846
G2 X10.575 Y70.0 Z-0.5 I0.3375 J-0.5846
G2 X9.5625 Y69.4154 Z-0.6667 I-0.675 J0.0
G2 Y70.5846 Z-0.8333 I0.3375 J0.5846
G2 X10.575 Y70.0 Z-1.0 I0.3375 J-0.5846
G2 X9.5625 Y69.4154 Z-1.1667 I-0.675 J0.0
G2 Y70.5846 Z-1.3333 I0.3375 J0.5846
G2 X10.575 Y70.0 Z-1.5 I0.3375 J-0.5846
G2 X9.5625 Y69.4154 Z-1.6667 I-0.675 J0.0
G2 Y70.5846 Z-1.8333 I0.3375 J0.5846
G2 X10.575 Y70.0 Z-2.0 I0.3375 J-0.5846
G2 X9.5625 Y69.4154 Z-2.1667 I-0.675 J0.0
G2 Y70.5846 Z-2.3333 I0.3375 J0.5846
G2 X10.575 Y70.0 Z-2.5 I0.3375 J-0.5846
G2 X9.5625 Y69.4154 Z-2.6667 I-0.675 J0.0
G2 Y70.5846 Z-2.8333 I0.3375 J0.5846
G2 X10.575 Y70.0 Z-3.0 I0.3375 J-0.5846
G2 X9.5625 Y69.4154 Z-3.1667 I-0.675 J0.0
G2 Y70.5846 Z-3.3333 I0.3375 J0.5846
G2 X10.575 Y70.0 Z-3.5 I0.3375 J-0.5846
G2 X9.5625 Y69.4154 Z-3.6667 I-0.675 J0.0
G2 Y70.5846 Z-3.8333 I0.3375 J0.5846
G2 X10.575 Y70.0 Z-4.0 I0.3375 J-0.5846
G2 X9.5625 Y69.4154 Z-4.1667 I-0.675 J0.0
G2 Y70.5846 Z-4.3333 I0.3375 J0.5846
G2 X10.575 Y70.0 Z-4.5 I0.3375 J-0.5846
G2 X9.5625 Y69.4154 Z-4.6667 I-0.675 J0.0
G2 Y70.5846 Z-4.8333 I0.3375 J0.5846
G2 X10.575 Y70.0 Z-5.0 I0.3375 J-0.5846
G2 X9.5625 Y69.4154 Z-5.1667 I-0.675 J0.0
G2 Y70.5846 Z-5.3333 I0.3375 J0.5846
G2 X10.575 Y70.0 Z-5.5 I0.3375 J-0.5846
G2 X9.5625 Y69.4154 Z-5.6667 I-0.675 J0.0
G2 Y70.5846 Z-5.8333 I0.3375 J0.5846
G2 X10.575 Y70.0 Z-6.0 I0.3375 J-0.5846
G2 X9.5625 Y69.4154 Z-6.1667 I-0.675 J0.0
G2 Y70.5846 Z-6.3333 I0.3375 J0.5846
G2 X10.575 Y70.0 Z-6.5 I0.3375 J-0.5846
G2 X9.5625 Y69.4154 Z-6.6667 I-0.675 J0.0
G2 Y70.5846 Z-6.8333 I0.3375 J0.5846
G2 X10.575 Y70.0 Z-7.0 I0.3375 J-0.5846
G2 X9.5625 Y69.4154 I-0.675 J0.0
G2 Y70.5846 I0.3375 J0.5846
G2 X10.575 Y70.0 I0.3375 J-0.5846
G0 Z3.0
G0 X9.9152 Y40.6748
G0 Z1.0
G1 F8.0 Z0.0
G2 F650.0 X10.575 Y40.0 Z-0.1232 I-0.0152 J-0.6748
G2 X9.5625 Y39.4154 Z-0.2899 I-0.675 J0.0
G2 Y40.5846 Z-0.4565 I0.3375 J0.5846
G2 X9.9152 Y40.6748 Z-0.5 I0.3375 J-0.5846
G2 X10.575 Y40.0 Z-0.6232 I-0.0152 J-0.6748
G2 X9.5625 Y39.4154 Z-0.7899 I-0.675 J0.0
G2 Y40.5846 Z-0.9565 I0.3375 J0.5846
G2 X9.9152 Y40.6748 Z-1.0 I0.3375 J-0.5846
G2 X10.575 Y40.0 Z-1.1232 I-0.0152 J-0.6748
G2 X9.5625 Y39.4154 Z-1.2899 I-0.675 J0.0
G2 Y40.5846 Z-1.4565 I0.3375 J0.5846
G2 X9.9152 Y40.6748 Z-1.5 I0.3375 J-0.5846
G2 X10.575 Y40.0 Z-1.6232 I-0.0152 J-0.6748
G2 X9.5625 Y39.4154 Z-1.7899 I-0.675 J0.0
G2 Y40.5846 Z-1.9565 I0.3375 J0.5846
G2 X9.9152 Y40.6748 Z-2.0 I0.3375 J-0.5846
G2 X10.575 Y40.0 Z-2.1232 I-0.0152 J-0.6748
G2 X9.5625 Y39.4154 Z-2.2899 I-0.675 J0.0
G2 Y40.5846 Z-2.4565 I0.3375 J0.5846
G2 X9.9152 Y40.6748 Z-2.5 I0.3375 J-0.5846
G2 X10.575 Y40.0 Z-2.6232 I-0.0152 J-0.6748
G2 X9.5625 Y39.4154 Z-2.7899 I-0.675 J0.0
G2 Y40.5846 Z-2.9565 I0.3375 J0.5846
G2 X9.9152 Y40.6748 Z-3.0 I0.3375 J-0.5846
G2 X10.575 Y40.0 Z-3.1232 I-0.0152 J-0.6748
G2 X9.5625 Y39.4154 Z-3.2899 I-0.675 J0.0
G2 Y40.5846 Z-3.4565 I0.3375 J0.5846
G2 X9.9152 Y40.6748 Z-3.5 I0.3375 J-0.5846
G2 X10.575 Y40.0 Z-3.6232 I-0.0152 J-0.6748
G2 X9.5625 Y39.4154 Z-3.7899 I-0.675 J0.0
G2 Y40.5846 Z-3.9565 I0.3375 J0.5846
G2 X9.9152 Y40.6748 Z-4.0 I0.3375 J-0.5846
G2 X10.575 Y40.0 Z-4.1232 I-0.0152 J-0.6748
G2 X9.5625 Y39.4154 Z-4.2899 I-0.675 J0.0
G2 Y40.5846 Z-4.4565 I0.3375 J0.5846
G2 X9.9152 Y40.6748 Z-4.5 I0.3375 J-0.5846
G2 X10.575 Y40.0 Z-4.6232 I-0.0152 J-0.6748
G2 X9.5625 Y39.4154 Z-4.7899 I-0.675 J0.0
G2 Y40.5846 Z-4.9565 I0.3375 J0.5846
G2 X9.9152 Y40.6748 Z-5.0 I0.3375 J-0.5846
G2 X10.575 Y40.0 Z-5.1232 I-0.0152 J-0.6748
G2 X9.5625 Y39.4154 Z-5.2899 I-0.675 J0.0
G2 Y40.5846 Z-5.4565 I0.3375 J0.5846
G2 X9.9152 Y40.6748 Z-5.5 I0.3375 J-0.5846
G2 X10.575 Y40.0 Z-5.6232 I-0.0152 J-0.6748
G2 X9.5625 Y39.4154 Z-5.7899 I-0.675 J0.0
G2 Y40.5846 Z-5.9565 I0.3375 J0.5846
G2 X9.9152 Y40.6748 Z-6.0 I0.3375 J-0.5846
G2 X10.575 Y40.0 Z-6.1232 I-0.0152 J-0.6748
G2 X9.5625 Y39.4154 Z-6.2899 I-0.675 J0.0
G2 Y40.5846 Z-6.4565 I0.3375 J0.5846
G2 X9.9152 Y40.6748 Z-6.5 I0.3375 J-0.5846
G2 X10.575 Y40.0 Z-6.6232 I-0.0152 J-0.6748
G2 X9.5625 Y39.4154 Z-6.7899 I-0.675 J0.0
G2 Y40.5846 Z-6.9565 I0.3375 J0.5846
G2 X9.9152 Y40.6748 Z-7.0 I0.3375 J-0.5846
G2 X10.575 Y40.0 I-0.0152 J-0.6748
G2 X9.5625 Y39.4154 I-0.675 J0.0
G2 Y40.5846 I0.3375 J0.5846
G2 X9.9152 Y40.6748 I0.3375 J-0.5846
G0 Z3.0
G0 X35.7851 Y41.1598
G0 Z1.0
G1 F8.0 Z0.0
G2 F650.0 X36.0575 Y41.642 Z-0.0848 I0.5449 J0.0102
G2 X36.875 Y41.17 Z-0.2515 I0.2725 J-0.472
G2 X36.0575 Y40.698 Z-0.4182 I-0.545 J0.0
G2 X35.7851 Y41.1598 Z-0.5 I0.2725 J0.472
G2 X36.0575 Y41.642 Z-0.5848 I0.5449 J0.0102
G2 X36.875 Y41.17 Z-0.7515 I0.2725 J-0.472
G2 X36.0575 Y40.698 Z-0.9182 I-0.545 J0.0
G2 X35.7851 Y41.1598 Z-1.0 I0.2725 J0.472
G2 X36.0575 Y41.642 Z-1.0848 I0.5449 J0.0102
G2 X36.875 Y41.17 Z-1.2515 I0.2725 J-0.472
G2 X36.0575 Y40.698 Z-1.4182 I-0.545 J0.0
G2 X35.7851 Y41.1598 Z-1.5 I0.2725 J0.472
G2 X36.0575 Y41.642 Z-1.5848 I0.5449 J0.0102
G2 X36.875 Y41.17 Z-1.7515 I0.2725 J-0.472
G2 X36.0575 Y40.698 Z-1.9182 I-0.545 J0.0
G2 X35.7851 Y41.1598 Z-2.0 I0.2725 J0.472
G2 X36.0575 Y41.642 Z-2.0848 I0.5449 J0.0102
G2 X36.875 Y41.17 Z-2.2515 I0.2725 J-0.472
G2 X36.0575 Y40.698 Z-2.4182 I-0.545 J0.0
G2 X35.7851 Y41.1598 Z-2.5 I0.2725 J0.472
G2 X36.0575 Y41.642 Z-2.5848 I0.5449 J0.0102
G2 X36.875 Y41.17 Z-2.7515 I0.2725 J-0.472
G2 X36.0575 Y40.698 Z-2.9182 I-0.545 J0.0
G2 X35.7851 Y41.1598 Z-3.0 I0.2725 J0.472
G2 X36.0575 Y41.642 Z-3.0848 I0.5449 J0.0102
G2 X36.875 Y41.17 Z-3.2515 I0.2725 J-0.472
G2 X36.0575 Y40.698 Z-3.4182 I-0.545 J0.0
G2 X35.7851 Y41.1598 Z-3.5 I0.2725 J0.472
G2 X36.0575 Y41.642 Z-3.5848 I0.5449 J0.0102
G2 X36.875 Y41.17 Z-3.7515 I0.2725 J-0.472
G2 X36.0575 Y40.698 Z-3.9182 I-0.545 J0.0
G2 X35.7851 Y41.1598 Z-4.0 I0.2725 J0.472
G2 X36.0575 Y41.642 Z-4.0848 I0.5449 J0.0102
G2 X36.875 Y41.17 Z-4.2515 I0.2725 J-0.472
G2 X36.0575 Y40.698 Z-4.4182 I-0.545 J0.0
G2 X35.7851 Y41.1598 Z-4.5 I0.2725 J0.472
G2 X36.0575 Y41.642 Z-4.5848 I0.5449 J0.0102
G2 X36.875 Y41.17 Z-4.7515 I0.2725 J-0.472
G2 X36.0575 Y40.698 Z-4.9182 I-0.545 J0.0
G2 X35.7851 Y41.1598 Z-5.0 I0.2725 J0.472
G2 X36.0575 Y41.642 Z-5.0848 I0.5449 J0.0102
G2 X36.875 Y41.17 Z-5.2515 I0.2725 J-0.472
G2 X36.0575 Y40.698 Z-5.4182 I-0.545 J0.0
G2 X35.7851 Y41.1598 Z-5.5 I0.2725 J0.472
G2 X36.0575 Y41.642 Z-5.5848 I0.5449 J0.0102
G2 X36.875 Y41.17 Z-5.7515 I0.2725 J-0.472
G2 X36.0575 Y40.698 Z-5.9182 I-0.545 J0.0
G2 X35.7851 Y41.1598 Z-6.0 I0.2725 J0.472
G2 X36.0575 Y41.642 Z-6.0848 I0.5449 J0.0102
G2 X36.875 Y41.17 Z-6.2515 I0.2725 J-0.472
G2 X36.0575 Y40.698 Z-6.4182 I-0.545 J0.0
G2 X35.7851 Y41.1598 Z-6.5 I0.2725 J0.472
G2 X36.0575 Y41.642 Z-6.5848 I0.5449 J0.0102
G2 X36.875 Y41.17 Z-6.7515 I0.2725 J-0.472
G2 X36.0575 Y40.698 Z-6.9182 I-0.545 J0.0
G2 X35.7851 Y41.1598 Z-7.0 I0.2725 J0.472
G2 X36.0575 Y41.642 I0.5449 J0.0102
G2 X36.875 Y41.17 I0.2725 J-0.472
G2 X36.0575 Y40.698 I-0.545 J0.0
G2 X35.7851 Y41.1598 I0.2725 J0.472
G0 Z3.0
G0 X49.2273 Y40.0553
G0 Z1.0
G1 F8.0 Z0.0
G2 F650.0 X49.5625 Y40.5846 Z-0.0768 I0.6727 J-0.0553
G2 X50.575 Y40.0 Z-0.2435 I0.3375 J-0.5846
G2 X49.5625 Y39.4154 Z-0.4101 I-0.675 J0.0
G2 X49.2273 Y40.0553 Z-0.5 I0.3375 J0.5846
G2 X49.5625 Y40.5846 Z-0.5768 I0.6727 J-0.0553
G2 X50.575 Y40.0 Z-0.7435 I0.3375 J-0.5846
G2 X49.5625 Y39.4154 Z-0.9101 I-0.675 J0.0
G2 X49.2273 Y40.0553 Z-1.0 I0.3375 J0.5846
G2 X49.5625 Y40.5846 Z-1.0768 I0.6727 J-0.0553
G2 X50.575 Y40.0 Z-1.2435 I0.3375 J-0.5846
G2 X49.5625 Y39.4154 Z-1.4101 I-0.675 J0.0
G2 X49.2273 Y40.0553 Z-1.5 I0.3375 J0.5846
G2 X49.5625 Y40.5846 Z-1.5768 I0.6727 J-0.0553
G2 X50.575 Y40.0 Z-1.7435 I0.3375 J-0.5846
G2 X49.5625 Y39.4154 Z-1.9101 I-0.675 J0.0
G2 X49.2273 Y40.0553 Z-2.0 I0.3375 J0.5846
G2 X49.5625 Y40.5846 Z-2.0768 I0.6727 J-0.0553
G2 X50.575 Y40.0 Z-2.2435 I0.3375 J-0.5846
G2 X49.5625 Y39.4154 Z-2.4101 I-0.675 J0.0
G2 X49.2273 Y40.0553 Z-2.5 I0.3375 J0.5846
G2 X49.5625 Y40.5846 Z-2.5768 I0.6727 J-0.0553
G2 X50.575 Y40.0 Z-2.7435 I0.3375 J-0.5846
G2 X49.5625 Y39.4154 Z-2.9101 I-0.675 J0.0
G2 X49.2273 Y40.0553 Z-3.0 I0.3375 J0.5846
G2 X49.5625 Y40.5846 Z-3.0768 I0.6727 J-0.0553
G2 X50.575 Y40.0 Z-3.2435 I0.3375 J-0.5846
G2 X49.5625 Y39.4154 Z-3.4101 I-0.675 J0.0
G2 X49.2273 Y40.0553 Z-3.5 I0.3375 J0.5846
G2 X49.5625 Y40.5846 Z-3.5768 I0.6727 J-0.0553
G2 X50.575 Y40.0 Z-3.7435 I0.3375 J-0.5846
G2 X49.5625 Y39.4154 Z-3.9101 I-0.675 J0.0
G2 X49.2273 Y40.0553 Z-4.0 I0.3375 J0.5846
G2 X49.5625 Y40.5846 Z-4.0768 I0.6727 J-0.0553
G2 X50.575 Y40.0 Z-4.2435 I0.3375 J-0.5846
G2 X49.5625 Y39.4154 Z-4.4101 I-0.675 J0.0
G2 X49.2273 Y40.0553 Z-4.5 I0.3375 J0.5846
G2 X49.5625 Y40.5846 Z-4.5768 I0.6727 J-0.0553
G2 X50.575 Y40.0 Z-4.7435 I0.3375 J-0.5846
G2 X49.5625 Y39.4154 Z-4.9101 I-0.675 J0.0
G2 X49.2273 Y40.0553 Z-5.0 I0.3375 J0.5846
G2 X49.5625 Y40.5846 Z-5.0768 I0.6727 J-0.0553
G2 X50.575 Y40.0 Z-5.2435 I0.3375 J-0.5846
G2 X49.5625 Y39.4154 Z-5.4101 I-0.675 J0.0
G2 X49.2273 Y40.0553 Z-5.5 I0.3375 J0.5846
G2 X49.5625 Y40.5846 Z-5.5768 I0.6727 J-0.0553
G2 X50.575 Y40.0 Z-5.7435 I0.3375 J-0.5846
G2 X49.5625 Y39.4154 Z-5.9101 I-0.675 J0.0
G2 X49.2273 Y40.0553 Z-6.0 I0.3375 J0.5846
G2 X49.5625 Y40.5846 Z-6.0768 I0.6727 J-0.0553
G2 X50.575 Y40.0 Z-6.2435 I0.3375 J-0.5846
G2 X49.5625 Y39.4154 Z-6.4101 I-0.675 J0.0
G2 X49.2273 Y40.0553 Z-6.5 I0.3375 J0.5846
G2 X49.5625 Y40.5846 Z-6.5768 I0.6727 J-0.0553
G2 X50.575 Y40.0 Z-6.7435 I0.3375 J-0.5846
G2 X49.5625 Y39.4154 Z-6.9101 I-0.675 J0.0
G2 X49.2273 Y40.0553 Z-7.0 I0.3375 J0.5846
G2 X49.5625 Y40.5846 I0.6727 J-0.0553
G2 X50.575 Y40.0 I0.3375 J-0.5846
G2 X49.5625 Y39.4154 I-0.675 J0.0
G2 X49.2273 Y40.0553 I0.3375 J0.5846
G0 Z3.0
G0 X69.225 Y40.0018
G0 Z1.0
G1 F8.0 Z0.0
G2 F650.0 X69.5625 Y40.5846 Z-0.0831 I0.675 J-0.0018
G2 X70.575 Y40.0 Z-0.2498 I0.3375 J-0.5846
G2 X69.5625 Y39.4154 Z-0.4165 I-0.675 J0.0
G2 X69.225 Y40.0018 Z-0.5 I0.3375 J0.5846
G2 X69.5625 Y40.5846 Z-0.5831 I0.675 J-0.0018
G2 X70.575 Y40.0 Z-0.7498 I0.3375 J-0.5846
G2 X69.5625 Y39.4154 Z-0.9165 I-0.675 J0.0
G2 X69.225 Y40.0018 Z-1.0 I0.3375 J0.5846
G2 X69.5625 Y40.5846 Z-1.0831 I0.675 J-0.0018
G2 X70.575 Y40.0 Z-1.2498 I0.3375 J-0.5846
G2 X69.5625 Y39.4154 Z-1.4165 I-0.675 J0.0
G2 X69.225 Y40.0018 Z-1.5 I0.3375 J0.5846
G2 X69.5625 Y40.5846 Z-1.5831 I0.675 J-0.0018
G2 X70.575 Y40.0 Z-1.7498 I0.3375 J-0.5846
G2 X69.5625 Y39.4154 Z-1.9165 I-0.675 J0.0
G2 X69.225 Y40.0018 Z-2.0 I0.3375 J0.5846
G2 X69.5625 Y40.5846 Z-2.0831 I0.675 J-0.0018
G2 X70.575 Y40.0 Z-2.2498 I0.3375 J-0.5846
G2 X69.5625 Y39.4154 Z-2.4165 I-0.675 J0.0
G2 X69.225 Y40.0018 Z-2.5 I0.3375 J0.5846
G2 X69.5625 Y40.5846 Z-2.5831 I0.675 J-0.0018
G2 X70.575 Y40.0 Z-2.7498 I0.3375 J-0.5846
G2 X69.5625 Y39.4154 Z-2.9165 I-0.675 J0.0
G2 X69.225 Y40.0018 Z-3.0 I0.3375 J0.5846
G2 X69.5625 Y40.5846 Z-3.0831 I0.675 J-0.0018
G2 X70.575 Y40.0 Z-3.2498 I0.3375 J-0.5846
G2 X69.5625 Y39.4154 Z-3.4165 I-0.675 J0.0
G2 X69.225 Y40.0018 Z-3.5 I0.3375 J0.5846
G2 X69.5625 Y40.5846 Z-3.5831 I0.675 J-0.0018
G2 X70.575 Y40.0 Z-3.7498 I0.3375 J-0.5846
G2 X69.5625 Y39.4154 Z-3.9165 I-0.675 J0.0
G2 X69.225 Y40.0018 Z-4.0 I0.3375 J0.5846
G2 X69.5625 Y40.5846 Z-4.0831 I0.675 J-0.0018
G2 X70.575 Y40.0 Z-4.2498 I0.3375 J-0.5846
G2 X69.5625 Y39.4154 Z-4.4165 I-0.675 J0.0
G2 X69.225 Y40.0018 Z-4.5 I0.3375 J0.5846
G2 X69.5625 Y40.5846 Z-4.5831 I0.675 J-0.0018
G2 X70.575 Y40.0 Z-4.7498 I0.3375 J-0.5846
G2 X69.5625 Y39.4154 Z-4.9165 I-0.675 J0.0
G2 X69.225 Y40.0018 Z-5.0 I0.3375 J0.5846
G2 X69.5625 Y40.5846 Z-5.0831 I0.675 J-0.0018
G2 X70.575 Y40.0 Z-5.2498 I0.3375 J-0.5846
G2 X69.5625 Y39.4154 Z-5.4165 I-0.675 J0.0
G2 X69.225 Y40.0018 Z-5.5 I0.3375 J0.5846
G2 X69.5625 Y40.5846 Z-5.5831 I0.675 J-0.0018
G2 X70.575 Y40.0 Z-5.7498 I0.3375 J-0.5846
G2 X69.5625 Y39.4154 Z-5.9165 I-0.675 J0.0
G2 X69.225 Y40.0018 Z-6.0 I0.3375 J0.5846
G2 X69.5625 Y40.5846 Z-6.0831 I0.675 J-0.0018
G2 X70.575 Y40.0 Z-6.2498 I0.3375 J-0.5846
G2 X69.5625 Y39.4154 Z-6.4165 I-0.675 J0.0
G2 X69.225 Y40.0018 Z-6.5 I0.3375 J0.5846
G2 X69.5625 Y40.5846 Z-6.5831 I0.675 J-0.0018
G2 X70.575 Y40.0 Z-6.7498 I0.3375 J-0.5846
G2 X69.5625 Y39.4154 Z-6.9165 I-0.675 J0.0
G2 X69.225 Y40.0018 Z-7.0 I0.3375 J0.5846
G2 X69.5625 Y40.5846 I0.675 J-0.0018
G2 X70.575 Y40.0 I0.3375 J-0.5846
G2 X69.5625 Y39.4154 I-0.675 J0.0
G2 X69.225 Y40.0018 I0.3375 J0.5846
G0 Z3.0
G0 X82.9268 Y41.1255
G0 Z1.0
G1 F8.0 Z0.0
G2 F650.0 X83.1975 Y41.642 Z-0.0898 I0.5432 J0.0445
G2 X84.015 Y41.17 Z-0.2565 I0.2725 J-0.472
G2 X83.1975 Y40.698 Z-0.4232 I-0.545 J0.0
G2 X82.9268 Y41.1255 Z-0.5 I0.2725 J0.472
G2 X83.1975 Y41.642 Z-0.5898 I0.5432 J0.0445
G2 X84.015 Y41.17 Z-0.7565 I0.2725 J-0.472
G2 X83.1975 Y40.698 Z-0.9232 I-0.545 J0.0
G2 X82.9268 Y41.1255 Z-1.0 I0.2725 J0.472
G2 X83.1975 Y41.642 Z-1.0898 I0.5432 J0.0445
G2 X84.015 Y41.17 Z-1.2565 I0.2725 J-0.472
G2 X83.1975 Y40.698 Z-1.4232 I-0.545 J0.0
G2 X82.9268 Y41.1255 Z-1.5 I0.2725 J0.472
G2 X83.1975 Y41.642 Z-1.5898 I0.5432 J0.0445
G2 X84.015 Y41.17 Z-1.7565 I0.2725 J-0.472
G2 X83.1975 Y40.698 Z-1.9232 I-0.545 J0.0
G2 X82.9268 Y41.1255 Z-2.0 I0.2725 J0.472
G2 X83.1975 Y41.642 Z-2.0898 I0.5432 J0.0445
G2 X84.015 Y41.17 Z-2.2565 I0.2725 J-0.472
G2 X83.1975 Y40.698 Z-2.4232 I-0.545 J0.0
G2 X82.9268 Y41.1255 Z-2.5 I0.2725 J0.472
G2 X83.1975 Y41.642 Z-2.5898 I0.5432 J0.0445
G2 X84.015 Y41.17 Z-2.7565 I0.2725 J-0.472
G2 X83.1975 Y40.698 Z-2.9232 I-0.545 J0.0
G2 X82.9268 Y41.1255 Z-3.0 I0.2725 J0.472
G2 X83.1975 Y41.642 Z-3.0898 I0.5432 J0.0445
G2 X84.015 Y41.17 Z-3.2565 I0.2725 J-0.472
G2 X83.1975 Y40.698 Z-3.4232 I-0.545 J0.0
G2 X82.9268 Y41.1255 Z-3.5 I0.2725 J0.472
G2 X83.1975 Y41.642 Z-3.5898 I0.5432 J0.0445
G2 X84.015 Y41.17 Z-3.7565 I0.2725 J-0.472
G2 X83.1975 Y40.698 Z-3.9232 I-0.545 J0.0
G2 X82.9268 Y41.1255 Z-4.0 I0.2725 J0.472
G2 X83.1975 Y41.642 Z-4.0898 I0.5432 J0.0445
G2 X84.015 Y41.17 Z-4.2565 I0.2725 J-0.472
G2 X83.1975 Y40.698 Z-4.4232 I-0.545 J0.0
G2 X82.9268 Y41.1255 Z-4.5 I0.2725 J0.472
G2 X83.1975 Y41.642 Z-4.5898 I0.5432 J0.0445
G2 X84.015 Y41.17 Z-4.7565 I0.2725 J-0.472
G2 X83.1975 Y40.698 Z-4.9232 I-0.545 J0.0
G2 X82.9268 Y41.1255 Z-5.0 I0.2725 J0.472
G2 X83.1975 Y41.642 Z-5.0898 I0.5432 J0.0445
G2 X84.015 Y41.17 Z-5.2565 I0.2725 J-0.472
G2 X83.1975 Y40.698 Z-5.4232 I-0.545 J0.0
G2 X82.9268 Y41.1255 Z-5.5 I0.2725 J0.472
G2 X83.1975 Y41.642 Z-5.5898 I0.5432 J0.0445
G2 X84.015 Y41.17 Z-5.7565 I0.2725 J-0.472
G2 X83.1975 Y40.698 Z-5.9232 I-0.545 J0.0
G2 X82.9268 Y41.1255 Z-6.0 I0.2725 J0.472
G2 X83.1975 Y41.642 Z-6.0898 I0.5432 J0.0445
G2 X84.015 Y41.17 Z-6.2565 I0.2725 J-0.472
G2 X83.1975 Y40.698 Z-6.4232 I-0.545 J0.0
G2 X82.9268 Y41.1255 Z-6.5 I0.2725 J0.472
G2 X83.1975 Y41.642 Z-6.5898 I0.5432 J0.0445
G2 X84.015 Y41.17 Z-6.7565 I0.2725 J-0.472
G2 X83.1975 Y40.698 Z-6.9232 I-0.545 J0.0
G2 X82.9268 Y41.1255 Z-7.0 I0.2725 J0.472
G2 X83.1975 Y41.642 I0.5432 J0.0445
G2 X84.015 Y41.17 I0.2725 J-0.472
G2 X83.1975 Y40.698 I-0.545 J0.0
G2 X82.9268 Y41.1255 I0.2725 J0.472
G0 Z3.0
G0 X89.6884 Y20.641
G0 Z1.0
G1 F8.0 Z0.0
G2 F650.0 X90.575 Y20.0 Z-0.1504 I0.2116 J-0.641
G2 X89.5625 Y19.4154 Z-0.317 I-0.675 J0.0
G2 Y20.5846 Z-0.4837 I0.3375 J0.5846
G2 X89.6884 Y20.641 Z-0.5 I0.3375 J-0.5846
G2 X90.575 Y20.0 Z-0.6504 I0.2116 J-0.641
G2 X89.5625 Y19.4154 Z-0.817 I-0.675 J0.0
G2 Y20.5846 Z-0.9837 I0.3375 J0.5846
G2 X89.6884 Y20.641 Z-1.0 I0.3375 J-0.5846
G2 X90.575 Y20.0 Z-1.1504 I0.2116 J-0.641
G2 X89.5625 Y19.4154 Z-1.317 I-0.675 J0.0
G2 Y20.5846 Z-1.4837 I0.3375 J0.5846
G2 X89.6884 Y20.641 Z-1.5 I0.3375 J-0.5846
G2 X90.575 Y20.0 Z-1.6504 I0.2116 J-0.641
G2 X89.5625 Y19.4154 Z-1.817 I-0.675 J0.0
G2 Y20.5846 Z-1.9837 I0.3375 J0.5846
G2 X89.6884 Y20.641 Z-2.0 I0.3375 J-0.5846
G2 X90.575 Y20.0 Z-2.1504 I0.2116 J-0.641
G2 X89.5625 Y19.4154 Z-2.317 I-0.675 J0.0
G2 Y20.5846 Z-2.4837 I0.3375 J0.5846
G2 X89.6884 Y20.641 Z-2.5 I0.3375 J-0.5846
G2 X90.575 Y20.0 Z-2.6504 I0.2116 J-0.641
G2 X89.5625 Y19.4154 Z-2.817 I-0.675 J0.0
G2 Y20.5846 Z-2.9837 I0.3375 J0.5846
G2 X89.6884 Y20.641 Z-3.0 I0.3375 J-0.5846
G2 X90.575 Y20.0 Z-3.1504 I0.2116 J-0.641
G2 X89.5625 Y19.4154 Z-3.317 I-0.675 J0.0
G2 Y20.5846 Z-3.4837 I0.3375 J0.5846
G2 X89.6884 Y20.641 Z-3.5 I0.3375 J-0.5846
G2 X90.575 Y20.0 Z-3.6504 I0.2116 J-0.641
G2 X89.5625 Y19.4154 Z-3.817 I-0.675 J0.0
G2 Y20.5846 Z-3.9837 I0.3375 J0.5846
G2 X89.6884 Y20.641 Z-4.0 I0.3375 J-0.5846
G2 X90.575 Y20.0 Z-4.1504 I0.2116 J-0.641
G2 X89.5625 Y19.4154 Z-4.317 I-0.675 J0.0
G2 Y20.5846 Z-4.4837 I0.3375 J0.5846
G2 X89.6884 Y20.641 Z-4.5 I0.3375 J-0.5846
G2 X90.575 Y20.0 Z-4.6504 I0.2116 J-0.641
G2 X89.5625 Y19.4154 Z-4.817 I-0.675 J0.0
G2 Y20.5846 Z-4.9837 I0.3375 J0.5846
G2 X89.6884 Y20.641 Z-5.0 I0.3375 J-0.5846
G2 X90.575 Y20.0 Z-5.1504 I0.2116 J-0.641
G2 X89.5625 Y19.4154 Z-5.317 I-0.675 J0.0
G2 Y20.5846 Z-5.4837 I0.3375 J0.5846
G2 X89.6884 Y20.641 Z-5.5 I0.3375 J-0.5846
G2 X90.575 Y20.0 Z-5.6504 I0.2116 J-0.641
G2 X89.5625 Y19.4154 Z-5.817 I-0.675 J0.0
G2 Y20.5846 Z-5.9837 I0.3375 J0.5846
G2 X89.6884 Y20.641 Z-6.0 I0.3375 J-0.5846
G2 X90.575 Y20.0 Z-6.1504 I0.2116 J-0.641
G2 X89.5625 Y19.4154 Z-6.317 I-0.675 J0.0
G2 Y20.5846 Z-6.4837 I0.3375 J0.5846
G2 X89.6884 Y20.641 Z-6.5 I0.3375 J-0.5846
G2 X90.575 Y20.0 Z-6.6504 I0.2116 J-0.641
G2 X89.5625 Y19.4154 Z-6.817 I-0.675 J0.0
G2 Y20.5846 Z-6.9837 I0.3375 J0.5846
G2 X89.6884 Y20.641 Z-7.0 I0.3375 J-0.5846
G2 X90.575 Y20.0 I0.2116 J-0.641
G2 X89.5625 Y19.4154 I-0.675 J0.0
G2 Y20.5846 I0.3375 J0.5846
G2 X89.6884 Y20.641 I0.3375 J-0.5846
G0 Z3.0
G0 X123.2891 Y16.4967
G0 Z1.0
G1 F8.0 Z0.0
G2 F650.0 X123.5575 Y16.902 Z-0.0736 I0.5409 J-0.0667
G2 X124.375 Y16.43 Z-0.2402 I0.2725 J-0.472
G2 X123.5575 Y15.958 Z-0.4069 I-0.545 J0.0
G2 X123.2891 Y16.4967 Z-0.5 I0.2725 J0.472
G2 X123.5575 Y16.902 Z-0.5736 I0.5409 J-0.0667
G2 X124.375 Y16.43 Z-0.7402 I0.2725 J-0.472
G2 X123.5575 Y15.958 Z-0.9069 I-0.545 J0.0
G2 X123.2891 Y16.4967 Z-1.0 I0.2725 J0.472
G2 X123.5575 Y16.902 Z-1.0736 I0.5409 J-0.0667
G2 X124.375 Y16.43 Z-1.2402 I0.2725 J-0.472
G2 X123.5575 Y15.958 Z-1.4069 I-0.545 J0.0
G2 X123.2891 Y16.4967 Z-1.5 I0.2725 J0.472
G2 X123.5575 Y16.902 Z-1.5736 I0.5409 J-0.0667
G2 X124.375 Y16.43 Z-1.7402 I0.2725 J-0.472
G2 X123.5575 Y15.958 Z-1.9069 I-0.545 J0.0
G2 X123.2891 Y16.4967 Z-2.0 I0.2725 J0.472
G2 X123.5575 Y16.902 Z-2.0736 I0.5409 J-0.0667
G2 X124.375 Y16.43 Z-2.2402 I0.2725 J-0.472
G2 X123.5575 Y15.958 Z-2.4069 I-0.545 J0.0
G2 X123.2891 Y16.4967 Z-2.5 I0.2725 J0.472
G2 X123.5575 Y16.902 Z-2.5736 I0.5409 J-0.0667
G2 X124.375 Y16.43 Z-2.7402 I0.2725 J-0.472
G2 X123.5575 Y15.958 Z-2.9069 I-0.545 J0.0
G2 X123.2891 Y16.4967 Z-3.0 I0.2725 J0.472
G2 X123.5575 Y16.902 Z-3.0736 I0.5409 J-0.0667
G2 X124.375 Y16.43 Z-3.2402 I0.2725 J-0.472
G2 X123.5575 Y15.958 Z-3.4069 I-0.545 J0.0
G2 X123.2891 Y16.4967 Z-3.5 I0.2725 J0.472
G2 X123.5575 Y16.902 Z-3.5736 I0.5409 J-0.0667
G2 X124.375 Y16.43 Z-3.7402 I0.2725 J-0.472
G2 X123.5575 Y15.958 Z-3.9069 I-0.545 J0.0
G2 X123.2891 Y16.4967 Z-4.0 I0.2725 J0.472
G2 X123.5575 Y16.902 Z-4.0736 I0.5409 J-0.0667
G2 X124.375 Y16.43 Z-4.2402 I0.2725 J-0.472
G2 X123.5575 Y15.958 Z-4.4069 I-0.545 J0.0
G2 X123.2891 Y16.4967 Z-4.5 I0.2725 J0.472
G2 X123.5575 Y16.902 Z-4.5736 I0.5409 J-0.0667
G2 X124.375 Y16.43 Z-4.7402 I0.2725 J-0.472
G2 X123.5575 Y15.958 Z-4.9069 I-0.545 J0.0
G2 X123.2891 Y16.4967 Z-5.0 I0.2725 J0.472
G2 X123.5575 Y16.902 Z-5.0736 I0.5409 J-0.0667
G2 X124.375 Y16.43 Z-5.2402 I0.2725 J-0.472
G2 X123.5575 Y15.958 Z-5.4069 I-0.545 J0.0
G2 X123.2891 Y16.4967 Z-5.5 I0.2725 J0.472
G2 X123.5575 Y16.902 Z-5.5736 I0.5409 J-0.0667
G2 X124.375 Y16.43 Z-5.7402 I0.2725 J-0.472
G2 X123.5575 Y15.958 Z-5.9069 I-0.545 J0.0
G2 X123.2891 Y16.4967 Z-6.0 I0.2725 J0.472
G2 X123.5575 Y16.902 Z-6.0736 I0.5409 J-0.0667
G2 X124.375 Y16.43 Z-6.2402 I0.2725 J-0.472
G2 X123.5575 Y15.958 Z-6.4069 I-0.545 J0.0
G2 X123.2891 Y16.4967 Z-6.5 I0.2725 J0.472
G2 X123.5575 Y16.902 Z-6.5736 I0.5409 J-0.0667
G2 X124.375 Y16.43 Z-6.7402 I0.2725 J-0.472
G2 X123.5575 Y15.958 Z-6.9069 I-0.545 J0.0
G2 X123.2891 Y16.4967 Z-7.0 I0.2725 J0.472
G2 X123.5575 Y16.902 I0.5409 J-0.0667
G2 X124.375 Y16.43 I0.2725 J-0.472
G2 X123.5575 Y15.958 I-0.545 J0.0
G2 X123.2891 Y16.4967 I0.2725 J0.472
G0 Z3.0
G0 X124.9152 Y29.3304
G0 Z1.0
G1 F8.0 Z0.0
G2 F650.0 X124.6625 Y29.4154 Z-0.0316 I0.0848 J0.6696
G2 Y30.5846 Z-0.1983 I0.3375 J0.5846
G2 X125.675 Y30.0 Z-0.365 I0.3375 J-0.5846
G2 X124.9152 Y29.3304 Z-0.5 I-0.675 J0.0
G2 X124.6625 Y29.4154 Z-0.5316 I0.0848 J0.6696
G2 Y30.5846 Z-0.6983 I0.3375 J0.5846
G2 X125.675 Y30.0 Z-0.865 I0.3375 J-0.5846
G2 X124.9152 Y29.3304 Z-1.0 I-0.675 J0.0
G2 X124.6625 Y29.4154 Z-1.0316 I0.0848 J0.6696
G2 Y30.5846 Z-1.1983 I0.3375 J0.5846
G2 X125.675 Y30.0 Z-1.365 I0.3375 J-0.5846
G2 X124.9152 Y29.3304 Z-1.5 I-0.675 J0.0
G2 X124.6625 Y29.4154 Z-1.5316 I0.0848 J0.6696
G2 Y30.5846 Z-1.6983 I0.3375 J0.5846
G2 X125.675 Y30.0 Z-1.865 I0.3375 J-0.5846
G2 X124.9152 Y29.3304 Z-2.0 I-0.675 J0.0
G2 X124.6625 Y29.4154 Z-2.0316 I0.0848 J0.6696
G2 Y30.5846 Z-2.1983 I0.3375 J0.5846
G2 X125.675 Y30.0 Z-2.365 I0.3375 J-0.5846
G2 X124.9152 Y29.3304 Z-2.5 I-0.675 J0.0
G2 X124.6625 Y29.4154 Z-2.5316 I0.0848 J0.6696
G2 Y30.5846 Z-2.6983 I0.3375 J0.5846
G2 X125.675 Y30.0 Z-2.865 I0.3375 J-0.5846
G2 X124.9152 Y29.3304 Z-3.0 I-0.675 J0.0
G2 X124.6625 Y29.4154 Z-3.0316 I0.0848 J0.6696
G2 Y30.5846 Z-3.1983 I0.3375 J0.5846
G2 X125.675 Y30.0 Z-3.365 I0.3375 J-0.5846
G2 X124.9152 Y29.3304 Z-3.5 I-0.675 J0.0
G2 X124.6625 Y29.4154 Z-3.5316 I0.0848 J0.6696
G2 Y30.5846 Z-3.6983 I0.3375 J0.5846
G2 X125.675 Y30.0 Z-3.865 I0.3375 J-0.5846
G2 X124.9152 Y29.3304 Z-4.0 I-0.675 J0.0
G2 X124.6625 Y29.4154 Z-4.0316 I0.0848 J0.6696
G2 Y30.5846 Z-4.1983 I0.3375 J0.5846
G2 X125.675 Y30.0 Z-4.365 I0.3375 J-0.5846
G2 X124.9152 Y29.3304 Z-4.5 I-0.675 J0.0
G2 X124.6625 Y29.4154 Z-4.5316 I0.0848 J0.6696
G2 Y30.5846 Z-4.6983 I0.3375 J0.5846
G2 X125.675 Y30.0 Z-4.865 I0.3375 J-0.5846
G2 X124.9152 Y29.3304 Z-5.0 I-0.675 J0.0
G2 X124.6625 Y29.4154 Z-5.0316 I0.0848 J0.6696
G2 Y30.5846 Z-5.1983 I0.3375 J0.5846
G2 X125.675 Y30.0 Z-5.365 I0.3375 J-0.5846
G2 X124.9152 Y29.3304 Z-5.5 I-0.675 J0.0
G2 X124.6625 Y29.4154 Z-5.5316 I0.0848 J0.6696
G2 Y30.5846 Z-5.6983 I0.3375 J0.5846
G2 X125.675 Y30.0 Z-5.865 I0.3375 J-0.5846
G2 X124.9152 Y29.3304 Z-6.0 I-0.675 J0.0
G2 X124.6625 Y29.4154 Z-6.0316 I0.0848 J0.6696
G2 Y30.5846 Z-6.1983 I0.3375 J0.5846
G2 X125.675 Y30.0 Z-6.365 I0.3375 J-0.5846
G2 X124.9152 Y29.3304 Z-6.5 I-0.675 J0.0
G2 X124.6625 Y29.4154 Z-6.5316 I0.0848 J0.6696
G2 Y30.5846 Z-6.6983 I0.3375 J0.5846
G2 X125.675 Y30.0 Z-6.865 I0.3375 J-0.5846
G2 X124.9152 Y29.3304 Z-7.0 I-0.675 J0.0
G2 X124.6625 Y29.4154 I0.0848 J0.6696
G2 Y30.5846 I0.3375 J0.5846
G2 X125.675 Y30.0 I0.3375 J-0.5846
G2 X124.9152 Y29.3304 I-0.675 J0.0
G0 Z3.0
G0 X124.9972 Y49.325
G0 Z1.0
G1 F8.0 Z0.0
G2 F650.0 X124.6625 Y49.4154 Z-0.0413 I0.0028 J0.675
G2 Y50.5846 Z-0.208 I0.3375 J0.5846
G2 X125.675 Y50.0 Z-0.3747 I0.3375 J-0.5846
G2 X124.9972 Y49.325 Z-0.5 I-0.675 J0.0
G2 X124.6625 Y49.4154 Z-0.5413 I0.0028 J0.675
G2 Y50.5846 Z-0.708 I0.3375 J0.5846
G2 X125.675 Y50.0 Z-0.8747 I0.3375 J-0.5846
G2 X124.9972 Y49.325 Z-1.0 I-0.675 J0.0
G2 X124.6625 Y49.4154 Z-1.0413 I0.0028 J0.675
G2 Y50.5846 Z-1.208 I0.3375 J0.5846
G2 X125.675 Y50.0 Z-1.3747 I0.3375 J-0.5846
G2 X124.9972 Y49.325 Z-1.5 I-0.675 J0.0
G2 X124.6625 Y49.4154 Z-1.5413 I0.0028 J0.675
G2 Y50.5846 Z-1.708 I0.3375 J0.5846
G2 X125.675 Y50.0 Z-1.8747 I0.3375 J-0.5846
G2 X124.9972 Y49.325 Z-2.0 I-0.675 J0.0
G2 X124.6625 Y49.4154 Z-2.0413 I0.0028 J0.675
G2 Y50.5846 Z-2.208 I0.3375 J0.5846
G2 X125.675 Y50.0 Z-2.3747 I0.3375 J-0.5846
G2 X124.9972 Y49.325 Z-2.5 I-0.675 J0.0
G2 X124.6625 Y49.4154 Z-2.5413 I0.0028 J0.675
G2 Y50.5846 Z-2.708 I0.3375 J0.5846
G2 X125.675 Y50.0 Z-2.8747 I0.3375 J-0.5846
G2 X124.9972 Y49.325 Z-3.0 I-0.675 J0.0
G2 X124.6625 Y49.4154 Z-3.0413 I0.0028 J0.675
G2 Y50.5846 Z-3.208 I0.3375 J0.5846
G2 X125.675 Y50.0 Z-3.3747 I0.3375 J-0.5846
G2 X124.9972 Y49.325 Z-3.5 I-0.675 J0.0
G2 X124.6625 Y49.4154 Z-3.5413 I0.0028 J0.675
G2 Y50.5846 Z-3.708 I0.3375 J0.5846
G2 X125.675 Y50.0 Z-3.8747 I0.3375 J-0.5846
G2 X124.9972 Y49.325 Z-4.0 I-0.675 J0.0
G2 X124.6625 Y49.4154 Z-4.0413 I0.0028 J0.675
G2 Y50.5846 Z-4.208 I0.3375 J0.5846
G2 X125.675 Y50.0 Z-4.3747 I0.3375 J-0.5846
G2 X124.9972 Y49.325 Z-4.5 I-0.675 J0.0
G2 X124.6625 Y49.4154 Z-4.5413 I0.0028 J0.675
G2 Y50.5846 Z-4.708 I0.3375 J0.5846
G2 X125.675 Y50.0 Z-4.8747 I0.3375 J-0.5846
G2 X124.9972 Y49.325 Z-5.0 I-0.675 J0.0
G2 X124.6625 Y49.4154 Z-5.0413 I0.0028 J0.675
G2 Y50.5846 Z-5.208 I0.3375 J0.5846
G2 X125.675 Y50.0 Z-5.3747 I0.3375 J-0.5846
G2 X124.9972 Y49.325 Z-5.5 I-0.675 J0.0
G2 X124.6625 Y49.4154 Z-5.5413 I0.0028 J0.675
G2 Y50.5846 Z-5.708 I0.3375 J0.5846
G2 X125.675 Y50.0 Z-5.8747 I0.3375 J-0.5846
G2 X124.9972 Y49.325 Z-6.0 I-0.675 J0.0
G2 X124.6625 Y49.4154 Z-6.0413 I0.0028 J0.675
G2 Y50.5846 Z-6.208 I0.3375 J0.5846
G2 X125.675 Y50.0 Z-6.3747 I0.3375 J-0.5846
G2 X124.9972 Y49.325 Z-6.5 I-0.675 J0.0
G2 X124.6625 Y49.4154 Z-6.5413 I0.0028 J0.675
G2 Y50.5846 Z-6.708 I0.3375 J0.5846
G2 X125.675 Y50.0 Z-6.8747 I0.3375 J-0.5846
G2 X124.9972 Y49.325 Z-7.0 I-0.675 J0.0
G2 X124.6625 Y49.4154 I0.0028 J0.675
G2 Y50.5846 I0.3375 J0.5846
G2 X125.675 Y50.0 I0.3375 J-0.5846
G2 X124.9972 Y49.325 I-0.675 J0.0
G0 Z3.0
G0 X123.8745 Y63.0268
G0 Z1.0
G1 F8.0 Z0.0
G2 F650.0 X123.5575 Y63.098 Z-0.0482 I-0.0445 J0.5432
G2 Y64.042 Z-0.2148 I0.2725 J0.472
G2 X124.375 Y63.57 Z-0.3815 I0.2725 J-0.472
G2 X123.8745 Y63.0268 Z-0.5 I-0.545 J0.0
G2 X123.5575 Y63.098 Z-0.5482 I-0.0445 J0.5432
G2 Y64.042 Z-0.7148 I0.2725 J0.472
G2 X124.375 Y63.57 Z-0.8815 I0.2725 J-0.472
G2 X123.8745 Y63.0268 Z-1.0 I-0.545 J0.0
G2 X123.5575 Y63.098 Z-1.0482 I-0.0445 J0.5432
G2 Y64.042 Z-1.2148 I0.2725 J0.472
G2 X124.375 Y63.57 Z-1.3815 I0.2725 J-0.472
G2 X123.8745 Y63.0268 Z-1.5 I-0.545 J0.0
G2 X123.5575 Y63.098 Z-1.5482 I-0.0445 J0.5432
G2 Y64.042 Z-1.7148 I0.2725 J0.472
G2 X124.375 Y63.57 Z-1.8815 I0.2725 J-0.472
G2 X123.8745 Y63.0268 Z-2.0 I-0.545 J0.0
G2 X123.5575 Y63.098 Z-2.0482 I-0.0445 J0.5432
G2 Y64.042 Z-2.2148 I0.2725 J0.472
G2 X124.375 Y63.57 Z-2.3815 I0.2725 J-0.472
G2 X123.8745 Y63.0268 Z-2.5 I-0.545 J0.0
G2 X123.5575 Y63.098 Z-2.5482 I-0.0445 J0.5432
G2 Y64.042 Z-2.7148 I0.2725 J0.472
G2 X124.375 Y63.57 Z-2.8815 I0.2725 J-0.472
G2 X123.8745 Y63.0268 Z-3.0 I-0.545 J0.0
G2 X123.5575 Y63.098 Z-3.0482 I-0.0445 J0.5432
G2 Y64.042 Z-3.2148 I0.2725 J0.472
G2 X124.375 Y63.57 Z-3.3815 I0.2725 J-0.472
G2 X123.8745 Y63.0268 Z-3.5 I-0.545 J0.0
G2 X123.5575 Y63.098 Z-3.5482 I-0.0445 J0.5432
G2 Y64.042 Z-3.7148 I0.2725 J0.472
G2 X124.375 Y63.57 Z-3.8815 I0.2725 J-0.472
G2 X123.8745 Y63.0268 Z-4.0 I-0.545 J0.0
G2 X123.5575 Y63.098 Z-4.0482 I-0.0445 J0.5432
G2 Y64.042 Z-4.2148 I0.2725 J0.472
G2 X124.375 Y63.57 Z-4.3815 I0.2725 J-0.472
G2 X123.8745 Y63.0268 Z-4.5 I-0.545 J0.0
G2 X123.5575 Y63.098 Z-4.5482 I-0.0445 J0.5432
G2 Y64.042 Z-4.7148 I0.2725 J0.472
G2 X124.375 Y63.57 Z-4.8815 I0.2725 J-0.472
G2 X123.8745 Y63.0268 Z-5.0 I-0.545 J0.0
G2 X123.5575 Y63.098 Z-5.0482 I-0.0445 J0.5432
G2 Y64.042 Z-5.2148 I0.2725 J0.472
G2 X124.375 Y63.57 Z-5.3815 I0.2725 J-0.472
G2 X123.8745 Y63.0268 Z-5.5 I-0.545 J0.0
G2 X123.5575 Y63.098 Z-5.5482 I-0.0445 J0.5432
G2 Y64.042 Z-5.7148 I0.2725 J0.472
G2 X124.375 Y63.57 Z-5.8815 I0.2725 J-0.472
G2 X123.8745 Y63.0268 Z-6.0 I-0.545 J0.0
G2 X123.5575 Y63.098 Z-6.0482 I-0.0445 J0.5432
G2 Y64.042 Z-6.2148 I0.2725 J0.472
G2 X124.375 Y63.57 Z-6.3815 I0.2725 J-0.472
G2 X123.8745 Y63.0268 Z-6.5 I-0.545 J0.0
G2 X123.5575 Y63.098 Z-6.5482 I-0.0445 J0.5432
G2 Y64.042 Z-6.7148 I0.2725 J0.472
G2 X124.375 Y63.57 Z-6.8815 I0.2725 J-0.472
G2 X123.8745 Y63.0268 Z-7.0 I-0.545 J0.0
G2 X123.5575 Y63.098 I-0.0445 J0.5432
G2 Y64.042 I0.2725 J0.472
G2 X124.375 Y63.57 I0.2725 J-0.472
G2 X123.8745 Y63.0268 I-0.545 J0.0
G0 Z3.0
G0 X144.359 Y69.7884
G0 Z1.0
G1 F8.0 Z0.0
G2 F650.0 X144.6625 Y70.5846 Z-0.1087 I0.641 J0.2116
G2 X145.675 Y70.0 Z-0.2754 I0.3375 J-0.5846
G2 X144.6625 Y69.4154 Z-0.442 I-0.675 J0.0
G2 X144.359 Y69.7884 Z-0.5 I0.3375 J0.5846
G2 X144.6625 Y70.5846 Z-0.6087 I0.641 J0.2116
G2 X145.675 Y70.0 Z-0.7754 I0.3375 J-0.5846
G2 X144.6625 Y69.4154 Z-0.942 I-0.675 J0.0
G2 X144.359 Y69.7884 Z-1.0 I0.3375 J0.5846
G2 X144.6625 Y70.5846 Z-1.1087 I0.641 J0.2116
G2 X145.675 Y70.0 Z-1.2754 I0.3375 J-0.5846
G2 X144.6625 Y69.4154 Z-1.442 I-0.675 J0.0
G2 X144.359 Y69.7884 Z-1.5 I0.3375 J0.5846
G2 X144.6625 Y70.5846 Z-1.6087 I0.641 J0.2116
G2 X145.675 Y70.0 Z-1.7754 I0.3375 J-0.5846
G2 X144.6625 Y69.4154 Z-1.942 I-0.675 J0.0
G2 X144.359 Y69.7884 Z-2.0 I0.3375 J0.5846
G2 X144.6625 Y70.5846 Z-2.1087 I0.641 J0.2116
G2 X145.675 Y70.0 Z-2.2754 I0.3375 J-0.5846
G2 X144.6625 Y69.4154 Z-2.442 I-0.675 J0.0
G2 X144.359 Y69.7884 Z-2.5 I0.3375 J0.5846
G2 X144.6625 Y70.5846 Z-2.6087 I0.641 J0.2116
G2 X145.675 Y70.0 Z-2.7754 I0.3375 J-0.5846
G2 X144.6625 Y69.4154 Z-2.942 I-0.675 J0.0
G2 X144.359 Y69.7884 Z-3.0 I0.3375 J0.5846
G2 X144.6625 Y70.5846 Z-3.1087 I0.641 J0.2116
G2 X145.675 Y70.0 Z-3.2754 I0.3375 J-0.5846
G2 X144.6625 Y69.4154 Z-3.442 I-0.675 J0.0
G2 X144.359 Y69.7884 Z-3.5 I0.3375 J0.5846
G2 X144.6625 Y70.5846 Z-3.6087 I0.641 J0.2116
G2 X145.675 Y70.0 Z-3.7754 I0.3375 J-0.5846
G2 X144.6625 Y69.4154 Z-3.942 I-0.675 J0.0
G2 X144.359 Y69.7884 Z-4.0 I0.3375 J0.5846
G2 X144.6625 Y70.5846 Z-4.1087 I0.641 J0.2116
G2 X145.675 Y70.0 Z-4.2754 I0.3375 J-0.5846
G2 X144.6625 Y69.4154 Z-4.442 I-0.675 J0.0
G2 X144.359 Y69.7884 Z-4.5 I0.3375 J0.5846
G2 X144.6625 Y70.5846 Z-4.6087 I0.641 J0.2116
G2 X145.675 Y70.0 Z-4.7754 I0.3375 J-0.5846
G2 X144.6625 Y69.4154 Z-4.942 I-0.675 J0.0
G2 X144.359 Y69.7884 Z-5.0 I0.3375 J0.5846
G2 X144.6625 Y70.5846 Z-5.1087 I0.641 J0.2116
G2 X145.675 Y70.0 Z-5.2754 I0.3375 J-0.5846
G2 X144.6625 Y69.4154 Z-5.442 I-0.675 J0.0
G2 X144.359 Y69.7884 Z-5.5 I0.3375 J0.5846
G2 X144.6625 Y70.5846 Z-5.6087 I0.641 J0.2116
G2 X145.675 Y70.0 Z-5.7754 I0.3375 J-0.5846
G2 X144.6625 Y69.4154 Z-5.942 I-0.675 J0.0
G2 X144.359 Y69.7884 Z-6.0 I0.3375 J0.5846
G2 X144.6625 Y70.5846 Z-6.1087 I0.641 J0.2116
G2 X145.675 Y70.0 Z-6.2754 I0.3375 J-0.5846
G2 X144.6625 Y69.4154 Z-6.442 I-0.675 J0.0
G2 X144.359 Y69.7884 Z-6.5 I0.3375 J0.5846
G2 X144.6625 Y70.5846 Z-6.6087 I0.641 J0.2116
G2 X145.675 Y70.0 Z-6.7754 I0.3375 J-0.5846
G2 X144.6625 Y69.4154 Z-6.942 I-0.675 J0.0
G2 X144.359 Y69.7884 Z-7.0 I0.3375 J0.5846
G2 X144.6625 Y70.5846 I0.641 J0.2116
G2 X145.675 Y70.0 I0.3375 J-0.5846
G2 X144.6625 Y69.4154 I-0.675 J0.0
G2 X144.359 Y69.7884 I0.3375 J0.5846
G0 Z3.0
G0 X154.6855 Y89.4027
G0 Z1.0
G1 F8.0 Z0.0
G2 F650.0 X154.6625 Y89.4154 Z-0.0031 I0.3145 J0.5973
G2 Y90.5846 Z-0.1698 I0.3375 J0.5846
G2 X155.675 Y90.0 Z-0.3364 I0.3375 J-0.5846
G2 X154.6855 Y89.4027 Z-0.5 I-0.675 J0.0
G2 X154.6625 Y89.4154 Z-0.5031 I0.3145 J0.5973
G2 Y90.5846 Z-0.6698 I0.3375 J0.5846
G2 X155.675 Y90.0 Z-0.8364 I0.3375 J-0.5846
G2 X154.6855 Y89.4027 Z-1.0 I-0.675 J0.0
G2 X154.6625 Y89.4154 Z-1.0031 I0.3145 J0.5973
G2 Y90.5846 Z-1.1698 I0.3375 J0.5846
G2 X155.675 Y90.0 Z-1.3364 I0.3375 J-0.5846
G2 X154.6855 Y89.4027 Z-1.5 I-0.675 J0.0
G2 X154.6625 Y89.4154 Z-1.5031 I0.3145 J0.5973
G2 Y90.5846 Z-1.6698 I0.3375 J0.5846
G2 X155.675 Y90.0 Z-1.8364 I0.3375 J-0.5846
G2 X154.6855 Y89.4027 Z-2.0 I-0.675 J0.0
G2 X154.6625 Y89.4154 Z-2.0031 I0.3145 J0.5973
G2 Y90.5846 Z-2.1698 I0.3375 J0.5846
G2 X155.675 Y90.0 Z-2.3364 I0.3375 J-0.5846
G2 X154.6855 Y89.4027 Z-2.5 I-0.675 J0.0
G2 X154.6625 Y89.4154 Z-2.5031 I0.3145 J0.5973
G2 Y90.5846 Z-2.6698 I0.3375 J0.5846
G2 X155.675 Y90.0 Z-2.8364 I0.3375 J-0.5846
G2 X154.6855 Y89.4027 Z-3.0 I-0.675 J0.0
G2 X154.6625 Y89.4154 Z-3.0031 I0.3145 J0.5973
G2 Y90.5846 Z-3.1698 I0.3375 J0.5846
G2 X155.675 Y90.0 Z-3.3364 I0.3375 J-0.5846
G2 X154.6855 Y89.4027 Z-3.5 I-0.675 J0.0
G2 X154.6625 Y89.4154 Z-3.5031 I0.3145 J0.5973
G2 Y90.5846 Z-3.6698 I0.3375 J0.5846
G2 X155.675 Y90.0 Z-3.8364 I0.3375 J-0.5846
G2 X154.6855 Y89.4027 Z-4.0 I-0.675 J0.0
G2 X154.6625 Y89.4154 Z-4.0031 I0.3145 J0.5973
G2 Y90.5846 Z-4.1698 I0.3375 J0.5846
G2 X155.675 Y90.0 Z-4.3364 I0.3375 J-0.5846
G2 X154.6855 Y89.4027 Z-4.5 I-0.675 J0.0
G2 X154.6625 Y89.4154 Z-4.5031 I0.3145 J0.5973
G2 Y90.5846 Z-4.6698 I0.3375 J0.5846
G2 X155.675 Y90.0 Z-4.8364 I0.3375 J-0.5846
G2 X154.6855 Y89.4027 Z-5.0 I-0.675 J0.0
G2 X154.6625 Y89.4154 Z-5.0031 I0.3145 J0.5973
G2 Y90.5846 Z-5.1698 I0.3375 J0.5846
G2 X155.675 Y90.0 Z-5.3364 I0.3375 J-0.5846
G2 X154.6855 Y89.4027 Z-5.5 I-0.675 J0.0
G2 X154.6625 Y89.4154 Z-5.5031 I0.3145 J0.5973
G2 Y90.5846 Z-5.6698 I0.3375 J0.5846
G2 X155.675 Y90.0 Z-5.8364 I0.3375 J-0.5846
G2 X154.6855 Y89.4027 Z-6.0 I-0.675 J0.0
G2 X154.6625 Y89.4154 Z-6.0031 I0.3145 J0.5973
G2 Y90.5846 Z-6.1698 I0.3375 J0.5846
G2 X155.675 Y90.0 Z-6.3364 I0.3375 J-0.5846
G2 X154.6855 Y89.4027 Z-6.5 I-0.675 J0.0
G2 X154.6625 Y89.4154 Z-6.5031 I0.3145 J0.5973
G2 Y90.5846 Z-6.6698 I0.3375 J0.5846
G2 X155.675 Y90.0 Z-6.8364 I0.3375 J-0.5846
G2 X154.6855 Y89.4027 Z-7.0 I-0.675 J0.0
G2 X154.6625 Y89.4154 I0.3145 J0.5973
G2 Y90.5846 I0.3375 J0.5846
G2 X155.675 Y90.0 I0.3375 J-0.5846
G2 X154.6855 Y89.4027 I-0.675 J0.0
G0 Z3.0
G0 X125.6749 Y89.9864
G0 Z1.0
G1 F8.0 Z0.0
G2 F650.0 X124.6625 Y89.4154 Z-0.1651 I-0.6749 J0.0136
G2 Y90.5846 Z-0.3317 I0.3375 J0.5846
G2 X125.675 Y90.0 Z-0.4984 I0.3375 J-0.5846
G2 X125.6749 Y89.9864 Z-0.5 I-0.675 J0.0
G2 X124.6625 Y89.4154 Z-0.6651 I-0.6749 J0.0136
G2 Y90.5846 Z-0.8317 I0.3375 J0.5846
G2 X125.675 Y90.0 Z-0.9984 I0.3375 J-0.5846
G2 X125.6749 Y89.9864 Z-1.0 I-0.675 J0.0
G2 X124.6625 Y89.4154 Z-1.1651 I-0.6749 J0.0136
G2 Y90.5846 Z-1.3317 I0.3375 J0.5846
G2 X125.675 Y90.0 Z-1.4984 I0.3375 J-0.5846
G2 X125.6749 Y89.9864 Z-1.5 I-0.675 J0.0
G2 X124.6625 Y89.4154 Z-1.6651 I-0.6749 J0.0136
G2 Y90.5846 Z-1.8317 I0.3375 J0.5846
G2 X125.675 Y90.0 Z-1.9984 I0.3375 J-0.5846
G2 X125.6749 Y89.9864 Z-2.0 I-0.675 J0.0
G2 X124.6625 Y89.4154 Z-2.1651 I-0.6749 J0.0136
G2 Y90.5846 Z-2.3317 I0.3375 J0.5846
G2 X125.675 Y90.0 Z-2.4984 I0.3375 J-0.5846
G2 X125.6749 Y89.9864 Z-2.5 I-0.675 J0.0
G2 X124.6625 Y89.4154 Z-2.6651 I-0.6749 J0.0136
G2 Y90.5846 Z-2.8317 I0.3375 J0.5846
G2 X125.675 Y90.0 Z-2.9984 I0.3375 J-0.5846
G2 X125.6749 Y89.9864 Z-3.0 I-0.675 J0.0
G2 X124.6625 Y89.4154 Z-3.1651 I-0.6749 J0.0136
G2 Y90.5846 Z-3.3317 I0.3375 J0.5846
G2 X125.675 Y90.0 Z-3.4984 I0.3375 J-0.5846
G2 X125.6749 Y89.9864 Z-3.5 I-0.675 J0.0
G2 X124.6625 Y89.4154 Z-3.6651 I-0.6749 J0.0136
G2 Y90.5846 Z-3.8317 I0.3375 J0.5846
G2 X125.675 Y90.0 Z-3.9984 I0.3375 J-0.5846
G2 X125.6749 Y89.9864 Z-4.0 I-0.675 J0.0
G2 X124.6625 Y89.4154 Z-4.1651 I-0.6749 J0.0136
G2 Y90.5846 Z-4.3317 I0.3375 J0.5846
G2 X125.675 Y90.0 Z-4.4984 I0.3375 J-0.5846
G2 X125.6749 Y89.9864 Z-4.5 I-0.675 J0.0
G2 X124.6625 Y89.4154 Z-4.6651 I-0.6749 J0.0136
G2 Y90.5846 Z-4.8317 I0.3375 J0.5846
G2 X125.675 Y90.0 Z-4.9984 I0.3375 J-0.5846
G2 X125.6749 Y89.9864 Z-5.0 I-0.675 J0.0
G2 X124.6625 Y89.4154 Z-5.1651 I-0.6749 J0.0136
G2 Y90.5846 Z-5.3317 I0.3375 J0.5846
G2 X125.675 Y90.0 Z-5.4984 I0.3375 J-0.5846
G2 X125.6749 Y89.9864 Z-5.5 I-0.675 J0.0
G2 X124.6625 Y89.4154 Z-5.6651 I-0.6749 J0.0136
G2 Y90.5846 Z-5.8317 I0.3375 J0.5846
G2 X125.675 Y90.0 Z-5.9984 I0.3375 J-0.5846
G2 X125.6749 Y89.9864 Z-6.0 I-0.675 J0.0
G2 X124.6625 Y89.4154 Z-6.1651 I-0.6749 J0.0136
G2 Y90.5846 Z-6.3317 I0.3375 J0.5846
G2 X125.675 Y90.0 Z-6.4984 I0.3375 J-0.5846
G2 X125.6749 Y89.9864 Z-6.5 I-0.675 J0.0
G2 X124.6625 Y89.4154 Z-6.6651 I-0.6749 J0.0136
G2 Y90.5846 Z-6.8317 I0.3375 J0.5846
G2 X125.675 Y90.0 Z-6.9984 I0.3375 J-0.5846
G2 X125.6749 Y89.9864 Z-7.0 I-0.675 J0.0
G2 X124.6625 Y89.4154 I-0.6749 J0.0136
G2 Y90.5846 I0.3375 J0.5846
G2 X125.675 Y90.0 I0.3375 J-0.5846
G2 X125.6749 Y89.9864 I-0.675 J0.0
G0 Z3.0
G0 X95.675 Y89.9997
G0 Z1.0
G1 F8.0 Z0.0
G2 F650.0 X94.6625 Y89.4154 Z-0.1666 I-0.675 J0.0003
G2 Y90.5846 Z-0.3333 I0.3375 J0.5846
G2 X95.675 Y90.0 Z-0.5 I0.3375 J-0.5846
G2 Y89.9997 I-0.675 J0.0
G2 X94.6625 Y89.4154 Z-0.6666 I-0.675 J0.0003
G2 Y90.5846 Z-0.8333 I0.3375 J0.5846
G2 X95.675 Y90.0 Z-1.0 I0.3375 J-0.5846
G2 Y89.9997 I-0.675 J0.0
G2 X94.6625 Y89.4154 Z-1.1666 I-0.675 J0.0003
G2 Y90.5846 Z-1.3333 I0.3375 J0.5846
G2 X95.675 Y90.0 Z-1.5 I0.3375 J-0.5846
G2 Y89.9997 I-0.675 J0.0
G2 X94.6625 Y89.4154 Z-1.6666 I-0.675 J0.0003
G2 Y90.5846 Z-1.8333 I0.3375 J0.5846
G2 X95.675 Y90.0 Z-2.0 I0.3375 J-0.5846
G2 Y89.9997 I-0.675 J0.0
G2 X94.6625 Y89.4154 Z-2.1666 I-0.675 J0.0003
G2 Y90.5846 Z-2.3333 I0.3375 J0.5846
G2 X95.675 Y90.0 Z-2.5 I0.3375 J-0.5846
G2 Y89.9997 I-0.675 J0.0
G2 X94.6625 Y89.4154 Z-2.6666 I-0.675 J0.0003
G2 Y90.5846 Z-2.8333 I0.3375 J0.5846
G2 X95.675 Y90.0 Z-3.0 I0.3375 J-0.5846
G2 Y89.9997 I-0.675 J0.0
G2 X94.6625 Y89.4154 Z-3.1666 I-0.675 J0.0003
G2 Y90.5846 Z-3.3333 I0.3375 J0.5846
G2 X95.675 Y90.0 Z-3.5 I0.3375 J-0.5846
G2 Y89.9997 I-0.675 J0.0
G2 X94.6625 Y89.4154 Z-3.6666 I-0.675 J0.0003
G2 Y90.5846 Z-3.8333 I0.3375 J0.5846
G2 X95.675 Y90.0 Z-4.0 I0.3375 J-0.5846
G2 Y89.9997 I-0.675 J0.0
G2 X94.6625 Y89.4154 Z-4.1666 I-0.675 J0.0003
G2 Y90.5846 Z-4.3333 I0.3375 J0.5846
G2 X95.675 Y90.0 Z-4.5 I0.3375 J-0.5846
G2 Y89.9997 I-0.675 J0.0
G2 X94.6625 Y89.4154 Z-4.6666 I-0.675 J0.0003
G2 Y90.5846 Z-4.8333 I0.3375 J0.5846
G2 X95.675 Y90.0 Z-5.0 I0.3375 J-0.5846
G2 Y89.9997 I-0.675 J0.0
G2 X94.6625 Y89.4154 Z-5.1666 I-0.675 J0.0003
G2 Y90.5846 Z-5.3333 I0.3375 J0.5846
G2 X95.675 Y90.0 Z-5.5 I0.3375 J-0.5846
G2 Y89.9997 I-0.675 J0.0
G2 X94.6625 Y89.4154 Z-5.6666 I-0.675 J0.0003
G2 Y90.5846 Z-5.8333 I0.3375 J0.5846
G2 X95.675 Y90.0 Z-6.0 I0.3375 J-0.5846
G2 Y89.9997 I-0.675 J0.0
G2 X94.6625 Y89.4154 Z-6.1666 I-0.675 J0.0003
G2 Y90.5846 Z-6.3333 I0.3375 J0.5846
G2 X95.675 Y90.0 Z-6.5 I0.3375 J-0.5846
G2 Y89.9997 I-0.675 J0.0
G2 X94.6625 Y89.4154 Z-6.6666 I-0.675 J0.0003
G2 Y90.5846 Z-6.8333 I0.3375 J0.5846
G2 X95.675 Y90.0 Z-7.0 I0.3375 J-0.5846
G2 Y89.9997 I-0.675 J0.0
G2 X94.6625 Y89.4154 I-0.675 J0.0003
G2 Y90.5846 I0.3375 J0.5846
G2 X95.675 Y90.0 I0.3375 J-0.5846
G2 Y89.9997 I-0.675 J0.0
G0 Z3.0
G0 X144.6457 Y10.5746
G0 Z1.0
G1 F8.0 Z0.0
G2 F650.0 X144.6625 Y10.5846 Z-0.0023 I0.3543 J-0.5746
G2 X145.675 Y10.0 Z-0.169 I0.3375 J-0.5846
G2 X144.6625 Y9.4154 Z-0.3356 I-0.675 J0.0
G2 X144.6457 Y10.5746 Z-0.5 I0.3375 J0.5846
G2 X144.6625 Y10.5846 Z-0.5023 I0.3543 J-0.5746
G2 X145.675 Y10.0 Z-0.669 I0.3375 J-0.5846
G2 X144.6625 Y9.4154 Z-0.8356 I-0.675 J0.0
G2 X144.6457 Y10.5746 Z-1.0 I0.3375 J0.5846
G2 X144.6625 Y10.5846 Z-1.0023 I0.3543 J-0.5746
G2 X145.675 Y10.0 Z-1.169 I0.3375 J-0.5846
G2 X144.6625 Y9.4154 Z-1.3356 I-0.675 J0.0
G2 X144.6457 Y10.5746 Z-1.5 I0.3375 J0.5846
G2 X144.6625 Y10.5846 Z-1.5023 I0.3543 J-0.5746
G2 X145.675 Y10.0 Z-1.669 I0.3375 J-0.5846
G2 X144.6625 Y9.4154 Z-1.8356 I-0.675 J0.0
G2 X144.6457 Y10.5746 Z-2.0 I0.3375 J0.5846
G2 X144.6625 Y10.5846 Z-2.0023 I0.3543 J-0.5746
G2 X145.675 Y10.0 Z-2.169 I0.3375 J-0.5846
G2 X144.6625 Y9.4154 Z-2.3356 I-0.675 J0.0
G2 X144.6457 Y10.5746 Z-2.5 I0.3375 J0.5846
G2 X144.6625 Y10.5846 Z-2.5023 I0.3543 J-0.5746
G2 X145.675 Y10.0 Z-2.669 I0.3375 J-0.5846
G2 X144.6625 Y9.4154 Z-2.8356 I-0.675 J0.0
G2 X144.6457 Y10.5746 Z-3.0 I0.3375 J0.5846
G2 X144.6625 Y10.5846 Z-3.0023 I0.3543 J-0.5746
G2 X145.675 Y10.0 Z-3.169 I0.3375 J-0.5846
G2 X144.6625 Y9.4154 Z-3.3356 I-0.675 J0.0
G2 X144.6457 Y10.5746 Z-3.5 I0.3375 J0.5846
G2 X144.6625 Y10.5846 Z-3.5023 I0.3543 J-0.5746
G2 X145.675 Y10.0 Z-3.669 I0.3375 J-0.5846
G2 X144.6625 Y9.4154 Z-3.8356 I-0.675 J0.0
G2 X144.6457 Y10.5746 Z-4.0 I0.3375 J0.5846
G2 X144.6625 Y10.5846 Z-4.0023 I0.3543 J-0.5746
G2 X145.675 Y10.0 Z-4.169 I0.3375 J-0.5846
G2 X144.6625 Y9.4154 Z-4.3356 I-0.675 J0.0
G2 X144.6457 Y10.5746 Z-4.5 I0.3375 J0.5846
G2 X144.6625 Y10.5846 Z-4.5023 I0.3543 J-0.5746
G2 X145.675 Y10.0 Z-4.669 I0.3375 J-0.5846
G2 X144.6625 Y9.4154 Z-4.8356 I-0.675 J0.0
G2 X144.6457 Y10.5746 Z-5.0 I0.3375 J0.5846
G2 X144.6625 Y10.5846 Z-5.0023 I0.3543 J-0.5746
G2 X145.675 Y10.0 Z-5.169 I0.3375 J-0.5846
G2 X144.6625 Y9.4154 Z-5.3356 I-0.675 J0.0
G2 X144.6457 Y10.5746 Z-5.5 I0.3375 J0.5846
G2 X144.6625 Y10.5846 Z-5.5023 I0.3543 J-0.5746
G2 X145.675 Y10.0 Z-5.669 I0.3375 J-0.5846
G2 X144.6625 Y9.4154 Z-5.8356 I-0.675 J0.0
G2 X144.6457 Y10.5746 Z-6.0 I0.3375 J0.5846
G2 X144.6625 Y10.5846 Z-6.0023 I0.3543 J-0.5746
G2 X145.675 Y10.0 Z-6.169 I0.3375 J-0.5846
G2 X144.6625 Y9.4154 Z-6.3356 I-0.675 J0.0
G2 X144.6457 Y10.5746 Z-6.5 I0.3375 J0.5846
G2 X144.6625 Y10.5846 Z-6.5023 I0.3543 J-0.5746
G2 X145.675 Y10.0 Z-6.669 I0.3375 J-0.5846
G2 X144.6625 Y9.4154 Z-6.8356 I-0.675 J0.0
G2 X144.6457 Y10.5746 Z-7.0 I0.3375 J0.5846
G2 X144.6625 Y10.5846 I0.3543 J-0.5746
G2 X145.675 Y10.0 I0.3375 J-0.5846
G2 X144.6625 Y9.4154 I-0.675 J0.0
G2 X144.6457 Y10.5746 I0.3375 J0.5846
G0 Z3.0
G0 X30.5727 Y19.9447
G0 Z1.0
G1 F8.0 Z0.0
G2 F650.0 X29.5625 Y19.4154 Z-0.1601 I-0.6727 J0.0553
G2 Y20.5846 Z-0.3268 I0.3375 J0.5846
G2 X30.575 Y20.0 Z-0.4935 I0.3375 J-0.5846
G2 X30.5727 Y19.9447 Z-0.5 I-0.675 J0.0
G2 X29.5625 Y19.4154 Z-0.6601 I-0.6727 J0.0553
G2 Y20.5846 Z-0.8268 I0.3375 J0.5846
G2 X30.575 Y20.0 Z-0.9935 I0.3375 J-0.5846
G2 X30.5727 Y19.9447 Z-1.0 I-0.675 J0.0
G2 X29.5625 Y19.4154 Z-1.1601 I-0.6727 J0.0553
G2 Y20.5846 Z-1.3268 I0.3375 J0.5846
G2 X30.575 Y20.0 Z-1.4935 I0.3375 J-0.5846
G2 X30.5727 Y19.9447 Z-1.5 I-0.675 J0.0
G2 X29.5625 Y19.4154 Z-1.6601 I-0.6727 J0.0553
G2 Y20.5846 Z-1.8268 I0.3375 J0.5846
G2 X30.575 Y20.0 Z-1.9935 I0.3375 J-0.5846
G2 X30.5727 Y19.9447 Z-2.0 I-0.675 J0.0
G2 X29.5625 Y19.4154 Z-2.1601 I-0.6727 J0.0553
G2 Y20.5846 Z-2.3268 I0.3375 J0.5846
G2 X30.575 Y20.0 Z-2.4935 I0.3375 J-0.5846
G2 X30.5727 Y19.9447 Z-2.5 I-0.675 J0.0
G2 X29.5625 Y19.4154 Z-2.6601 I-0.6727 J0.0553
G2 Y20.5846 Z-2.8268 I0.3375 J0.5846
G2 X30.575 Y20.0 Z-2.9935 I0.3375 J-0.5846
G2 X30.5727 Y19.9447 Z-3.0 I-0.675 J0.0
G2 X29.5625 Y19.4154 Z-3.1601 I-0.6727 J0.0553
G2 Y20.5846 Z-3.3268 I0.3375 J0.5846
G2 X30.575 Y20.0 Z-3.4935 I0.3375 J-0.5846
G2 X30.5727 Y19.9447 Z-3.5 I-0.675 J0.0
G2 X29.5625 Y19.4154 Z-3.6601 I-0.6727 J0.0553
G2 Y20.5846 Z-3.8268 I0.3375 J0.5846
G2 X30.575 Y20.0 Z-3.9935 I0.3375 J-0.5846
G2 X30.5727 Y19.9447 Z-4.0 I-0.675 J0.0
G2 X29.5625 Y19.4154 Z-4.1601 I-0.6727 J0.0553
G2 Y20.5846 Z-4.3268 I0.3375 J0.5846
G2 X30.575 Y20.0 Z-4.4935 I0.3375 J-0.5846
G2 X30.5727 Y19.9447 Z-4.5 I-0.675 J0.0
G2 X29.5625 Y19.4154 Z-4.6601 I-0.6727 J0.0553
G2 Y20.5846 Z-4.8268 I0.3375 J0.5846
G2 X30.575 Y20.0 Z-4.9935 I0.3375 J-0.5846
G2 X30.5727 Y19.9447 Z-5.0 I-0.675 J0.0
G2 X29.5625 Y19.4154 Z-5.1601 I-0.6727 J0.0553
G2 Y20.5846 Z-5.3268 I0.3375 J0.5846
G2 X30.575 Y20.0 Z-5.4935 I0.3375 J-0.5846
G2 X30.5727 Y19.9447 Z-5.5 I-0.675 J0.0
G2 X29.5625 Y19.4154 Z-5.6601 I-0.6727 J0.0553
G2 Y20.5846 Z-5.8268 I0.3375 J0.5846
G2 X30.575 Y20.0 Z-5.9935 I0.3375 J-0.5846
G2 X30.5727 Y19.9447 Z-6.0 I-0.675 J0.0
G2 X29.5625 Y19.4154 Z-6.1601 I-0.6727 J0.0553
G2 Y20.5846 Z-6.3268 I0.3375 J0.5846
G2 X30.575 Y20.0 Z-6.4935 I0.3375 J-0.5846
G2 X30.5727 Y19.9447 Z-6.5 I-0.675 J0.0
G2 X29.5625 Y19.4154 Z-6.6601 I-0.6727 J0.0553
G2 Y20.5846 Z-6.8268 I0.3375 J0.5846
G2 X30.575 Y20.0 Z-6.9935 I0.3375 J-0.5846
G2 X30.5727 Y19.9447 Z-7.0 I-0.675 J0.0
G2 X29.5625 Y19.4154 I-0.6727 J0.0553
G2 Y20.5846 I0.3375 J0.5846
G2 X30.575 Y20.0 I0.3375 J-0.5846
G2 X30.5727 Y19.9447 I-0.675 J0.0
G0 Z3.0
G0 X10.5083 Y10.2926
G0 Z1.0
G1 F8.0 Z0.0
G2 F650.0 X10.575 Y10.0 Z-0.0357 I-0.6083 J-0.2926
G2 X9.5625 Y9.4154 Z-0.2023 I-0.675 J0.0
G2 Y10.5846 Z-0.369 I0.3375 J0.5846
G2 X10.5083 Y10.2926 Z-0.5 I0.3375 J-0.5846
G2 X10.575 Y10.0 Z-0.5357 I-0.6083 J-0.2926
G2 X9.5625 Y9.4154 Z-0.7023 I-0.675 J0.0
G2 Y10.5846 Z-0.869 I0.3375 J0.5846
G2 X10.5083 Y10.2926 Z-1.0 I0.3375 J-0.5846
G2 X10.575 Y10.0 Z-1.0357 I-0.6083 J-0.2926
G2 X9.5625 Y9.4154 Z-1.2023 I-0.675 J0.0
G2 Y10.5846 Z-1.369 I0.3375 J0.5846
G2 X10.5083 Y10.2926 Z-1.5 I0.3375 J-0.5846
G2 X10.575 Y10.0 Z-1.5357 I-0.6083 J-0.2926
G2 X9.5625 Y9.4154 Z-1.7023 I-0.675 J0.0
G2 Y10.5846 Z-1.869 I0.3375 J0.5846
G2 X10.5083 Y10.2926 Z-2.0 I0.3375 J-0.5846
G2 X10.575 Y10.0 Z-2.0357 I-0.6083 J-0.2926
G2 X9.5625 Y9.4154 Z-2.2023 I-0.675 J0.0
G2 Y10.5846 Z-2.369 I0.3375 J0.5846
G2 X10.5083 Y10.2926 Z-2.5 I0.3375 J-0.5846
G2 X10.575 Y10.0 Z-2.5357 I-0.6083 J-0.2926
G2 X9.5625 Y9.4154 Z-2.7023 I-0.675 J0.0
G2 Y10.5846 Z-2.869 I0.3375 J0.5846
G2 X10.5083 Y10.2926 Z-3.0 I0.3375 J-0.5846
G2 X10.575 Y10.0 Z-3.0357 I-0.6083 J-0.2926
G2 X9.5625 Y9.4154 Z-3.2023 I-0.675 J0.0
G2 Y10.5846 Z-3.369 I0.3375 J0.5846
G2 X10.5083 Y10.2926 Z-3.5 I0.3375 J-0.5846
G2 X10.575 Y10.0 Z-3.5357 I-0.6083 J-0.2926
G2 X9.5625 Y9.4154 Z-3.7023 I-0.675 J0.0
G2 Y10.5846 Z-3.869 I0.3375 J0.5846
G2 X10.5083 Y10.2926 Z-4.0 I0.3375 J-0.5846
G2 X10.575 Y10.0 Z-4.0357 I-0.6083 J-0.2926
G2 X9.5625 Y9.4154 Z-4.2023 I-0.675 J0.0
G2 Y10.5846 Z-4.369 I0.3375 J0.5846
G2 X10.5083 Y10.2926 Z-4.5 I0.3375 J-0.5846
G2 X10.575 Y10.0 Z-4.5357 I-0.6083 J-0.2926
G2 X9.5625 Y9.4154 Z-4.7023 I-0.675 J0.0
G2 Y10.5846 Z-4.869 I0.3375 J0.5846
G2 X10.5083 Y10.2926 Z-5.0 I0.3375 J-0.5846
G2 X10.575 Y10.0 Z-5.0357 I-0.6083 J-0.2926
G2 X9.5625 Y9.4154 Z-5.2023 I-0.675 J0.0
G2 Y10.5846 Z-5.369 I0.3375 J0.5846
G2 X10.5083 Y10.2926 Z-5.5 I0.3375 J-0.5846
G2 X10.575 Y10.0 Z-5.5357 I-0.6083 J-0.2926
G2 X9.5625 Y9.4154 Z-5.7023 I-0.675 J0.0
G2 Y10.5846 Z-5.869 I0.3375 J0.5846
G2 X10.5083 Y10.2926 Z-6.0 I0.3375 J-0.5846
G2 X10.575 Y10.0 Z-6.0357 I-0.6083 J-0.2926
G2 X9.5625 Y9.4154 Z-6.2023 I-0.675 J0.0
G2 Y10.5846 Z-6.369 I0.3375 J0.5846
G2 X10.5083 Y10.2926 Z-6.5 I0.3375 J-0.5846
G2 X10.575 Y10.0 Z-6.5357 I-0.6083 J-0.2926
G2 X9.5625 Y9.4154 Z-6.7023 I-0.675 J0.0
G2 Y10.5846 Z-6.869 I0.3375 J0.5846
G2 X10.5083 Y10.2926 Z-7.0 I0.3375 J-0.5846
G2 X10.575 Y10.0 I-0.6083 J-0.2926
G2 X9.5625 Y9.4154 I-0.675 J0.0
G2 Y10.5846 I0.3375 J0.5846
G2 X10.5083 Y10.2926 I0.3375 J-0.5846
( Leadscrew Hole )
S1000
G0 Z3.0
G0 X59.925 Y17.6
G0 Z1.0
G1 F8.0 Z-0.5
G2 F650.0 X59.8875 Y17.5783 I-0.025 J0.0
G2 Y17.6217 I0.0125 J0.0217
G2 X59.925 Y17.6 I0.0125 J-0.0217
G1 F8.0 X60.655
G2 F650.0 X59.5225 Y16.9462 I-0.755 J0.0
G2 Y18.2538 I0.3775 J0.6538
G2 X60.655 Y17.6 I0.3775 J-0.6538
G1 F8.0 X62.115
G2 F650.0 X58.7925 Y15.6818 I-2.215 J0.0
G2 Y19.5182 I1.1075 J1.9182
G2 X62.115 Y17.6 I1.1075 J-1.9182
G1 F8.0 X63.575
G2 F650.0 X58.0625 Y14.4174 I-3.675 J0.0
G2 Y20.7826 I1.8375 J3.1826
G2 X63.575 Y17.6 I1.8375 J-3.1826
G0 Z3.0
G0 X59.925
G0 Z0.5
G1 F8.0 Z-1.0
G2 F650.0 X59.8875 Y17.5783 I-0.025 J0.0
G2 Y17.6217 I0.0125 J0.0217
G2 X59.925 Y17.6 I0.0125 J-0.0217
G1 F8.0 X60.655
G2 F650.0 X59.5225 Y16.9462 I-0.755 J0.0
G2 Y18.2538 I0.3775 J0.6538
G2 X60.655 Y17.6 I0.3775 J-0.6538
G1 F8.0 X62.115
G2 F650.0 X58.7925 Y15.6818 I-2.215 J0.0
G2 Y19.5182 I1.1075 J1.9182
G2 X62.115 Y17.6 I1.1075 J-1.9182
G1 F8.0 X63.575
G2 F650.0 X58.0625 Y14.4174 I-3.675 J0.0
G2 Y20.7826 I1.8375 J3.1826
G2 X63.575 Y17.6 I1.8375 J-3.1826
G0 Z3.0
G0 X59.925
G0 Z0.0
G1 F8.0 Z-1.5
G2 F650.0 X59.8875 Y17.5783 I-0.025 J0.0
G2 Y17.6217 I0.0125 J0.0217
G2 X59.925 Y17.6 I0.0125 J-0.0217
G1 F8.0 X60.655
G2 F650.0 X59.5225 Y16.9462 I-0.755 J0.0
G2 Y18.2538 I0.3775 J0.6538
G2 X60.655 Y17.6 I0.3775 J-0.6538
G1 F8.0 X62.115
G2 F650.0 X58.7925 Y15.6818 I-2.215 J0.0
G2 Y19.5182 I1.1075 J1.9182
G2 X62.115 Y17.6 I1.1075 J-1.9182
G1 F8.0 X63.575
G2 F650.0 X58.0625 Y14.4174 I-3.675 J0.0
G2 Y20.7826 I1.8375 J3.1826
G2 X63.575 Y17.6 I1.8375 J-3.1826
G0 Z3.0
G0 X59.925
G0 Z-0.5
G1 F8.0 Z-2.0
G2 F650.0 X59.8875 Y17.5783 I-0.025 J0.0
G2 Y17.6217 I0.0125 J0.0217
G2 X59.925 Y17.6 I0.0125 J-0.0217
G1 F8.0 X60.655
G2 F650.0 X59.5225 Y16.9462 I-0.755 J0.0
G2 Y18.2538 I0.3775 J0.6538
G2 X60.655 Y17.6 I0.3775 J-0.6538
G1 F8.0 X62.115
G2 F650.0 X58.7925 Y15.6818 I-2.215 J0.0
G2 Y19.5182 I1.1075 J1.9182
G2 X62.115 Y17.6 I1.1075 J-1.9182
G1 F8.0 X63.575
G2 F650.0 X58.0625 Y14.4174 I-3.675 J0.0
G2 Y20.7826 I1.8375 J3.1826
G2 X63.575 Y17.6 I1.8375 J-3.1826
G0 Z3.0
G0 X59.925
G0 Z-1.0
G1 F8.0 Z-2.5
G2 F650.0 X59.8875 Y17.5783 I-0.025 J0.0
G2 Y17.6217 I0.0125 J0.0217
G2 X59.925 Y17.6 I0.0125 J-0.0217
G1 F8.0 X60.655
G2 F650.0 X59.5225 Y16.9462 I-0.755 J0.0
G2 Y18.2538 I0.3775 J0.6538
G2 X60.655 Y17.6 I0.3775 J-0.6538
G1 F8.0 X62.115
G2 F650.0 X58.7925 Y15.6818 I-2.215 J0.0
G2 Y19.5182 I1.1075 J1.9182
G2 X62.115 Y17.6 I1.1075 J-1.9182
G1 F8.0 X63.575
G2 F650.0 X58.0625 Y14.4174 I-3.675 J0.0
G2 Y20.7826 I1.8375 J3.1826
G2 X63.575 Y17.6 I1.8375 J-3.1826
G0 Z3.0
G0 X59.925
G0 Z-1.5
G1 F8.0 Z-3.0
G2 F650.0 X59.8875 Y17.5783 I-0.025 J0.0
G2 Y17.6217 I0.0125 J0.0217
G2 X59.925 Y17.6 I0.0125 J-0.0217
G1 F8.0 X60.655
G2 F650.0 X59.5225 Y16.9462 I-0.755 J0.0
G2 Y18.2538 I0.3775 J0.6538
G2 X60.655 Y17.6 I0.3775 J-0.6538
G1 F8.0 X62.115
G2 F650.0 X58.7925 Y15.6818 I-2.215 J0.0
G2 Y19.5182 I1.1075 J1.9182
G2 X62.115 Y17.6 I1.1075 J-1.9182
G1 F8.0 X63.575
G2 F650.0 X58.0625 Y14.4174 I-3.675 J0.0
G2 Y20.7826 I1.8375 J3.1826
G2 X63.575 Y17.6 I1.8375 J-3.1826
G0 Z3.0
G0 X59.925
G0 Z-2.0
G1 F8.0 Z-3.5
G2 F650.0 X59.8875 Y17.5783 I-0.025 J0.0
G2 Y17.6217 I0.0125 J0.0217
G2 X59.925 Y17.6 I0.0125 J-0.0217
G1 F8.0 X60.655
G2 F650.0 X59.5225 Y16.9462 I-0.755 J0.0
G2 Y18.2538 I0.3775 J0.6538
G2 X60.655 Y17.6 I0.3775 J-0.6538
G1 F8.0 X62.115
G2 F650.0 X58.7925 Y15.6818 I-2.215 J0.0
G2 Y19.5182 I1.1075 J1.9182
G2 X62.115 Y17.6 I1.1075 J-1.9182
G1 F8.0 X63.575
G2 F650.0 X58.0625 Y14.4174 I-3.675 J0.0
G2 Y20.7826 I1.8375 J3.1826
G2 X63.575 Y17.6 I1.8375 J-3.1826
G0 Z3.0
G0 X59.925
G0 Z-2.5
G1 F8.0 Z-4.0
G2 F650.0 X59.8875 Y17.5783 I-0.025 J0.0
G2 Y17.6217 I0.0125 J0.0217
G2 X59.925 Y17.6 I0.0125 J-0.0217
G1 F8.0 X60.655
G2 F650.0 X59.5225 Y16.9462 I-0.755 J0.0
G2 Y18.2538 I0.3775 J0.6538
G2 X60.655 Y17.6 I0.3775 J-0.6538
G1 F8.0 X62.115
G2 F650.0 X58.7925 Y15.6818 I-2.215 J0.0
G2 Y19.5182 I1.1075 J1.9182
G2 X62.115 Y17.6 I1.1075 J-1.9182
G1 F8.0 X63.575
G2 F650.0 X58.0625 Y14.4174 I-3.675 J0.0
G2 Y20.7826 I1.8375 J3.1826
G2 X63.575 Y17.6 I1.8375 J-3.1826
G0 Z3.0
G0 X59.925
G0 Z-3.0
G1 F8.0 Z-4.5
G2 F650.0 X59.8875 Y17.5783 I-0.025 J0.0
G2 Y17.6217 I0.0125 J0.0217
G2 X59.925 Y17.6 I0.0125 J-0.0217
G1 F8.0 X60.655
G2 F650.0 X59.5225 Y16.9462 I-0.755 J0.0
G2 Y18.2538 I0.3775 J0.6538
G2 X60.655 Y17.6 I0.3775 J-0.6538
G1 F8.0 X62.115
G2 F650.0 X58.7925 Y15.6818 I-2.215 J0.0
G2 Y19.5182 I1.1075 J1.9182
G2 X62.115 Y17.6 I1.1075 J-1.9182
G1 F8.0 X63.575
G2 F650.0 X58.0625 Y14.4174 I-3.675 J0.0
G2 Y20.7826 I1.8375 J3.1826
G2 X63.575 Y17.6 I1.8375 J-3.1826
G0 Z3.0
G0 X59.925
G0 Z-3.5
G1 F8.0 Z-5.0
G2 F650.0 X59.8875 Y17.5783 I-0.025 J0.0
G2 Y17.6217 I0.0125 J0.0217
G2 X59.925 Y17.6 I0.0125 J-0.0217
G1 F8.0 X60.655
G2 F650.0 X59.5225 Y16.9462 I-0.755 J0.0
G2 Y18.2538 I0.3775 J0.6538
G2 X60.655 Y17.6 I0.3775 J-0.6538
G1 F8.0 X62.115
G2 F650.0 X58.7925 Y15.6818 I-2.215 J0.0
G2 Y19.5182 I1.1075 J1.9182
G2 X62.115 Y17.6 I1.1075 J-1.9182
G1 F8.0 X63.575
G2 F650.0 X58.0625 Y14.4174 I-3.675 J0.0
G2 Y20.7826 I1.8375 J3.1826
G2 X63.575 Y17.6 I1.8375 J-3.1826
G0 Z3.0
G0 X59.925
G0 Z-4.0
G1 F8.0 Z-5.5
G2 F650.0 X59.8875 Y17.5783 I-0.025 J0.0
G2 Y17.6217 I0.0125 J0.0217
G2 X59.925 Y17.6 I0.0125 J-0.0217
G1 F8.0 X60.655
G2 F650.0 X59.5225 Y16.9462 I-0.755 J0.0
G2 Y18.2538 I0.3775 J0.6538
G2 X60.655 Y17.6 I0.3775 J-0.6538
G1 F8.0 X62.115
G2 F650.0 X58.7925 Y15.6818 I-2.215 J0.0
G2 Y19.5182 I1.1075 J1.9182
G2 X62.115 Y17.6 I1.1075 J-1.9182
G1 F8.0 X63.575
G2 F650.0 X58.0625 Y14.4174 I-3.675 J0.0
G2 Y20.7826 I1.8375 J3.1826
G2 X63.575 Y17.6 I1.8375 J-3.1826
G0 Z3.0
G0 X59.925
G0 Z-4.5
G1 F8.0 Z-6.0
G2 F650.0 X59.8875 Y17.5783 I-0.025 J0.0
G2 Y17.6217 I0.0125 J0.0217
G2 X59.925 Y17.6 I0.0125 J-0.0217
G1 F8.0 X60.655
G2 F650.0 X59.5225 Y16.9462 I-0.755 J0.0
G2 Y18.2538 I0.3775 J0.6538
G2 X60.655 Y17.6 I0.3775 J-0.6538
G1 F8.0 X62.115
G2 F650.0 X58.7925 Y15.6818 I-2.215 J0.0
G2 Y19.5182 I1.1075 J1.9182
G2 X62.115 Y17.6 I1.1075 J-1.9182
G1 F8.0 X63.575
G2 F650.0 X58.0625 Y14.4174 I-3.675 J0.0
G2 Y20.7826 I1.8375 J3.1826
G2 X63.575 Y17.6 I1.8375 J-3.1826
G0 Z3.0
G0 X59.925
G0 Z-5.0
G1 F8.0 Z-6.5
G2 F650.0 X59.8875 Y17.5783 I-0.025 J0.0
G2 Y17.6217 I0.0125 J0.0217
G2 X59.925 Y17.6 I0.0125 J-0.0217
G1 F8.0 X60.655
G2 F650.0 X59.5225 Y16.9462 I-0.755 J0.0
G2 Y18.2538 I0.3775 J0.6538
G2 X60.655 Y17.6 I0.3775 J-0.6538
G1 F8.0 X62.115
G2 F650.0 X58.7925 Y15.6818 I-2.215 J0.0
G2 Y19.5182 I1.1075 J1.9182
G2 X62.115 Y17.6 I1.1075 J-1.9182
G1 F8.0 X63.575
G2 F650.0 X58.0625 Y14.4174 I-3.675 J0.0
G2 Y20.7826 I1.8375 J3.1826
G2 X63.575 Y17.6 I1.8375 J-3.1826
G0 Z3.0
G0 X59.925
G0 Z-5.5
G1 F8.0 Z-7.0
G2 F650.0 X59.8875 Y17.5783 I-0.025 J0.0
G2 Y17.6217 I0.0125 J0.0217
G2 X59.925 Y17.6 I0.0125 J-0.0217
G1 F8.0 X60.655
G2 F650.0 X59.5225 Y16.9462 I-0.755 J0.0
G2 Y18.2538 I0.3775 J0.6538
G2 X60.655 Y17.6 I0.3775 J-0.6538
G1 F8.0 X62.115
G2 F650.0 X58.7925 Y15.6818 I-2.215 J0.0
G2 Y19.5182 I1.1075 J1.9182
G2 X62.115 Y17.6 I1.1075 J-1.9182
G1 F8.0 X63.575
G2 F650.0 X58.0625 Y14.4174 I-3.675 J0.0
G2 Y20.7826 I1.8375 J3.1826
G2 X63.575 Y17.6 I1.8375 J-3.1826
G0 Z3.0
G0 X147.3758 Y39.9935
G0 Z1.0
G1 F8.0 Z-0.5
G2 F650.0 X147.3875 Y40.0217 I0.0242 J0.0065
G2 X147.425 Y40.0 I0.0125 J-0.0217
G2 X147.3875 Y39.9783 I-0.025 J0.0
G2 X147.3758 Y39.9935 I0.0125 J0.0217
G1 F8.0 X146.6706 Y39.8051
G2 F650.0 X147.0225 Y40.6538 I0.7294 J0.1949
G2 X148.155 Y40.0 I0.3775 J-0.6538
G2 X147.0225 Y39.3462 I-0.755 J0.0
G2 X146.6706 Y39.8051 I0.3775 J0.6538
G1 F8.0 X145.2601 Y39.4282
G2 F650.0 X146.2925 Y41.9182 I2.1399 J0.5718
G2 X149.615 Y40.0 I1.1075 J-1.9182
G2 X146.2925 Y38.0818 I-2.215 J0.0
G2 X145.2601 Y39.4282 I1.1075 J1.9182
G1 F8.0 X143.8496 Y39.0512
G2 F650.0 X145.5625 Y43.1826 I3.5504 J0.9488
G2 X151.075 Y40.0 I1.8375 J-3.1826
G2 X145.5625 Y36.8174 I-3.675 J0.0
G2 X143.8496 Y39.0512 I1.8375 J3.1826
G0 Z3.0
G0 X147.3758 Y39.9935
G0 Z0.5
G1 F8.0 Z-1.0
G2 F650.0 X147.3875 Y40.0217 I0.0242 J0.0065
G2 X147.425 Y40.0 I0.0125 J-0.0217
G2 X147.3875 Y39.9783 I-0.025 J0.0
G2 X147.3758 Y39.9935 I0.0125 J0.0217
G1 F8.0 X146.6706 Y39.8051
G2 F650.0 X147.0225 Y40.6538 I0.7294 J0.1949
G2 X148.155 Y40.0 I0.3775 J-0.6538
G2 X147.0225 Y39.3462 I-0.755 J0.0
G2 X146.6706 Y39.8051 I0.3775 J0.6538
G1 F8.0 X145.2601 Y39.4282
G2 F650.0 X146.2925 Y41.9182 I2.1399 J0.5718
G2 X149.615 Y40.0 I1.1075 J-1.9182
G2 X146.2925 Y38.0818 I-2.215 J0.0
G2 X145.2601 Y39.4282 I1.1075 J1.9182
G1 F8.0 X143.8496 Y39.0512
G2 F650.0 X145.5625 Y43.1826 I3.5504 J0.9488
G2 X151.075 Y40.0 I1.8375 J-3.1826
G2 X145.5625 Y36.8174 I-3.675 J0.0
G2 X143.8496 Y39.0512 I1.8375 J3.1826
G0 Z3.0
G0 X147.3758 Y39.9935
G0 Z0.0
G1 F8.0 Z-1.5
G2 F650.0 X147.3875 Y40.0217 I0.0242 J0.0065
G2 X147.425 Y40.0 I0.0125 J-0.0217
G2 X147.3875 Y39.9783 I-0.025 J0.0
G2 X147.3758 Y39.9935 I0.0125 J0.0217
G1 F8.0 X146.6706 Y39.8051
G2 F650.0 X147.0225 Y40.6538 I0.7294 J0.1949
G2 X148.155 Y40.0 I0.3775 J-0.6538
G2 X147.0225 Y39.3462 I-0.755 J0.0
G2 X146.6706 Y39.8051 I0.3775 J0.6538
G1 F8.0 X145.2601 Y39.4282
G2 F650.0 X146.2925 Y41.9182 I2.1399 J0.5718
G2 X149.615 Y40.0 I1.1075 J-1.9182
G2 X146.2925 Y38.0818 I-2.215 J0.0
G2 X145.2601 Y39.4282 I1.1075 J1.9182
G1 F8.0 X143.8496 Y39.0512
G2 F650.0 X145.5625 Y43.1826 I3.5504 J0.9488
G2 X151.075 Y40.0 I1.8375 J-3.1826
G2 X145.5625 Y36.8174 I-3.675 J0.0
G2 X143.8496 Y39.0512 I1.8375 J3.1826
G0 Z3.0
G0 X147.3758 Y39.9935
G0 Z-0.5
G1 F8.0 Z-2.0
G2 F650.0 X147.3875 Y40.0217 I0.0242 J0.0065
G2 X147.425 Y40.0 I0.0125 J-0.0217
G2 X147.3875 Y39.9783 I-0.025 J0.0
G2 X147.3758 Y39.9935 I0.0125 J0.0217
G1 F8.0 X146.6706 Y39.8051
G2 F650.0 X147.0225 Y40.6538 I0.7294 J0.1949
G2 X148.155 Y40.0 I0.3775 J-0.6538
G2 X147.0225 Y39.3462 I-0.755 J0.0
G2 X146.6706 Y39.8051 I0.3775 J0.6538
G1 F8.0 X145.2601 Y39.4282
G2 F650.0 X146.2925 Y41.9182 I2.1399 J0.5718
G2 X149.615 Y40.0 I1.1075 J-1.9182
G2 X146.2925 Y38.0818 I-2.215 J0.0
G2 X145.2601 Y39.4282 I1.1075 J1.9182
G1 F8.0 X143.8496 Y39.0512
G2 F650.0 X145.5625 Y43.1826 I3.5504 J0.9488
G2 X151.075 Y40.0 I1.8375 J-3.1826
G2 X145.5625 Y36.8174 I-3.675 J0.0
G2 X143.8496 Y39.0512 I1.8375 J3.1826
G0 Z3.0
G0 X147.3758 Y39.9935
G0 Z-1.0
G1 F8.0 Z-2.5
G2 F650.0 X147.3875 Y40.0217 I0.0242 J0.0065
G2 X147.425 Y40.0 I0.0125 J-0.0217
G2 X147.3875 Y39.9783 I-0.025 J0.0
G2 X147.3758 Y39.9935 I0.0125 J0.0217
G1 F8.0 X146.6706 Y39.8051
G2 F650.0 X147.0225 Y40.6538 I0.7294 J0.1949
G2 X148.155 Y40.0 I0.3775 J-0.6538
G2 X147.0225 Y39.3462 I-0.755 J0.0
G2 X146.6706 Y39.8051 I0.3775 J0.6538
G1 F8.0 X145.2601 Y39.4282
G2 F650.0 X146.2925 Y41.9182 I2.1399 J0.5718
G2 X149.615 Y40.0 I1.1075 J-1.9182
G2 X146.2925 Y38.0818 I-2.215 J0.0
G2 X145.2601 Y39.4282 I1.1075 J1.9182
G1 F8.0 X143.8496 Y39.0512
G2 F650.0 X145.5625 Y43.1826 I3.5504 J0.9488
G2 X151.075 Y40.0 I1.8375 J-3.1826
G2 X145.5625 Y36.8174 I-3.675 J0.0
G2 X143.8496 Y39.0512 I1.8375 J3.1826
G0 Z3.0
G0 X147.3758 Y39.9935
G0 Z-1.5
G1 F8.0 Z-3.0
G2 F650.0 X147.3875 Y40.0217 I0.0242 J0.0065
G2 X147.425 Y40.0 I0.0125 J-0.0217
G2 X147.3875 Y39.9783 I-0.025 J0.0
G2 X147.3758 Y39.9935 I0.0125 J0.0217
G1 F8.0 X146.6706 Y39.8051
G2 F650.0 X147.0225 Y40.6538 I0.7294 J0.1949
G2 X148.155 Y40.0 I0.3775 J-0.6538
G2 X147.0225 Y39.3462 I-0.755 J0.0
G2 X146.6706 Y39.8051 I0.3775 J0.6538
G1 F8.0 X145.2601 Y39.4282
G2 F650.0 X146.2925 Y41.9182 I2.1399 J0.5718
G2 X149.615 Y40.0 I1.1075 J-1.9182
G2 X146.2925 Y38.0818 I-2.215 J0.0
G2 X145.2601 Y39.4282 I1.1075 J1.9182
G1 F8.0 X143.8496 Y39.0512
G2 F650.0 X145.5625 Y43.1826 I3.5504 J0.9488
G2 X151.075 Y40.0 I1.8375 J-3.1826
G2 X145.5625 Y36.8174 I-3.675 J0.0
G2 X143.8496 Y39.0512 I1.8375 J3.1826
G0 Z3.0
G0 X147.3758 Y39.9935
G0 Z-2.0
G1 F8.0 Z-3.5
G2 F650.0 X147.3875 Y40.0217 I0.0242 J0.0065
G2 X147.425 Y40.0 I0.0125 J-0.0217
G2 X147.3875 Y39.9783 I-0.025 J0.0
G2 X147.3758 Y39.9935 I0.0125 J0.0217
G1 F8.0 X146.6706 Y39.8051
G2 F650.0 X147.0225 Y40.6538 I0.7294 J0.1949
G2 X148.155 Y40.0 I0.3775 J-0.6538
G2 X147.0225 Y39.3462 I-0.755 J0.0
G2 X146.6706 Y39.8051 I0.3775 J0.6538
G1 F8.0 X145.2601 Y39.4282
G2 F650.0 X146.2925 Y41.9182 I2.1399 J0.5718
G2 X149.615 Y40.0 I1.1075 J-1.9182
G2 X146.2925 Y38.0818 I-2.215 J0.0
G2 X145.2601 Y39.4282 I1.1075 J1.9182
G1 F8.0 X143.8496 Y39.0512
G2 F650.0 X145.5625 Y43.1826 I3.5504 J0.9488
G2 X151.075 Y40.0 I1.8375 J-3.1826
G2 X145.5625 Y36.8174 I-3.675 J0.0
G2 X143.8496 Y39.0512 I1.8375 J3.1826
G0 Z3.0
G0 X147.3758 Y39.9935
G0 Z-2.5
G1 F8.0 Z-4.0
G2 F650.0 X147.3875 Y40.0217 I0.0242 J0.0065
G2 X147.425 Y40.0 I0.0125 J-0.0217
G2 X147.3875 Y39.9783 I-0.025 J0.0
G2 X147.3758 Y39.9935 I0.0125 J0.0217
G1 F8.0 X146.6706 Y39.8051
G2 F650.0 X147.0225 Y40.6538 I0.7294 J0.1949
G2 X148.155 Y40.0 I0.3775 J-0.6538
G2 X147.0225 Y39.3462 I-0.755 J0.0
G2 X146.6706 Y39.8051 I0.3775 J0.6538
G1 F8.0 X145.2601 Y39.4282
G2 F650.0 X146.2925 Y41.9182 I2.1399 J0.5718
G2 X149.615 Y40.0 I1.1075 J-1.9182
G2 X146.2925 Y38.0818 I-2.215 J0.0
G2 X145.2601 Y39.4282 I1.1075 J1.9182
G1 F8.0 X143.8496 Y39.0512
G2 F650.0 X145.5625 Y43.1826 I3.5504 J0.9488
G2 X151.075 Y40.0 I1.8375 J-3.1826
G2 X145.5625 Y36.8174 I-3.675 J0.0
G2 X143.8496 Y39.0512 I1.8375 J3.1826
G0 Z3.0
G0 X147.3758 Y39.9935
G0 Z-3.0
G1 F8.0 Z-4.5
G2 F650.0 X147.3875 Y40.0217 I0.0242 J0.0065
G2 X147.425 Y40.0 I0.0125 J-0.0217
G2 X147.3875 Y39.9783 I-0.025 J0.0
G2 X147.3758 Y39.9935 I0.0125 J0.0217
G1 F8.0 X146.6706 Y39.8051
G2 F650.0 X147.0225 Y40.6538 I0.7294 J0.1949
G2 X148.155 Y40.0 I0.3775 J-0.6538
G2 X147.0225 Y39.3462 I-0.755 J0.0
G2 X146.6706 Y39.8051 I0.3775 J0.6538
G1 F8.0 X145.2601 Y39.4282
G2 F650.0 X146.2925 Y41.9182 I2.1399 J0.5718
G2 X149.615 Y40.0 I1.1075 J-1.9182
G2 X146.2925 Y38.0818 I-2.215 J0.0
G2 X145.2601 Y39.4282 I1.1075 J1.9182
G1 F8.0 X143.8496 Y39.0512
G2 F650.0 X145.5625 Y43.1826 I3.5504 J0.9488
G2 X151.075 Y40.0 I1.8375 J-3.1826
G2 X145.5625 Y36.8174 I-3.675 J0.0
G2 X143.8496 Y39.0512 I1.8375 J3.1826
G0 Z3.0
G0 X147.3758 Y39.9935
G0 Z-3.5
G1 F8.0 Z-5.0
G2 F650.0 X147.3875 Y40.0217 I0.0242 J0.0065
G2 X147.425 Y40.0 I0.0125 J-0.0217
G2 X147.3875 Y39.9783 I-0.025 J0.0
G2 X147.3758 Y39.9935 I0.0125 J0.0217
G1 F8.0 X146.6706 Y39.8051
G2 F650.0 X147.0225 Y40.6538 I0.7294 J0.1949
G2 X148.155 Y40.0 I0.3775 J-0.6538
G2 X147.0225 Y39.3462 I-0.755 J0.0
G2 X146.6706 Y39.8051 I0.3775 J0.6538
G1 F8.0 X145.2601 Y39.4282
G2 F650.0 X146.2925 Y41.9182 I2.1399 J0.5718
G2 X149.615 Y40.0 I1.1075 J-1.9182
G2 X146.2925 Y38.0818 I-2.215 J0.0
G2 X145.2601 Y39.4282 I1.1075 J1.9182
G1 F8.0 X143.8496 Y39.0512
G2 F650.0 X145.5625 Y43.1826 I3.5504 J0.9488
G2 X151.075 Y40.0 I1.8375 J-3.1826
G2 X145.5625 Y36.8174 I-3.675 J0.0
G2 X143.8496 Y39.0512 I1.8375 J3.1826
G0 Z3.0
G0 X147.3758 Y39.9935
G0 Z-4.0
G1 F8.0 Z-5.5
G2 F650.0 X147.3875 Y40.0217 I0.0242 J0.0065
G2 X147.425 Y40.0 I0.0125 J-0.0217
G2 X147.3875 Y39.9783 I-0.025 J0.0
G2 X147.3758 Y39.9935 I0.0125 J0.0217
G1 F8.0 X146.6706 Y39.8051
G2 F650.0 X147.0225 Y40.6538 I0.7294 J0.1949
G2 X148.155 Y40.0 I0.3775 J-0.6538
G2 X147.0225 Y39.3462 I-0.755 J0.0
G2 X146.6706 Y39.8051 I0.3775 J0.6538
G1 F8.0 X145.2601 Y39.4282
G2 F650.0 X146.2925 Y41.9182 I2.1399 J0.5718
G2 X149.615 Y40.0 I1.1075 J-1.9182
G2 X146.2925 Y38.0818 I-2.215 J0.0
G2 X145.2601 Y39.4282 I1.1075 J1.9182
G1 F8.0 X143.8496 Y39.0512
G2 F650.0 X145.5625 Y43.1826 I3.5504 J0.9488
G2 X151.075 Y40.0 I1.8375 J-3.1826
G2 X145.5625 Y36.8174 I-3.675 J0.0
G2 X143.8496 Y39.0512 I1.8375 J3.1826
G0 Z3.0
G0 X147.3758 Y39.9935
G0 Z-4.5
G1 F8.0 Z-6.0
G2 F650.0 X147.3875 Y40.0217 I0.0242 J0.0065
G2 X147.425 Y40.0 I0.0125 J-0.0217
G2 X147.3875 Y39.9783 I-0.025 J0.0
G2 X147.3758 Y39.9935 I0.0125 J0.0217
G1 F8.0 X146.6706 Y39.8051
G2 F650.0 X147.0225 Y40.6538 I0.7294 J0.1949
G2 X148.155 Y40.0 I0.3775 J-0.6538
G2 X147.0225 Y39.3462 I-0.755 J0.0
G2 X146.6706 Y39.8051 I0.3775 J0.6538
G1 F8.0 X145.2601 Y39.4282
G2 F650.0 X146.2925 Y41.9182 I2.1399 J0.5718
G2 X149.615 Y40.0 I1.1075 J-1.9182
G2 X146.2925 Y38.0818 I-2.215 J0.0
G2 X145.2601 Y39.4282 I1.1075 J1.9182
G1 F8.0 X143.8496 Y39.0512
G2 F650.0 X145.5625 Y43.1826 I3.5504 J0.9488
G2 X151.075 Y40.0 I1.8375 J-3.1826
G2 X145.5625 Y36.8174 I-3.675 J0.0
G2 X143.8496 Y39.0512 I1.8375 J3.1826
G0 Z3.0
G0 X147.3758 Y39.9935
G0 Z-5.0
G1 F8.0 Z-6.5
G2 F650.0 X147.3875 Y40.0217 I0.0242 J0.0065
G2 X147.425 Y40.0 I0.0125 J-0.0217
G2 X147.3875 Y39.9783 I-0.025 J0.0
G2 X147.3758 Y39.9935 I0.0125 J0.0217
G1 F8.0 X146.6706 Y39.8051
G2 F650.0 X147.0225 Y40.6538 I0.7294 J0.1949
G2 X148.155 Y40.0 I0.3775 J-0.6538
G2 X147.0225 Y39.3462 I-0.755 J0.0
G2 X146.6706 Y39.8051 I0.3775 J0.6538
G1 F8.0 X145.2601 Y39.4282
G2 F650.0 X146.2925 Y41.9182 I2.1399 J0.5718
G2 X149.615 Y40.0 I1.1075 J-1.9182
G2 X146.2925 Y38.0818 I-2.215 J0.0
G2 X145.2601 Y39.4282 I1.1075 J1.9182
G1 F8.0 X143.8496 Y39.0512
G2 F650.0 X145.5625 Y43.1826 I3.5504 J0.9488
G2 X151.075 Y40.0 I1.8375 J-3.1826
G2 X145.5625 Y36.8174 I-3.675 J0.0
G2 X143.8496 Y39.0512 I1.8375 J3.1826
G0 Z3.0
G0 X147.3758 Y39.9935
G0 Z-5.5
G1 F8.0 Z-7.0
G2 F650.0 X147.3875 Y40.0217 I0.0242 J0.0065
G2 X147.425 Y40.0 I0.0125 J-0.0217
G2 X147.3875 Y39.9783 I-0.025 J0.0
G2 X147.3758 Y39.9935 I0.0125 J0.0217
G1 F8.0 X146.6706 Y39.8051
G2 F650.0 X147.0225 Y40.6538 I0.7294 J0.1949
G2 X148.155 Y40.0 I0.3775 J-0.6538
G2 X147.0225 Y39.3462 I-0.755 J0.0
G2 X146.6706 Y39.8051 I0.3775 J0.6538
G1 F8.0 X145.2601 Y39.4282
G2 F650.0 X146.2925 Y41.9182 I2.1399 J0.5718
G2 X149.615 Y40.0 I1.1075 J-1.9182
G2 X146.2925 Y38.0818 I-2.215 J0.0
G2 X145.2601 Y39.4282 I1.1075 J1.9182
G1 F8.0 X143.8496 Y39.0512
G2 F650.0 X145.5625 Y43.1826 I3.5504 J0.9488
G2 X151.075 Y40.0 I1.8375 J-3.1826
G2 X145.5625 Y36.8174 I-3.675 J0.0
G2 X143.8496 Y39.0512 I1.8375 J3.1826
( Bearing Pocket )
S1000
G0 Z3.0
G0 X66.1 Y17.6
G0 Z1.0
G1 F8.0 Z0.0
G2 F650.0 X56.8 Y12.2306 Z-0.1667 I-6.2 J0.0
G2 Y22.9694 Z-0.3333 I3.1 J5.3694
G2 X66.1 Y17.6 Z-0.5 I3.1 J-5.3694
G2 X56.8 Y12.2306 Z-0.6667 I-6.2 J0.0
G2 Y22.9694 Z-0.8333 I3.1 J5.3694
G2 X66.1 Y17.6 Z-1.0 I3.1 J-5.3694
G2 X56.8 Y12.2306 Z-1.1667 I-6.2 J0.0
G2 Y22.9694 Z-1.3333 I3.1 J5.3694
G2 X66.1 Y17.6 Z-1.5 I3.1 J-5.3694
G2 X56.8 Y12.2306 Z-1.6667 I-6.2 J0.0
G2 Y22.9694 Z-1.8333 I3.1 J5.3694
G2 X66.1 Y17.6 Z-2.0 I3.1 J-5.3694
G2 X56.8 Y12.2306 Z-2.1667 I-6.2 J0.0
G2 Y22.9694 Z-2.3333 I3.1 J5.3694
G2 X66.1 Y17.6 Z-2.5 I3.1 J-5.3694
G2 X56.8 Y12.2306 Z-2.6667 I-6.2 J0.0
G2 Y22.9694 Z-2.8333 I3.1 J5.3694
G2 X66.1 Y17.6 Z-3.0 I3.1 J-5.3694
G2 X56.8 Y12.2306 Z-3.1167 I-6.2 J0.0
G2 Y22.9694 Z-3.2333 I3.1 J5.3694
G2 X66.1 Y17.6 Z-3.35 I3.1 J-5.3694
G2 X56.8 Y12.2306 I-6.2 J0.0
G2 Y22.9694 I3.1 J5.3694
G2 X66.1 Y17.6 I3.1 J-5.3694
G0 Z3.0
G0 X141.4227 Y38.3531
G0 Z1.0
G1 F8.0 Z0.0
G2 F650.0 X144.3 Y45.3694 Z-0.1047 I5.9773 J1.6469
G2 X153.6 Y40.0 Z-0.2714 I3.1 J-5.3694
G2 X144.3 Y34.6306 Z-0.4381 I-6.2 J0.0
G2 X141.4227 Y38.3531 Z-0.5 I3.1 J5.3694
G2 X144.3 Y45.3694 Z-0.6047 I5.9773 J1.6469
G2 X153.6 Y40.0 Z-0.7714 I3.1 J-5.3694
G2 X144.3 Y34.6306 Z-0.9381 I-6.2 J0.0
G2 X141.4227 Y38.3531 Z-1.0 I3.1 J5.3694
G2 X144.3 Y45.3694 Z-1.1047 I5.9773 J1.6469
G2 X153.6 Y40.0 Z-1.2714 I3.1 J-5.3694
G2 X144.3 Y34.6306 Z-1.4381 I-6.2 J0.0
G2 X141.4227 Y38.3531 Z-1.5 I3.1 J5.3694
G2 X144.3 Y45.3694 Z-1.6047 I5.9773 J1.6469
G2 X153.6 Y40.0 Z-1.7714 I3.1 J-5.3694
G2 X144.3 Y34.6306 Z-1.9381 I-6.2 J0.0
G2 X141.4227 Y38.3531 Z-2.0 I3.1 J5.3694
G2 X144.3 Y45.3694 Z-2.1047 I5.9773 J1.6469
G2 X153.6 Y40.0 Z-2.2714 I3.1 J-5.3694
G2 X144.3 Y34.6306 Z-2.4381 I-6.2 J0.0
G2 X141.4227 Y38.3531 Z-2.5 I3.1 J5.3694
G2 X144.3 Y45.3694 Z-2.6047 I5.9773 J1.6469
G2 X153.6 Y40.0 Z-2.7714 I3.1 J-5.3694
G2 X144.3 Y34.6306 Z-2.9381 I-6.2 J0.0
G2 X141.4227 Y38.3531 Z-3.0 I3.1 J5.3694
G2 X144.3 Y45.3694 Z-3.0733 I5.9773 J1.6469
G2 X153.6 Y40.0 Z-3.19 I3.1 J-5.3694
G2 X144.3 Y34.6306 Z-3.3066 I-6.2 J0.0
G2 X141.4227 Y38.3531 Z-3.35 I3.1 J5.3694
G2 X144.3 Y45.3694 I5.9773 J1.6469
G2 X153.6 Y40.0 I3.1 J-5.3694
G2 X144.3 Y34.6306 I-6.2 J0.0
G2 X141.4227 Y38.3531 I3.1 J5.3694
( Outside Profile )
S1000
G0 Z3.0
G0 X3.0 Y82.225
G0 Z1.0
G1 F8.0 Z0.0
G3 F650.0 X-2.225 Y77.0 Z-0.009 I0.0 J-5.225
G1 Y3.0 Z-0.09
G3 X3.0 Y-2.225 Z-0.099 I5.225 J0.0
G1 X96.9 Z-0.2019
G3 X102.125 Y3.0 Z-0.2109 I0.0 J5.225
G1 Y47.0 Z-0.2591
G3 X96.9 Y52.225 Z-0.2681 I-5.225 J0.0
G1 X24.9 Z-0.3469
G2 X22.125 Y55.0 Z-0.3517 I0.0 J2.775
G1 Y77.0 Z-0.3758
G3 X16.9 Y82.225 Z-0.3848 I-5.225 J0.0
G1 X3.0 Z-0.4
G1 Y81.825
G3 X-1.825 Y77.0 I0.0 J-4.825
G1 Y3.0
G3 X3.0 Y-1.825 I4.825 J0.0
G1 X96.9
G3 X101.725 Y3.0 I0.0 J4.825
G1 Y47.0
G3 X96.9 Y51.825 I-4.825 J0.0
G1 X24.9
G2 X21.725 Y55.0 I0.0 J3.175
G1 Y77.0
G3 X16.9 Y81.825 I-4.825 J0.0
G1 X3.0
G1 Y82.225
G3 X-2.225 Y77.0 Z-0.409 I0.0 J-5.225
G1 Y3.0 Z-0.49
G3 X3.0 Y-2.225 Z-0.499 I5.225 J0.0
G1 X96.9 Z-0.6019
G3 X102.125 Y3.0 Z-0.6109 I0.0 J5.225
G1 Y47.0 Z-0.6591
G3 X96.9 Y52.225 Z-0.6681 I-5.225 J0.0
G1 X24.9 Z-0.7469
G2 X22.125 Y55.0 Z-0.7517 I0.0 J2.775
G1 Y77.0 Z-0.7758
G3 X16.9 Y82.225 Z-0.7848 I-5.225 J0.0
G1 X3.0 Z-0.8
G1 Y81.825
G3 X-1.825 Y77.0 I0.0 J-4.825
G1 Y3.0
G3 X3.0 Y-1.825 I4.825 J0.0
G1 X96.9
G3 X101.725 Y3.0 I0.0 J4.825
G1 Y47.0
G3 X96.9 Y51.825 I-4.825 J0.0
G1 X24.9
G2 X21.725 Y55.0 I0.0 J3.175
G1 Y77.0
G3 X16.9 Y81.825 I-4.825 J0.0
G1 X3.0
G1 Y82.225
G3 X-2.225 Y77.0 Z-0.809 I0.0 J-5.225
G1 Y3.0 Z-0.89
G3 X3.0 Y-2.225 Z-0.899 I5.225 J0.0
G1 X96.9 Z-1.0019
G3 X102.125 Y3.0 Z-1.0109 I0.0 J5.225
G1 Y47.0 Z-1.0591
G3 X96.9 Y52.225 Z-1.0681 I-5.225 J0.0
G1 X24.9 Z-1.1469
G2 X22.125 Y55.0 Z-1.1517 I0.0 J2.775
G1 Y77.0 Z-1.1758
G3 X16.9 Y82.225 Z-1.1848 I-5.225 J0.0
G1 X3.0 Z-1.2
G1 Y81.825
G3 X-1.825 Y77.0 I0.0 J-4.825
G1 Y3.0
G3 X3.0 Y-1.825 I4.825 J0.0
G1 X96.9
G3 X101.725 Y3.0 I0.0 J4.825
G1 Y47.0
G3 X96.9 Y51.825 I-4.825 J0.0
G1 X24.9
G2 X21.725 Y55.0 I0.0 J3.175
G1 Y77.0
G3 X16.9 Y81.825 I-4.825 J0.0
G1 X3.0
G1 Y82.225
G3 X-2.225 Y77.0 Z-1.209 I0.0 J-5.225
G1 Y3.0 Z-1.29
G3 X3.0 Y-2.225 Z-1.299 I5.225 J0.0
G1 X96.9 Z-1.4019
G3 X102.125 Y3.0 Z-1.4109 I0.0 J5.225
G1 Y47.0 Z-1.4591
G3 X96.9 Y52.225 Z-1.4681 I-5.225 J0.0
G1 X24.9 Z-1.5469
G2 X22.125 Y55.0 Z-1.5517 I0.0 J2.775
G1 Y77.0 Z-1.5758
G3 X16.9 Y82.225 Z-1.5848 I-5.225 J0.0
G1 X3.0 Z-1.6
G1 Y81.825
G3 X-1.825 Y77.0 I0.0 J-4.825
G1 Y3.0
G3 X3.0 Y-1.825 I4.825 J0.0
G1 X96.9
G3 X101.725 Y3.0 I0.0 J4.825
G1 Y47.0
G3 X96.9 Y51.825 I-4.825 J0.0
G1 X24.9
G2 X21.725 Y55.0 I0.0 J3.175
G1 Y77.0
G3 X16.9 Y81.825 I-4.825 J0.0
G1 X3.0
G1 Y82.225
G3 X-2.225 Y77.0 Z-1.609 I0.0 J-5.225
G1 Y3.0 Z-1.69
G3 X3.0 Y-2.225 Z-1.699 I5.225 J0.0
G1 X96.9 Z-1.8019
G3 X102.125 Y3.0 Z-1.8109 I0.0 J5.225
G1 Y47.0 Z-1.8591
G3 X96.9 Y52.225 Z-1.8681 I-5.225 J0.0
G1 X24.9 Z-1.9469
G2 X22.125 Y55.0 Z-1.9517 I0.0 J2.775
G1 Y77.0 Z-1.9758
G3 X16.9 Y82.225 Z-1.9848 I-5.225 J0.0
G1 X3.0 Z-2.0
G1 Y81.825
G3 X-1.825 Y77.0 I0.0 J-4.825
G1 Y3.0
G3 X3.0 Y-1.825 I4.825 J0.0
G1 X96.9
G3 X101.725 Y3.0 I0.0 J4.825
G1 Y47.0
G3 X96.9 Y51.825 I-4.825 J0.0
G1 X24.9
G2 X21.725 Y55.0 I0.0 J3.175
G1 Y77.0
G3 X16.9 Y81.825 I-4.825 J0.0
G1 X3.0
G1 Y82.225
G3 X-2.225 Y77.0 Z-2.009 I0.0 J-5.225
G1 Y3.0 Z-2.09
G3 X3.0 Y-2.225 Z-2.099 I5.225 J0.0
G1 X96.9 Z-2.2019
G3 X102.125 Y3.0 Z-2.2109 I0.0 J5.225
G1 Y47.0 Z-2.2591
G3 X96.9 Y52.225 Z-2.2681 I-5.225 J0.0
G1 X24.9 Z-2.3469
G2 X22.125 Y55.0 Z-2.3517 I0.0 J2.775
G1 Y77.0 Z-2.3758
G3 X16.9 Y82.225 Z-2.3848 I-5.225 J0.0
G1 X3.0 Z-2.4
G1 Y81.825
G3 X-1.825 Y77.0 I0.0 J-4.825
G1 Y3.0
G3 X3.0 Y-1.825 I4.825 J0.0
G1 X96.9
G3 X101.725 Y3.0 I0.0 J4.825
G1 Y47.0
G3 X96.9 Y51.825 I-4.825 J0.0
G1 X24.9
G2 X21.725 Y55.0 I0.0 J3.175
G1 Y77.0
G3 X16.9 Y81.825 I-4.825 J0.0
G1 X3.0
G1 Y82.225
G3 X-2.225 Y77.0 Z-2.409 I0.0 J-5.225
G1 Y3.0 Z-2.49
G3 X3.0 Y-2.225 Z-2.499 I5.225 J0.0
G1 X96.9 Z-2.6019
G3 X102.125 Y3.0 Z-2.6109 I0.0 J5.225
G1 Y47.0 Z-2.6591
G3 X96.9 Y52.225 Z-2.6681 I-5.225 J0.0
G1 X24.9 Z-2.7469
G2 X22.125 Y55.0 Z-2.7517 I0.0 J2.775
G1 Y77.0 Z-2.7758
G3 X16.9 Y82.225 Z-2.7848 I-5.225 J0.0
G1 X3.0 Z-2.8
G1 Y81.825
G3 X-1.825 Y77.0 I0.0 J-4.825
G1 Y3.0
G3 X3.0 Y-1.825 I4.825 J0.0
G1 X96.9
G3 X101.725 Y3.0 I0.0 J4.825
G1 Y47.0
G3 X96.9 Y51.825 I-4.825 J0.0
G1 X24.9
G2 X21.725 Y55.0 I0.0 J3.175
G1 Y77.0
G3 X16.9 Y81.825 I-4.825 J0.0
G1 X3.0
G1 Y82.225
G3 X-2.225 Y77.0 Z-2.809 I0.0 J-5.225
G1 Y3.0 Z-2.89
G3 X3.0 Y-2.225 Z-2.899 I5.225 J0.0
G1 X96.9 Z-3.0019
G3 X102.125 Y3.0 Z-3.0109 I0.0 J5.225
G1 Y47.0 Z-3.0591
G3 X96.9 Y52.225 Z-3.0681 I-5.225 J0.0
G1 X24.9 Z-3.1469
G2 X22.125 Y55.0 Z-3.1517 I0.0 J2.775
G1 Y77.0 Z-3.1758
G3 X16.9 Y82.225 Z-3.1848 I-5.225 J0.0
G1 X3.0 Z-3.2
G1 Y81.825
G3 X-1.825 Y77.0 I0.0 J-4.825
G1 Y3.0
G3 X3.0 Y-1.825 I4.825 J0.0
G1 X96.9
G3 X101.725 Y3.0 I0.0 J4.825
G1 Y47.0
G3 X96.9 Y51.825 I-4.825 J0.0
G1 X24.9
G2 X21.725 Y55.0 I0.0 J3.175
G1 Y77.0
G3 X16.9 Y81.825 I-4.825 J0.0
G1 X3.0
G1 Y82.225
G3 X-2.225 Y77.0 Z-3.209 I0.0 J-5.225
G1 Y3.0 Z-3.29
G3 X3.0 Y-2.225 Z-3.299 I5.225 J0.0
G1 X96.9 Z-3.4019
G3 X102.125 Y3.0 Z-3.4109 I0.0 J5.225
G1 Y47.0 Z-3.4591
G3 X96.9 Y52.225 Z-3.4681 I-5.225 J0.0
G1 X24.9 Z-3.5469
G2 X22.125 Y55.0 Z-3.5517 I0.0 J2.775
G1 Y77.0 Z-3.5758
G3 X16.9 Y82.225 Z-3.5848 I-5.225 J0.0
G1 X3.0 Z-3.6
G1 Y81.825
G3 X-1.825 Y77.0 I0.0 J-4.825
G1 Y3.0
G3 X3.0 Y-1.825 I4.825 J0.0
G1 X96.9
G3 X101.725 Y3.0 I0.0 J4.825
G1 Y47.0
G3 X96.9 Y51.825 I-4.825 J0.0
G1 X24.9
G2 X21.725 Y55.0 I0.0 J3.175
G1 Y77.0
G3 X16.9 Y81.825 I-4.825 J0.0
G1 X3.0
G1 Y82.225
G3 X-2.225 Y77.0 Z-3.609 I0.0 J-5.225
G1 Y3.0 Z-3.69
G3 X3.0 Y-2.225 Z-3.699 I5.225 J0.0
G1 X96.9 Z-3.8019
G3 X102.125 Y3.0 Z-3.8109 I0.0 J5.225
G1 Y47.0 Z-3.8591
G3 X96.9 Y52.225 Z-3.8681 I-5.225 J0.0
G1 X24.9 Z-3.9469
G2 X22.125 Y55.0 Z-3.9517 I0.0 J2.775
G1 Y77.0 Z-3.9758
G3 X16.9 Y82.225 Z-3.9848 I-5.225 J0.0
G1 X3.0 Z-4.0
G1 Y81.825
G3 X-1.825 Y77.0 I0.0 J-4.825
G1 Y3.0
G3 X3.0 Y-1.825 I4.825 J0.0
G1 X96.9
G3 X101.725 Y3.0 I0.0 J4.825
G1 Y47.0
G3 X96.9 Y51.825 I-4.825 J0.0
G1 X24.9
G2 X21.725 Y55.0 I0.0 J3.175
G1 Y77.0
G3 X16.9 Y81.825 I-4.825 J0.0
G1 X3.0
G1 Y82.225
G3 X-2.225 Y77.0 Z-4.009 I0.0 J-5.225
G1 Y26.5014 Z-4.0643
G1 Y25.0014 Z-4.0
G1 Y21.3514
G1 Y19.8514 Z-4.0716
G1 Y3.0 Z-4.09
G3 X3.0 Y-2.225 Z-4.099 I5.225 J0.0
G1 X83.675 Z-4.1874
G1 X85.175 Z-4.0
G1 X88.825
G1 X90.325 Z-4.1947
G1 X96.9 Z-4.2019
G3 X102.125 Y3.0 Z-4.2109 I0.0 J5.225
G1 Y47.0 Z-4.2591
G3 X96.9 Y52.225 Z-4.2681 I-5.225 J0.0
G1 X38.2946 Z-4.3322
G1 X36.7946 Z-4.0
G1 X33.1446
G1 X31.6446 Z-4.3395
G1 X24.9 Z-4.3469
G2 X22.125 Y55.0 Z-4.3517 I0.0 J2.775
G1 Y77.0 Z-4.3758
G3 X16.9 Y82.225 Z-4.3848 I-5.225 J0.0
G1 X3.0 Z-4.4
G1 Y81.825
G3 X-1.825 Y77.0 I0.0 J-4.825
G1 Y26.5014
G1 Y25.0014 Z-4.0
G1 Y21.3514
G1 Y19.8514 Z-4.4
G1 Y3.0
G3 X3.0 Y-1.825 I4.825 J0.0
G1 X83.675
G1 X85.175 Z-4.0
G1 X88.825
G1 X90.325 Z-4.4
G1 X96.9
G3 X101.725 Y3.0 I0.0 J4.825
G1 Y47.0
G3 X96.9 Y51.825 I-4.825 J0.0
G1 X38.2946
G1 X36.7946 Z-4.0
G1 X33.1446
G1 X31.6446 Z-4.4
G1 X24.9
G2 X21.725 Y55.0 I0.0 J3.175
G1 Y77.0
G3 X16.9 Y81.825 I-4.825 J0.0
G1 X3.0
G1 Y82.225
G3 X-2.225 Y77.0 Z-4.409 I0.0 J-5.225
G1 Y26.5014 Z-4.4643
G1 Y25.0014 Z-4.0
G1 Y21.3514
G1 Y19.8514 Z-4.4716
G1 Y3.0 Z-4.49
G3 X3.0 Y-2.225 Z-4.499 I5.225 J0.0
G1 X83.675 Z-4.5874
G1 X85.175 Z-4.0
G1 X88.825
G1 X90.325 Z-4.5947
G1 X96.9 Z-4.6019
G3 X102.125 Y3.0 Z-4.6109 I0.0 J5.225
G1 Y47.0 Z-4.6591
G3 X96.9 Y52.225 Z-4.6681 I-5.225 J0.0
G1 X38.2946 Z-4.7322
G1 X36.7946 Z-4.0
G1 X33.1446
G1 X31.6446 Z-4.7395
G1 X24.9 Z-4.7469
G2 X22.125 Y55.0 Z-4.7517 I0.0 J2.775
G1 Y77.0 Z-4.7758
G3 X16.9 Y82.225 Z-4.7848 I-5.225 J0.0
G1 X3.0 Z-4.8
G1 Y81.825
G3 X-1.825 Y77.0 I0.0 J-4.825
G1 Y26.5014
G1 Y25.0014 Z-4.0
G1 Y21.3514
G1 Y19.8514 Z-4.8
G1 Y3.0
G3 X3.0 Y-1.825 I4.825 J0.0
G1 X83.675
G1 X85.175 Z-4.0
G1 X88.825
G1 X90.325 Z-4.8
G1 X96.9
G3 X101.725 Y3.0 I0.0 J4.825
G1 Y47.0
G3 X96.9 Y51.825 I-4.825 J0.0
G1 X38.2946
G1 X36.7946 Z-4.0
G1 X33.1446
G1 X31.6446 Z-4.8
G1 X24.9
G2 X21.725 Y55.0 I0.0 J3.175
G1 Y77.0
G3 X16.9 Y81.825 I-4.825 J0.0
G1 X3.0
G1 Y82.225
G3 X-2.225 Y77.0 Z-4.809 I0.0 J-5.225
G1 Y26.5014 Z-4.8643
G1 Y25.0014 Z-4.0
G1 Y21.3514
G1 Y19.8514 Z-4.8716
G1 Y3.0 Z-4.89
G3 X3.0 Y-2.225 Z-4.899 I5.225 J0.0
G1 X83.675 Z-4.9874
G1 X85.175 Z-4.0
G1 X88.825
G1 X90.325 Z-4.9947
G1 X96.9 Z-5.0019
G3 X102.125 Y3.0 Z-5.0109 I0.0 J5.225
G1 Y47.0 Z-5.0591
G3 X96.9 Y52.225 Z-5.0681 I-5.225 J0.0
G1 X38.2946 Z-5.1322
G1 X36.7946 Z-4.0
G1 X33.1446
G1 X31.6446 Z-5.1395
G1 X24.9 Z-5.1469
G2 X22.125 Y55.0 Z-5.1517 I0.0 J2.775
G1 Y77.0 Z-5.1758
G3 X16.9 Y82.225 Z-5.1848 I-5.225 J0.0
G1 X3.0 Z-5.2
G1 Y81.825
G3 X-1.825 Y77.0 I0.0 J-4.825
G1 Y26.5014
G1 Y25.0014 Z-4.0
G1 Y21.3514
G1 Y19.8514 Z-5.2
G1 Y3.0
G3 X3.0 Y-1.825 I4.825 J0.0
G1 X83.675
G1 X85.175 Z-4.0
G1 X88.825
G1 X90.325 Z-5.2
G1 X96.9
G3 X101.725 Y3.0 I0.0 J4.825
G1 Y47.0
G3 X96.9 Y51.825 I-4.825 J0.0
G1 X38.2946
G1 X36.7946 Z-4.0
G1 X33.1446
G1 X31.6446 Z-5.2
G1 X24.9
G2 X21.725 Y55.0 I0.0 J3.175
G1 Y77.0
G3 X16.9 Y81.825 I-4.825 J0.0
G1 X3.0
G1 Y82.225
G3 X-2.225 Y77.0 Z-5.209 I0.0 J-5.225
G1 Y26.5014 Z-5.2643
G1 Y25.0014 Z-4.0
G1 Y21.3514
G1 Y19.8514 Z-5.2716
G1 Y3.0 Z-5.29
G3 X3.0 Y-2.225 Z-5.299 I5.225 J0.0
G1 X83.675 Z-5.3874
G1 X85.175 Z-4.0
G1 X88.825
G1 X90.325 Z-5.3947
G1 X96.9 Z-5.4019
G3 X102.125 Y3.0 Z-5.4109 I0.0 J5.225
G1 Y47.0 Z-5.4591
G3 X96.9 Y52.225 Z-5.4681 I-5.225 J0.0
G1 X38.2946 Z-5.5322
G1 X36.7946 Z-4.0
G1 X33.1446
G1 X31.6446 Z-5.5395
G1 X24.9 Z-5.5469
G2 X22.125 Y55.0 Z-5.5517 I0.0 J2.775
G1 Y77.0 Z-5.5758
G3 X16.9 Y82.225 Z-5.5848 I-5.225 J0.0
G1 X3.0 Z-5.6
G1 Y81.825
G3 X-1.825 Y77.0 I0.0 J-4.825
G1 Y26.5014
G1 Y25.0014 Z-4.0
G1 Y21.3514
G1 Y19.8514 Z-5.6
G1 Y3.0
G3 X3.0 Y-1.825 I4.825 J0.0
G1 X83.675
G1 X85.175 Z-4.0
G1 X88.825
G1 X90.325 Z-5.6
G1 X96.9
G3 X101.725 Y3.0 I0.0 J4.825
G1 Y47.0
G3 X96.9 Y51.825 I-4.825 J0.0
G1 X38.2946
G1 X36.7946 Z-4.0
G1 X33.1446
G1 X31.6446 Z-5.6
G1 X24.9
G2 X21.725 Y55.0 I0.0 J3.175
G1 Y77.0
G3 X16.9 Y81.825 I-4.825 J0.0
G1 X3.0
G1 Y82.225
G3 X-2.225 Y77.0 Z-5.609 I0.0 J-5.225
G1 Y26.5014 Z-5.6643
G1 Y25.0014 Z-4.0
G1 Y21.3514
G1 Y19.8514 Z-5.6716
G1 Y3.0 Z-5.69
G3 X3.0 Y-2.225 Z-5.699 I5.225 J0.0
G1 X83.675 Z-5.7874
G1 X85.175 Z-4.0
G1 X88.825
G1 X90.325 Z-5.7947
G1 X96.9 Z-5.8019
G3 X102.125 Y3.0 Z-5.8109 I0.0 J5.225
G1 Y47.0 Z-5.8591
G3 X96.9 Y52.225 Z-5.8681 I-5.225 J0.0
G1 X38.2946 Z-5.9322
G1 X36.7946 Z-4.0
G1 X33.1446
G1 X31.6446 Z-5.9395
G1 X24.9 Z-5.9469
G2 X22.125 Y55.0 Z-5.9517 I0.0 J2.775
G1 Y77.0 Z-5.9758
G3 X16.9 Y82.225 Z-5.9848 I-5.225 J0.0
G1 X3.0 Z-6.0
G1 Y81.825
G3 X-1.825 Y77.0 I0.0 J-4.825
G1 Y26.5014
G1 Y25.0014 Z-4.0
G1 Y21.3514
G1 Y19.8514 Z-6.0
G1 Y3.0
G3 X3.0 Y-1.825 I4.825 J0.0
G1 X83.675
G1 X85.175 Z-4.0
G1 X88.825
G1 X90.325 Z-6.0
G1 X96.9
G3 X101.725 Y3.0 I0.0 J4.825
G1 Y47.0
G3 X96.9 Y51.825 I-4.825 J0.0
G1 X38.2946
G1 X36.7946 Z-4.0
G1 X33.1446
G1 X31.6446 Z-6.0
G1 X24.9
G2 X21.725 Y55.0 I0.0 J3.175
G1 Y77.0
G3 X16.9 Y81.825 I-4.825 J0.0
G1 X3.0
G1 Y82.225
G3 X-2.225 Y77.0 Z-6.009 I0.0 J-5.225
G1 Y26.5014 Z-6.0643
G1 Y25.0014 Z-4.0
G1 Y21.3514
G1 Y19.8514 Z-6.0716
G1 Y3.0 Z-6.09
G3 X3.0 Y-2.225 Z-6.099 I5.225 J0.0
G1 X83.675 Z-6.1874
G1 X85.175 Z-4.0
G1 X88.825
G1 X90.325 Z-6.1947
G1 X96.9 Z-6.2019
G3 X102.125 Y3.0 Z-6.2109 I0.0 J5.225
G1 Y47.0 Z-6.2591
G3 X96.9 Y52.225 Z-6.2681 I-5.225 J0.0
G1 X38.2946 Z-6.3322
G1 X36.7946 Z-4.0
G1 X33.1446
G1 X31.6446 Z-6.3395
G1 X24.9 Z-6.3469
G2 X22.125 Y55.0 Z-6.3517 I0.0 J2.775
G1 Y77.0 Z-6.3758
G3 X16.9 Y82.225 Z-6.3848 I-5.225 J0.0
G1 X3.0 Z-6.4
G1 Y81.825
G3 X-1.825 Y77.0 I0.0 J-4.825
G1 Y26.5014
G1 Y25.0014 Z-4.0
G1 Y21.3514
G1 Y19.8514 Z-6.4
G1 Y3.0
G3 X3.0 Y-1.825 I4.825 J0.0
G1 X83.675
G1 X85.175 Z-4.0
G1 X88.825
G1 X90.325 Z-6.4
G1 X96.9
G3 X101.725 Y3.0 I0.0 J4.825
G1 Y47.0
G3 X96.9 Y51.825 I-4.825 J0.0
G1 X38.2946
G1 X36.7946 Z-4.0
G1 X33.1446
G1 X31.6446 Z-6.4
G1 X24.9
G2 X21.725 Y55.0 I0.0 J3.175
G1 Y77.0
G3 X16.9 Y81.825 I-4.825 J0.0
G1 X3.0
G1 Y82.225
G3 X-2.225 Y77.0 Z-6.409 I0.0 J-5.225
G1 Y26.5014 Z-6.4643
G1 Y25.0014 Z-4.0
G1 Y21.3514
G1 Y19.8514 Z-6.4716
G1 Y3.0 Z-6.49
G3 X3.0 Y-2.225 Z-6.499 I5.225 J0.0
G1 X83.675 Z-6.5874
G1 X85.175 Z-4.0
G1 X88.825
G1 X90.325 Z-6.5947
G1 X96.9 Z-6.6019
G3 X102.125 Y3.0 Z-6.6109 I0.0 J5.225
G1 Y47.0 Z-6.6591
G3 X96.9 Y52.225 Z-6.6681 I-5.225 J0.0
G1 X38.2946 Z-6.7322
G1 X36.7946 Z-4.0
G1 X33.1446
G1 X31.6446 Z-6.7395
G1 X24.9 Z-6.7469
G2 X22.125 Y55.0 Z-6.7517 I0.0 J2.775
G1 Y77.0 Z-6.7758
G3 X16.9 Y82.225 Z-6.7848 I-5.225 J0.0
G1 X3.0 Z-6.8
G1 Y81.825
G3 X-1.825 Y77.0 I0.0 J-4.825
G1 Y26.5014
G1 Y25.0014 Z-4.0
G1 Y21.3514
G1 Y19.8514 Z-6.8
G1 Y3.0
G3 X3.0 Y-1.825 I4.825 J0.0
G1 X83.675
G1 X85.175 Z-4.0
G1 X88.825
G1 X90.325 Z-6.8
G1 X96.9
G3 X101.725 Y3.0 I0.0 J4.825
G1 Y47.0
G3 X96.9 Y51.825 I-4.825 J0.0
G1 X38.2946
G1 X36.7946 Z-4.0
G1 X33.1446
G1 X31.6446 Z-6.8
G1 X24.9
G2 X21.725 Y55.0 I0.0 J3.175
G1 Y77.0
G3 X16.9 Y81.825 I-4.825 J0.0
G1 X3.0
G1 Y82.225
G3 X-2.225 Y77.0 Z-6.8045 I0.0 J-5.225
G1 Y26.5014 Z-6.8322
G1 Y25.0014 Z-4.0
G1 Y21.3514
G1 Y19.8514 Z-6.8358
G1 Y3.0 Z-6.845
G3 X3.0 Y-2.225 Z-6.8495 I5.225 J0.0
G1 X83.675 Z-6.8937
G1 X85.175 Z-4.0
G1 X88.825
G1 X90.325 Z-6.8973
G1 X96.9 Z-6.9009
G3 X102.125 Y3.0 Z-6.9054 I0.0 J5.225
G1 Y47.0 Z-6.9295
G3 X96.9 Y52.225 Z-6.934 I-5.225 J0.0
G1 X38.2946 Z-6.9661
G1 X36.7946 Z-4.0
G1 X33.1446
G1 X31.6446 Z-6.9698
G1 X24.9 Z-6.9735
G2 X22.125 Y55.0 Z-6.9758 I0.0 J2.775
G1 Y77.0 Z-6.9879
G3 X16.9 Y82.225 Z-6.9924 I-5.225 J0.0
G1 X3.0 Z-7.0
G3 X-2.225 Y77.0 I0.0 J-5.225
G1 Y26.5014
G1 Y25.0014 Z-4.0
G1 Y21.3514
G1 Y19.8514 Z-7.0
G1 Y3.0
G3 X3.0 Y-2.225 I5.225 J0.0
G1 X83.675
G1 X85.175 Z-4.0
G1 X88.825
G1 X90.325 Z-7.0
G1 X96.9
G3 X102.125 Y3.0 I0.0 J5.225
G1 Y47.0
G3 X96.9 Y52.225 I-5.225 J0.0
G1 X38.2946
G1 X36.7946 Z-4.0
G1 X33.1446
G1 X31.6446 Z-7.0
G1 X24.9
G2 X22.125 Y55.0 I0.0 J2.775
G1 Y77.0
G3 X16.9 Y82.225 I-5.225 J0.0
G1 X3.0
G1 Y81.825
G3 X-1.825 Y77.0 I0.0 J-4.825
G1 Y26.5014
G1 Y25.0014 Z-4.0
G1 Y21.3514
G1 Y19.8514 Z-7.0
G1 Y3.0
G3 X3.0 Y-1.825 I4.825 J0.0
G1 X83.675
G1 X85.175 Z-4.0
G1 X88.825
G1 X90.325 Z-7.0
G1 X96.9
G3 X101.725 Y3.0 I0.0 J4.825
G1 Y47.0
G3 X96.9 Y51.825 I-4.825 J0.0
G1 X38.2946
G1 X36.7946 Z-4.0
G1 X33.1446
G1 X31.6446 Z-7.0
G1 X24.9
G2 X21.725 Y55.0 I0.0 J3.175
G1 Y77.0
G3 X16.9 Y81.825 I-4.825 J0.0
G1 X3.0
G0 Z3.0
G0 X82.7755 Y82.9278
G0 Z1.0
G1 F8.0 Z0.0
G3 F650.0 X88.0 Y77.775 Z-0.0089 I5.2245 J0.0722
G1 X110.0 Z-0.033
G2 X112.775 Y75.0 Z-0.0378 I0.0 J-2.775
G1 Y3.0 Z-0.1166
G3 X118.0 Y-2.225 Z-0.1256 I5.225 J0.0
G1 X162.0 Z-0.1738
G3 X167.225 Y3.0 Z-0.1828 I0.0 J5.225
G1 Y96.9 Z-0.2857
G3 X162.0 Y102.125 Z-0.2947 I-5.225 J0.0
G1 X88.0 Z-0.3757
G3 X82.775 Y96.9 Z-0.3847 I0.0 J-5.225
G1 Y83.0 Z-0.3999
G3 X82.7755 Y82.9278 Z-0.4 I5.225 J0.0
G1 X83.1755 Y82.9333
G3 X88.0 Y78.175 I4.8245 J0.0667
G1 X110.0
G2 X113.175 Y75.0 I0.0 J-3.175
G1 Y3.0
G3 X118.0 Y-1.825 I4.825 J0.0
G1 X162.0
G3 X166.825 Y3.0 I0.0 J4.825
G1 Y96.9
G3 X162.0 Y101.725 I-4.825 J0.0
G1 X88.0
G3 X83.175 Y96.9 I0.0 J-4.825
G1 Y83.0
G3 X83.1755 Y82.9333 I4.825 J0.0
G1 X82.7755 Y82.9278
G3 X88.0 Y77.775 Z-0.4089 I5.2245 J0.0722
G1 X110.0 Z-0.433
G2 X112.775 Y75.0 Z-0.4378 I0.0 J-2.775
G1 Y3.0 Z-0.5166
G3 X118.0 Y-2.225 Z-0.5256 I5.225 J0.0
G1 X162.0 Z-0.5738
G3 X167.225 Y3.0 Z-0.5828 I0.0 J5.225
G1 Y96.9 Z-0.6857
G3 X162.0 Y102.125 Z-0.6947 I-5.225 J0.0
G1 X88.0 Z-0.7757
G3 X82.775 Y96.9 Z-0.7847 I0.0 J-5.225
G1 Y83.0 Z-0.7999
G3 X82.7755 Y82.9278 Z-0.8 I5.225 J0.0
G1 X83.1755 Y82.9333
G3 X88.0 Y78.175 I4.8245 J0.0667
G1 X110.0
G2 X113.175 Y75.0 I0.0 J-3.175
G1 Y3.0
G3 X118.0 Y-1.825 I4.825 J0.0
G1 X162.0
G3 X166.825 Y3.0 I0.0 J4.825
G1 Y96.9
G3 X162.0 Y101.725 I-4.825 J0.0
G1 X88.0
G3 X83.175 Y96.9 I0.0 J-4.825
G1 Y83.0
G3 X83.1755 Y82.9333 I4.825 J0.0
G1 X82.7755 Y82.9278
G3 X88.0 Y77.775 Z-0.8089 I5.2245 J0.0722
G1 X110.0 Z-0.833
G2 X112.775 Y75.0 Z-0.8378 I0.0 J-2.775
G1 Y3.0 Z-0.9166
G3 X118.0 Y-2.225 Z-0.9256 I5.225 J0.0
G1 X162.0 Z-0.9738
G3 X167.225 Y3.0 Z-0.9828 I0.0 J5.225
G1 Y96.9 Z-1.0857
G3 X162.0 Y102.125 Z-1.0947 I-5.225 J0.0
G1 X88.0 Z-1.1757
G3 X82.775 Y96.9 Z-1.1847 I0.0 J-5.225
G1 Y83.0 Z-1.1999
G3 X82.7755 Y82.9278 Z-1.2 I5.225 J0.0
G1 X83.1755 Y82.9333
G3 X88.0 Y78.175 I4.8245 J0.0667
G1 X110.0
G2 X113.175 Y75.0 I0.0 J-3.175
G1 Y3.0
G3 X118.0 Y-1.825 I4.825 J0.0
G1 X162.0
G3 X166.825 Y3.0 I0.0 J4.825
G1 Y96.9
G3 X162.0 Y101.725 I-4.825 J0.0
G1 X88.0
G3 X83.175 Y96.9 I0.0 J-4.825
G1 Y83.0
G3 X83.1755 Y82.9333 I4.825 J0.0
G1 X82.7755 Y82.9278
G3 X88.0 Y77.775 Z-1.2089 I5.2245 J0.0722
G1 X110.0 Z-1.233
G2 X112.775 Y75.0 Z-1.2378 I0.0 J-2.775
G1 Y3.0 Z-1.3166
G3 X118.0 Y-2.225 Z-1.3256 I5.225 J0.0
G1 X162.0 Z-1.3738
G3 X167.225 Y3.0 Z-1.3828 I0.0 J5.225
G1 Y96.9 Z-1.4857
G3 X162.0 Y102.125 Z-1.4947 I-5.225 J0.0
G1 X88.0 Z-1.5757
G3 X82.775 Y96.9 Z-1.5847 I0.0 J-5.225
G1 Y83.0 Z-1.5999
G3 X82.7755 Y82.9278 Z-1.6 I5.225 J0.0
G1 X83.1755 Y82.9333
G3 X88.0 Y78.175 I4.8245 J0.0667
G1 X110.0
G2 X113.175 Y75.0 I0.0 J-3.175
G1 Y3.0
G3 X118.0 Y-1.825 I4.825 J0.0
G1 X162.0
G3 X166.825 Y3.0 I0.0 J4.825
G1 Y96.9
G3 X162.0 Y101.725 I-4.825 J0.0
G1 X88.0
G3 X83.175 Y96.9 I0.0 J-4.825
G1 Y83.0
G3 X83.1755 Y82.9333 I4.825 J0.0
G1 X82.7755 Y82.9278
G3 X88.0 Y77.775 Z-1.6089 I5.2245 J0.0722
G1 X110.0 Z-1.633
G2 X112.775 Y75.0 Z-1.6378 I0.0 J-2.775
G1 Y3.0 Z-1.7166
G3 X118.0 Y-2.225 Z-1.7256 I5.225 J0.0
G1 X162.0 Z-1.7738
G3 X167.225 Y3.0 Z-1.7828 I0.0 J5.225
G1 Y96.9 Z-1.8857
G3 X162.0 Y102.125 Z-1.8947 I-5.225 J0.0
G1 X88.0 Z-1.9757
G3 X82.775 Y96.9 Z-1.9847 I0.0 J-5.225
G1 Y83.0 Z-1.9999
G3 X82.7755 Y82.9278 Z-2.0 I5.225 J0.0
G1 X83.1755 Y82.9333
G3 X88.0 Y78.175 I4.8245 J0.0667
G1 X110.0
G2 X113.175 Y75.0 I0.0 J-3.175
G1 Y3.0
G3 X118.0 Y-1.825 I4.825 J0.0
G1 X162.0
G3 X166.825 Y3.0 I0.0 J4.825
G1 Y96.9
G3 X162.0 Y101.725 I-4.825 J0.0
G1 X88.0
G3 X83.175 Y96.9 I0.0 J-4.825
G1 Y83.0
G3 X83.1755 Y82.9333 I4.825 J0.0
G1 X82.7755 Y82.9278
G3 X88.0 Y77.775 Z-2.0089 I5.2245 J0.0722
G1 X110.0 Z-2.033
G2 X112.775 Y75.0 Z-2.0378 I0.0 J-2.775
G1 Y3.0 Z-2.1166
G3 X118.0 Y-2.225 Z-2.1256 I5.225 J0.0
G1 X162.0 Z-2.1738
G3 X167.225 Y3.0 Z-2.1828 I0.0 J5.225
G1 Y96.9 Z-2.2857
G3 X162.0 Y102.125 Z-2.2947 I-5.225 J0.0
G1 X88.0 Z-2.3757
G3 X82.775 Y96.9 Z-2.3847 I0.0 J-5.225
G1 Y83.0 Z-2.3999
G3 X82.7755 Y82.9278 Z-2.4 I5.225 J0.0
G1 X83.1755 Y82.9333
G3 X88.0 Y78.175 I4.8245 J0.0667
G1 X110.0
G2 X113.175 Y75.0 I0.0 J-3.175
G1 Y3.0
G3 X118.0 Y-1.825 I4.825 J0.0
G1 X162.0
G3 X166.825 Y3.0 I0.0 J4.825
G1 Y96.9
G3 X162.0 Y101.725 I-4.825 J0.0
G1 X88.0
G3 X83.175 Y96.9 I0.0 J-4.825
G1 Y83.0
G3 X83.1755 Y82.9333 I4.825 J0.0
G1 X82.7755 Y82.9278
G3 X88.0 Y77.775 Z-2.4089 I5.2245 J0.0722
G1 X110.0 Z-2.433
G2 X112.775 Y75.0 Z-2.4378 I0.0 J-2.775
G1 Y3.0 Z-2.5166
G3 X118.0 Y-2.225 Z-2.5256 I5.225 J0.0
G1 X162.0 Z-2.5738
G3 X167.225 Y3.0 Z-2.5828 I0.0 J5.225
G1 Y96.9 Z-2.6857
G3 X162.0 Y102.125 Z-2.6947 I-5.225 J0.0
G1 X88.0 Z-2.7757
G3 X82.775 Y96.9 Z-2.7847 I0.0 J-5.225
G1 Y83.0 Z-2.7999
G3 X82.7755 Y82.9278 Z-2.8 I5.225 J0.0
G1 X83.1755 Y82.9333
G3 X88.0 Y78.175 I4.8245 J0.0667
G1 X110.0
G2 X113.175 Y75.0 I0.0 J-3.175
G1 Y3.0
G3 X118.0 Y-1.825 I4.825 J0.0
G1 X162.0
G3 X166.825 Y3.0 I0.0 J4.825
G1 Y96.9
G3 X162.0 Y101.725 I-4.825 J0.0
G1 X88.0
G3 X83.175 Y96.9 I0.0 J-4.825
G1 Y83.0
G3 X83.1755 Y82.9333 I4.825 J0.0
G1 X82.7755 Y82.9278
G3 X88.0 Y77.775 Z-2.8089 I5.2245 J0.0722
G1 X110.0 Z-2.833
G2 X112.775 Y75.0 Z-2.8378 I0.0 J-2.775
G1 Y3.0 Z-2.9166
G3 X118.0 Y-2.225 Z-2.9256 I5.225 J0.0
G1 X162.0 Z-2.9738
G3 X167.225 Y3.0 Z-2.9828 I0.0 J5.225
G1 Y96.9 Z-3.0857
G3 X162.0 Y102.125 Z-3.0947 I-5.225 J0.0
G1 X88.0 Z-3.1757
G3 X82.775 Y96.9 Z-3.1847 I0.0 J-5.225
G1 Y83.0 Z-3.1999
G3 X82.7755 Y82.9278 Z-3.2 I5.225 J0.0
G1 X83.1755 Y82.9333
G3 X88.0 Y78.175 I4.8245 J0.0667
G1 X110.0
G2 X113.175 Y75.0 I0.0 J-3.175
G1 Y3.0
G3 X118.0 Y-1.825 I4.825 J0.0
G1 X162.0
G3 X166.825 Y3.0 I0.0 J4.825
G1 Y96.9
G3 X162.0 Y101.725 I-4.825 J0.0
G1 X88.0
G3 X83.175 Y96.9 I0.0 J-4.825
G1 Y83.0
G3 X83.1755 Y82.9333 I4.825 J0.0
G1 X82.7755 Y82.9278
G3 X88.0 Y77.775 Z-3.2089 I5.2245 J0.0722
G1 X110.0 Z-3.233
G2 X112.775 Y75.0 Z-3.2378 I0.0 J-2.775
G1 Y3.0 Z-3.3166
G3 X118.0 Y-2.225 Z-3.3256 I5.225 J0.0
G1 X162.0 Z-3.3738
G3 X167.225 Y3.0 Z-3.3828 I0.0 J5.225
G1 Y96.9 Z-3.4857
G3 X162.0 Y102.125 Z-3.4947 I-5.225 J0.0
G1 X88.0 Z-3.5757
G3 X82.775 Y96.9 Z-3.5847 I0.0 J-5.225
G1 Y83.0 Z-3.5999
G3 X82.7755 Y82.9278 Z-3.6 I5.225 J0.0
G1 X83.1755 Y82.9333
G3 X88.0 Y78.175 I4.8245 J0.0667
G1 X110.0
G2 X113.175 Y75.0 I0.0 J-3.175
G1 Y3.0
G3 X118.0 Y-1.825 I4.825 J0.0
G1 X162.0
G3 X166.825 Y3.0 I0.0 J4.825
G1 Y96.9
G3 X162.0 Y101.725 I-4.825 J0.0
G1 X88.0
G3 X83.175 Y96.9 I0.0 J-4.825
G1 Y83.0
G3 X83.1755 Y82.9333 I4.825 J0.0
G1 X82.7755 Y82.9278
G3 X88.0 Y77.775 Z-3.6089 I5.2245 J0.0722
G1 X110.0 Z-3.633
G2 X112.775 Y75.0 Z-3.6378 I0.0 J-2.775
G1 Y3.0 Z-3.7166
G3 X118.0 Y-2.225 Z-3.7256 I5.225 J0.0
G1 X162.0 Z-3.7738
G3 X167.225 Y3.0 Z-3.7828 I0.0 J5.225
G1 Y96.9 Z-3.8857
G3 X162.0 Y102.125 Z-3.8947 I-5.225 J0.0
G1 X88.0 Z-3.9757
G3 X82.775 Y96.9 Z-3.9847 I0.0 J-5.225
G1 Y83.0 Z-3.9999
G3 X82.7755 Y82.9278 Z-4.0 I5.225 J0.0
G1 X83.1755 Y82.9333
G3 X88.0 Y78.175 I4.8245 J0.0667
G1 X110.0
G2 X113.175 Y75.0 I0.0 J-3.175
G1 Y3.0
G3 X118.0 Y-1.825 I4.825 J0.0
G1 X162.0
G3 X166.825 Y3.0 I0.0 J4.825
G1 Y96.9
G3 X162.0 Y101.725 I-4.825 J0.0
G1 X88.0
G3 X83.175 Y96.9 I0.0 J-4.825
G1 Y83.0
G3 X83.1755 Y82.9333 I4.825 J0.0
G1 X82.7755 Y82.9278
G3 X88.0 Y77.775 Z-4.0089 I5.2245 J0.0722
G1 X110.0 Z-4.033
G2 X112.775 Y75.0 Z-4.0378 I0.0 J-2.775
G1 Y68.2554 Z-4.0452
G1 Y66.7554 Z-4.0
G1 Y63.1054
G1 Y61.6054 Z-4.0525
G1 Y3.0 Z-4.1166
G3 X118.0 Y-2.225 Z-4.1256 I5.225 J0.0
G1 X162.0 Z-4.1738
G3 X167.225 Y3.0 Z-4.1828 I0.0 J5.225
G1 Y10.675 Z-4.1912
G1 Y12.175 Z-4.0
G1 Y15.825
G1 Y17.325 Z-4.1985
G1 Y96.9 Z-4.2857
G3 X162.0 Y102.125 Z-4.2947 I-5.225 J0.0
G1 X145.1486 Z-4.3131
G1 X143.6486 Z-4.0
G1 X139.9986
G1 X138.4986 Z-4.3204
G1 X88.0 Z-4.3757
G3 X82.775 Y96.9 Z-4.3847 I0.0 J-5.225
G1 Y83.0 Z-4.3999
G3 X82.7755 Y82.9278 Z-4.4 I5.225 J0.0
G1 X83.1755 Y82.9333
G3 X88.0 Y78.175 I4.8245 J0.0667
G1 X110.0
G2 X113.175 Y75.0 I0.0 J-3.175
G1 Y68.2554
G1 Y66.7554 Z-4.0
G1 Y63.1054
G1 Y61.6054 Z-4.4
G1 Y3.0
G3 X118.0 Y-1.825 I4.825 J0.0
G1 X162.0
G3 X166.825 Y3.0 I0.0 J4.825
G1 Y10.675
G1 Y12.175 Z-4.0
G1 Y15.825
G1 Y17.325 Z-4.4
G1 Y96.9
G3 X162.0 Y101.725 I-4.825 J0.0
G1 X145.1486
G1 X143.6486 Z-4.0
G1 X139.9986
G1 X138.4986 Z-4.4
G1 X88.0
G3 X83.175 Y96.9 I0.0 J-4.825
G1 Y83.0
G3 X83.1755 Y82.9333 I4.825 J0.0
G1 X82.7755 Y82.9278
G3 X88.0 Y77.775 Z-4.4089 I5.2245 J0.0722
G1 X110.0 Z-4.433
G2 X112.775 Y75.0 Z-4.4378 I0.0 J-2.775
G1 Y68.2554 Z-4.4452
G1 Y66.7554 Z-4.0
G1 Y63.1054
G1 Y61.6054 Z-4.4525
G1 Y3.0 Z-4.5166
G3 X118.0 Y-2.225 Z-4.5256 I5.225 J0.0
G1 X162.0 Z-4.5738
G3 X167.225 Y3.0 Z-4.5828 I0.0 J5.225
G1 Y10.675 Z-4.5912
G1 Y12.175 Z-4.0
G1 Y15.825
G1 Y17.325 Z-4.5985
G1 Y96.9 Z-4.6857
G3 X162.0 Y102.125 Z-4.6947 I-5.225 J0.0
G1 X145.1486 Z-4.7131
G1 X143.6486 Z-4.0
G1 X139.9986
G1 X138.4986 Z-4.7204
G1 X88.0 Z-4.7757
G3 X82.775 Y96.9 Z-4.7847 I0.0 J-5.225
G1 Y83.0 Z-4.7999
G3 X82.7755 Y82.9278 Z-4.8 I5.225 J0.0
G1 X83.1755 Y82.9333
G3 X88.0 Y78.175 I4.8245 J0.0667
G1 X110.0
G2 X113.175 Y75.0 I0.0 J-3.175
G1 Y68.2554
G1 Y66.7554 Z-4.0
G1 Y63.1054
G1 Y61.6054 Z-4.8
G1 Y3.0
G3 X118.0 Y-1.825 I4.825 J0.0
G1 X162.0
G3 X166.825 Y3.0 I0.0 J4.825
G1 Y10.675
G1 Y12.175 Z-4.0
G1 Y15.825
G1 Y17.325 Z-4.8
G1 Y96.9
G3 X162.0 Y101.725 I-4.825 J0.0
G1 X145.1486
G1 X143.6486 Z-4.0
G1 X139.9986
G1 X138.4986 Z-4.8
G1 X88.0
G3 X83.175 Y96.9 I0.0 J-4.825
G1 Y83.0
G3 X83.1755 Y82.9333 I4.825 J0.0
G1 X82.7755 Y82.9278
G3 X88.0 Y77.775 Z-4.8089 I5.2245 J0.0722
G1 X110.0 Z-4.833
G2 X112.775 Y75.0 Z-4.8378 I0.0 J-2.775
G1 Y68.2554 Z-4.8452
G1 Y66.7554 Z-4.0
G1 Y63.1054
G1 Y61.6054 Z-4.8525
G1 Y3.0 Z-4.9166
G3 X118.0 Y-2.225 Z-4.9256 I5.225 J0.0
G1 X162.0 Z-4.9738
G3 X167.225 Y3.0 Z-4.9828 I0.0 J5.225
G1 Y10.675 Z-4.9912
G1 Y12.175 Z-4.0
G1 Y15.825
G1 Y17.325 Z-4.9985
G1 Y96.9 Z-5.0857
G3 X162.0 Y102.125 Z-5.0947 I-5.225 J0.0
G1 X145.1486 Z-5.1131
G1 X143.6486 Z-4.0
G1 X139.9986
G1 X138.4986 Z-5.1204
G1 X88.0 Z-5.1757
G3 X82.775 Y96.9 Z-5.1847 I0.0 J-5.225
G1 Y83.0 Z-5.1999
G3 X82.7755 Y82.9278 Z-5.2 I5.225 J0.0
G1 X83.1755 Y82.9333
G3 X88.0 Y78.175 I4.8245 J0.0667
G1 X110.0
G2 X113.175 Y75.0 I0.0 J-3.175
G1 Y68.2554
G1 Y66.7554 Z-4.0
G1 Y63.1054
G1 Y61.6054 Z-5.2
G1 Y3.0
G3 X118.0 Y-1.825 I4.825 J0.0
G1 X162.0
G3 X166.825 Y3.0 I0.0 J4.825
G1 Y10.675
G1 Y12.175 Z-4.0
G1 Y15.825
G1 Y17.325 Z-5.2
G1 Y96.9
G3 X162.0 Y101.725 I-4.825 J0.0
G1 X145.1486
G1 X143.6486 Z-4.0
G1 X139.9986
G1 X138.4986 Z-5.2
G1 X88.0
G3 X83.175 Y96.9 I0.0 J-4.825
G1 Y83.0
G3 X83.1755 Y82.9333 I4.825 J0.0
G1 X82.7755 Y82.9278
G3 X88.0 Y77.775 Z-5.2089 I5.2245 J0.0722
G1 X110.0 Z-5.233
G2 X112.775 Y75.0 Z-5.2378 I0.0 J-2.775
G1 Y68.2554 Z-5.2452
G1 Y66.7554 Z-4.0
G1 Y63.1054
G1 Y61.6054 Z-5.2525
G1 Y3.0 Z-5.3166
G3 X118.0 Y-2.225 Z-5.3256 I5.225 J0.0
G1 X162.0 Z-5.3738
G3 X167.225 Y3.0 Z-5.3828 I0.0 J5.225
G1 Y10.675 Z-5.3912
G1 Y12.175 Z-4.0
G1 Y15.825
G1 Y17.325 Z-5.3985
G1 Y96.9 Z-5.4857
G3 X162.0 Y102.125 Z-5.4947 I-5.225 J0.0
G1 X145.1486 Z-5.5131
G1 X143.6486 Z-4.0
G1 X139.9986
G1 X138.4986 Z-5.5204
G1 X88.0 Z-5.5757
G3 X82.775 Y96.9 Z-5.5847 I0.0 J-5.225
G1 Y83.0 Z-5.5999
G3 X82.7755 Y82.9278 Z-5.6 I5.225 J0.0
G1 X83.1755 Y82.9333
G3 X88.0 Y78.175 I4.8245 J0.0667
G1 X110.0
G2 X113.175 Y75.0 I0.0 J-3.175
G1 Y68.2554
G1 Y66.7554 Z-4.0
G1 Y63.1054
G1 Y61.6054 Z-5.6
G1 Y3.0
G3 X118.0 Y-1.825 I4.825 J0.0
G1 X162.0
G3 X166.825 Y3.0 I0.0 J4.825
G1 Y10.675
G1 Y12.175 Z-4.0
G1 Y15.825
G1 Y17.325 Z-5.6
G1 Y96.9
G3 X162.0 Y101.725 I-4.825 J0.0
G1 X145.1486
G1 X143.6486 Z-4.0
G1 X139.9986
G1 X138.4986 Z-5.6
G1 X88.0
G3 X83.175 Y96.9 I0.0 J-4.825
G1 Y83.0
G3 X83.1755 Y82.9333 I4.825 J0.0
G1 X82.7755 Y82.9278
G3 X88.0 Y77.775 Z-5.6089 I5.2245 J0.0722
G1 X110.0 Z-5.633
G2 X112.775 Y75.0 Z-5.6378 I0.0 J-2.775
G1 Y68.2554 Z-5.6452
G1 Y66.7554 Z-4.0
G1 Y63.1054
G1 Y61.6054 Z-5.6525
G1 Y3.0 Z-5.7166
G3 X118.0 Y-2.225 Z-5.7256 I5.225 J0.0
G1 X162.0 Z-5.7738
G3 X167.225 Y3.0 Z-5.7828 I0.0 J5.225
G1 Y10.675 Z-5.7912
G1 Y12.175 Z-4.0
G1 Y15.825
G1 Y17.325 Z-5.7985
G1 Y96.9 Z-5.8857
G3 X162.0 Y102.125 Z-5.8947 I-5.225 J0.0
G1 X145.1486 Z-5.9131
G1 X143.6486 Z-4.0
G1 X139.9986
G1 X138.4986 Z-5.9204
G1 X88.0 Z-5.9757
G3 X82.775 Y96.9 Z-5.9847 I0.0 J-5.225
G1 Y83.0 Z-5.9999
G3 X82.7755 Y82.9278 Z-6.0 I5.225 J0.0
G1 X83.1755 Y82.9333
G3 X88.0 Y78.175 I4.8245 J0.0667
G1 X110.0
G2 X113.175 Y75.0 I0.0 J-3.175
G1 Y68.2554
G1 Y66.7554 Z-4.0
G1 Y63.1054
G1 Y61.6054 Z-6.0
G1 Y3.0
G3 X118.0 Y-1.825 I4.825 J0.0
G1 X162.0
G3 X166.825 Y3.0 I0.0 J4.825
G1 Y10.675
G1 Y12.175 Z-4.0
G1 Y15.825
G1 Y17.325 Z-6.0
G1 Y96.9
G3 X162.0 Y101.725 I-4.825 J0.0
G1 X145.1486
G1 X143.6486 Z-4.0
G1 X139.9986
G1 X138.4986 Z-6.0
G1 X88.0
G3 X83.175 Y96.9 I0.0 J-4.825
G1 Y83.0
G3 X83.1755 Y82.9333 I4.825 J0.0
G1 X82.7755 Y82.9278
G3 X88.0 Y77.775 Z-6.0089 I5.2245 J0.0722
G1 X110.0 Z-6.033
G2 X112.775 Y75.0 Z-6.0378 I0.0 J-2.775
G1 Y68.2554 Z-6.0452
G1 Y66.7554 Z-4.0
G1 Y63.1054
G1 Y61.6054 Z-6.0525
G1 Y3.0 Z-6.1166
G3 X118.0 Y-2.225 Z-6.1256 I5.225 J0.0
G1 X162.0 Z-6.1738
G3 X167.225 Y3.0 Z-6.1828 I0.0 J5.225
G1 Y10.675 Z-6.1912
G1 Y12.175 Z-4.0
G1 Y15.825
G1 Y17.325 Z-6.1985
G1 Y96.9 Z-6.2857
G3 X162.0 Y102.125 Z-6.2947 I-5.225 J0.0
G1 X145.1486 Z-6.3131
G1 X143.6486 Z-4.0
G1 X139.9986
G1 X138.4986 Z-6.3204
G1 X88.0 Z-6.3757
G3 X82.775 Y96.9 Z-6.3847 I0.0 J-5.225
G1 Y83.0 Z-6.3999
G3 X82.7755 Y82.9278 Z-6.4 I5.225 J0.0
G1 X83.1755 Y82.9333
G3 X88.0 Y78.175 I4.8245 J0.0667
G1 X110.0
G2 X113.175 Y75.0 I0.0 J-3.175
G1 Y68.2554
G1 Y66.7554 Z-4.0
G1 Y63.1054
G1 Y61.6054 Z-6.4
G1 Y3.0
G3 X118.0 Y-1.825 I4.825 J0.0
G1 X162.0
G3 X166.825 Y3.0 I0.0 J4.825
G1 Y10.675
G1 Y12.175 Z-4.0
G1 Y15.825
G1 Y17.325 Z-6.4
G1 Y96.9
G3 X162.0 Y101.725 I-4.825 J0.0
G1 X145.1486
G1 X143.6486 Z-4.0
G1 X139.9986
G1 X138.4986 Z-6.4
G1 X88.0
G3 X83.175 Y96.9 I0.0 J-4.825
G1 Y83.0
G3 X83.1755 Y82.9333 I4.825 J0.0
G1 X82.7755 Y82.9278
G3 X88.0 Y77.775 Z-6.4089 I5.2245 J0.0722
G1 X110.0 Z-6.433
G2 X112.775 Y75.0 Z-6.4378 I0.0 J-2.775
G1 Y68.2554 Z-6.4452
G1 Y66.7554 Z-4.0
G1 Y63.1054
G1 Y61.6054 Z-6.4525
G1 Y3.0 Z-6.5166
G3 X118.0 Y-2.225 Z-6.5256 I5.225 J0.0
G1 X162.0 Z-6.5738
G3 X167.225 Y3.0 Z-6.5828 I0.0 J5.225
G1 Y10.675 Z-6.5912
G1 Y12.175 Z-4.0
G1 Y15.825
G1 Y17.325 Z-6.5985
G1 Y96.9 Z-6.6857
G3 X162.0 Y102.125 Z-6.6947 I-5.225 J0.0
G1 X145.1486 Z-6.7131
G1 X143.6486 Z-4.0
G1 X139.9986
G1 X138.4986 Z-6.7204
G1 X88.0 Z-6.7757
G3 X82.775 Y96.9 Z-6.7847 I0.0 J-5.225
G1 Y83.0 Z-6.7999
G3 X82.7755 Y82.9278 Z-6.8 I5.225 J0.0
G1 X83.1755 Y82.9333
G3 X88.0 Y78.175 I4.8245 J0.0667
G1 X110.0
G2 X113.175 Y75.0 I0.0 J-3.175
G1 Y68.2554
G1 Y66.7554 Z-4.0
G1 Y63.1054
G1 Y61.6054 Z-6.8
G1 Y3.0
G3 X118.0 Y-1.825 I4.825 J0.0
G1 X162.0
G3 X166.825 Y3.0 I0.0 J4.825
G1 Y10.675
G1 Y12.175 Z-4.0
G1 Y15.825
G1 Y17.325 Z-6.8
G1 Y96.9
G3 X162.0 Y101.725 I-4.825 J0.0
G1 X145.1486
G1 X143.6486 Z-4.0
G1 X139.9986
G1 X138.4986 Z-6.8
G1 X88.0
G3 X83.175 Y96.9 I0.0 J-4.825
G1 Y83.0
G3 X83.1755 Y82.9333 I4.825 J0.0
G1 X82.7755 Y82.9278
G3 X88.0 Y77.775 Z-6.8045 I5.2245 J0.0722
G1 X110.0 Z-6.8165
G2 X112.775 Y75.0 Z-6.8189 I0.0 J-2.775
G1 Y68.2554 Z-6.8226
G1 Y66.7554 Z-4.0
G1 Y63.1054
G1 Y61.6054 Z-6.8262
G1 Y3.0 Z-6.8583
G3 X118.0 Y-2.225 Z-6.8628 I5.225 J0.0
G1 X162.0 Z-6.8869
G3 X167.225 Y3.0 Z-6.8914 I0.0 J5.225
G1 Y10.675 Z-6.8956
G1 Y12.175 Z-4.0
G1 Y15.825
G1 Y17.325 Z-6.8993
G1 Y96.9 Z-6.9428
G3 X162.0 Y102.125 Z-6.9473 I-5.225 J0.0
G1 X145.1486 Z-6.9566
G1 X143.6486 Z-4.0
G1 X139.9986
G1 X138.4986 Z-6.9602
G1 X88.0 Z-6.9879
G3 X82.775 Y96.9 Z-6.9923 I0.0 J-5.225
G1 Y83.0 Z-7.0
G3 X82.7755 Y82.9278 I5.225 J0.0
G3 X88.0 Y77.775 I5.2245 J0.0722
G1 X110.0
G2 X112.775 Y75.0 I0.0 J-2.775
G1 Y68.2554
G1 Y66.7554 Z-4.0
G1 Y63.1054
G1 Y61.6054 Z-7.0
G1 Y3.0
G3 X118.0 Y-2.225 I5.225 J0.0
G1 X162.0
G3 X167.225 Y3.0 I0.0 J5.225
G1 Y10.675
G1 Y12.175 Z-4.0
G1 Y15.825
G1 Y17.325 Z-7.0
G1 Y96.9
G3 X162.0 Y102.125 I-5.225 J0.0
G1 X145.1486
G1 X143.6486 Z-4.0
G1 X139.9986
G1 X138.4986 Z-7.0
G1 X88.0
G3 X82.775 Y96.9 I0.0 J-5.225
G1 Y83.0
G3 X82.7755 Y82.9278 I5.225 J0.0
G1 X83.1755 Y82.9333
G3 X88.0 Y78.175 I4.8245 J0.0667
G1 X110.0
G2 X113.175 Y75.0 I0.0 J-3.175
G1 Y68.2554
G1 Y66.7554 Z-4.0
G1 Y63.1054
G1 Y61.6054 Z-7.0
G1 Y3.0
G3 X118.0 Y-1.825 I4.825 J0.0
G1 X162.0
G3 X166.825 Y3.0 I0.0 J4.825
G1 Y10.675
G1 Y12.175 Z-4.0
G1 Y15.825
G1 Y17.325 Z-7.0
G1 Y96.9
G3 X162.0 Y101.725 I-4.825 J0.0
G1 X145.1486
G1 X143.6486 Z-4.0
G1 X139.9986
G1 X138.4986 Z-7.0
G1 X88.0
G3 X83.175 Y96.9 I0.0 J-4.825
G1 Y83.0
G3 X83.1755 Y82.9333 I4.825 J0.0
G0 Z3.0
M5
M30
