( Made using CamBam - http://www.cambam.co.uk )
( Cut Width and Speed Tests 8/8/2015 6:09:01 PM )
( T0 : 3.65 )
G21 G90 G64 G40
G0 Z3.0
( T0 : 3.65 )
T0 M6
( Engrave1 )
G17
M3 S12000
G0 X0.0 Y5.0
G0 Z1.0
G1 F5.0 Z-0.6
G1 F600.0 Y30.0
G1 X10.0
G1 F5.0 Z-1.2
G1 F600.0 X0.0
G1 Y5.0
G1 F5.0 Z-1.8
G1 F600.0 Y30.0
G1 X10.0
G1 F5.0 Z-2.4
G1 F600.0 X0.0
G1 Y5.0
G1 F5.0 Z-3.0
G1 F600.0 Y30.0
G1 X10.0
G1 F5.0 Z-3.6
G1 F600.0 X0.0
G1 Y5.0
G1 F5.0 Z-4.2
G1 F600.0 Y30.0
G1 X10.0
G1 F5.0 Z-4.8
G1 F600.0 X0.0
G1 Y5.0
G1 F5.0 Z-5.4
G1 F600.0 Y30.0
G1 X10.0
G1 F5.0 Z-6.0
G1 F600.0 X0.0
G1 Y5.0
G1 F5.0 Z-6.6
G1 F600.0 Y30.0
G1 X10.0
G1 F5.0 Z-6.9
G1 F600.0 X0.0
G1 Y5.0
( Engrave2 )
S12000
G0 Z3.0
G0 X10.0 Y25.0
G0 Z1.0
G1 F5.0 Z-0.6
G1 F500.0 Y0.0
G1 X20.0
G1 F5.0 Z-1.2
G1 F500.0 X10.0
G1 Y25.0
G1 F5.0 Z-1.8
G1 F500.0 Y0.0
G1 X20.0
G1 F5.0 Z-2.4
G1 F500.0 X10.0
G1 Y25.0
G1 F5.0 Z-3.0
G1 F500.0 Y0.0
G1 X20.0
G1 F5.0 Z-3.6
G1 F500.0 X10.0
G1 Y25.0
G1 F5.0 Z-4.2
G1 F500.0 Y0.0
G1 X20.0
G1 F5.0 Z-4.8
G1 F500.0 X10.0
G1 Y25.0
G1 F5.0 Z-5.4
G1 F500.0 Y0.0
G1 X20.0
G1 F5.0 Z-6.0
G1 F500.0 X10.0
G1 Y25.0
G1 F5.0 Z-6.6
G1 F500.0 Y0.0
G1 X20.0
G1 F5.0 Z-6.9
G1 F500.0 X10.0
G1 Y25.0
( Engrave3 )
S12000
G0 Z3.0
G0 X20.0 Y5.0
G0 Z1.0
G1 F5.0 Z-0.6
G1 F400.0 Y30.0
G1 X30.0
G1 F5.0 Z-1.2
G1 F400.0 X20.0
G1 Y5.0
G1 F5.0 Z-1.8
G1 F400.0 Y30.0
G1 X30.0
G1 F5.0 Z-2.4
G1 F400.0 X20.0
G1 Y5.0
G1 F5.0 Z-3.0
G1 F400.0 Y30.0
G1 X30.0
G1 F5.0 Z-3.6
G1 F400.0 X20.0
G1 Y5.0
G1 F5.0 Z-4.2
G1 F400.0 Y30.0
G1 X30.0
G1 F5.0 Z-4.8
G1 F400.0 X20.0
G1 Y5.0
G1 F5.0 Z-5.4
G1 F400.0 Y30.0
G1 X30.0
G1 F5.0 Z-6.0
G1 F400.0 X20.0
G1 Y5.0
G1 F5.0 Z-6.6
G1 F400.0 Y30.0
G1 X30.0
G1 F5.0 Z-6.9
G1 F400.0 X20.0
G1 Y5.0
( Engrave4 )
S12000
G0 Z3.0
G0 X30.0 Y25.0
G0 Z1.0
G1 F5.0 Z-0.8
G1 F500.0 Y0.0
G1 X40.0
G1 F5.0 Z-1.6
G1 F500.0 X30.0
G1 Y25.0
G1 F5.0 Z-2.4
G1 F500.0 Y0.0
G1 X40.0
G1 F5.0 Z-3.2
G1 F500.0 X30.0
G1 Y25.0
G1 F5.0 Z-4.0
G1 F500.0 Y0.0
G1 X40.0
G1 F5.0 Z-4.8
G1 F500.0 X30.0
G1 Y25.0
G1 F5.0 Z-5.6
G1 F500.0 Y0.0
G1 X40.0
G1 F5.0 Z-6.4
G1 F500.0 X30.0
G1 Y25.0
G1 F5.0 Z-6.9
G1 F500.0 Y0.0
G1 X40.0
( Engrave5 )
S12000
G0 Z3.0
G0 Y5.0
G0 Z1.0
G1 F5.0 Z-0.8
G1 F400.0 Y30.0
G1 X50.0
G1 F5.0 Z-1.6
G1 F400.0 X40.0
G1 Y5.0
G1 F5.0 Z-2.4
G1 F400.0 Y30.0
G1 X50.0
G1 F5.0 Z-3.2
G1 F400.0 X40.0
G1 Y5.0
G1 F5.0 Z-4.0
G1 F400.0 Y30.0
G1 X50.0
G1 F5.0 Z-4.8
G1 F400.0 X40.0
G1 Y5.0
G1 F5.0 Z-5.6
G1 F400.0 Y30.0
G1 X50.0
G1 F5.0 Z-6.4
G1 F400.0 X40.0
G1 Y5.0
G1 F5.0 Z-6.9
G1 F400.0 Y30.0
G1 X50.0
G0 Z3.0
M5
M30
