( Made using CamBam - http://www.cambam.co.uk )
( LH OX-c side gantry (Anti Backlash) 7/28/2015 10:48:57 PM )
( T0 : 3.5 )
G21 G90 G64 G40
G0 Z2.0
( T0 : 3.5 )
T0 M6
( Main Holes )
G17
M3 S1000
G0 X57.86 Y174.0
G0 Z1.0
G1 F5.0 Z-0.4
G2 F225.0 X55.085 Y172.3979 I-1.85 J0.0
G2 Y175.6021 I0.925 J1.6021
G2 X57.86 Y174.0 I0.925 J-1.6021
G1 F5.0 Z-0.8
G2 F225.0 X55.085 Y172.3979 I-1.85 J0.0
G2 Y175.6021 I0.925 J1.6021
G2 X57.86 Y174.0 I0.925 J-1.6021
G1 F5.0 Z-1.2
G2 F225.0 X55.085 Y172.3979 I-1.85 J0.0
G2 Y175.6021 I0.925 J1.6021
G2 X57.86 Y174.0 I0.925 J-1.6021
G1 F5.0 Z-1.6
G2 F225.0 X55.085 Y172.3979 I-1.85 J0.0
G2 Y175.6021 I0.925 J1.6021
G2 X57.86 Y174.0 I0.925 J-1.6021
G1 F5.0 Z-2.0
G2 F225.0 X55.085 Y172.3979 I-1.85 J0.0
G2 Y175.6021 I0.925 J1.6021
G2 X57.86 Y174.0 I0.925 J-1.6021
G1 F5.0 Z-2.4
G2 F225.0 X55.085 Y172.3979 I-1.85 J0.0
G2 Y175.6021 I0.925 J1.6021
G2 X57.86 Y174.0 I0.925 J-1.6021
G1 F5.0 Z-2.8
G2 F225.0 X55.085 Y172.3979 I-1.85 J0.0
G2 Y175.6021 I0.925 J1.6021
G2 X57.86 Y174.0 I0.925 J-1.6021
G1 F5.0 Z-3.2
G2 F225.0 X55.085 Y172.3979 I-1.85 J0.0
G2 Y175.6021 I0.925 J1.6021
G2 X57.86 Y174.0 I0.925 J-1.6021
G1 F5.0 Z-3.6
G2 F225.0 X55.085 Y172.3979 I-1.85 J0.0
G2 Y175.6021 I0.925 J1.6021
G2 X57.86 Y174.0 I0.925 J-1.6021
G1 F5.0 Z-4.0
G2 F225.0 X55.085 Y172.3979 I-1.85 J0.0
G2 Y175.6021 I0.925 J1.6021
G2 X57.86 Y174.0 I0.925 J-1.6021
G1 F5.0 Z-4.4
G2 F225.0 X55.085 Y172.3979 I-1.85 J0.0
G2 Y175.6021 I0.925 J1.6021
G2 X57.86 Y174.0 I0.925 J-1.6021
G1 F5.0 Z-4.8
G2 F225.0 X55.085 Y172.3979 I-1.85 J0.0
G2 Y175.6021 I0.925 J1.6021
G2 X57.86 Y174.0 I0.925 J-1.6021
G1 F5.0 Z-5.2
G2 F225.0 X55.085 Y172.3979 I-1.85 J0.0
G2 Y175.6021 I0.925 J1.6021
G2 X57.86 Y174.0 I0.925 J-1.6021
G1 F5.0 Z-5.6
G2 F225.0 X55.085 Y172.3979 I-1.85 J0.0
G2 Y175.6021 I0.925 J1.6021
G2 X57.86 Y174.0 I0.925 J-1.6021
G1 F5.0 Z-6.0
G2 F225.0 X55.085 Y172.3979 I-1.85 J0.0
G2 Y175.6021 I0.925 J1.6021
G2 X57.86 Y174.0 I0.925 J-1.6021
G1 F5.0 Z-6.4
G2 F225.0 X55.085 Y172.3979 I-1.85 J0.0
G2 Y175.6021 I0.925 J1.6021
G2 X57.86 Y174.0 I0.925 J-1.6021
G1 F5.0 Z-6.8
G2 F225.0 X55.085 Y172.3979 I-1.85 J0.0
G2 Y175.6021 I0.925 J1.6021
G2 X57.86 Y174.0 I0.925 J-1.6021
G1 F5.0 Z-7.0
G2 F225.0 X55.085 Y172.3979 I-1.85 J0.0
G2 Y175.6021 I0.925 J1.6021
G2 X57.86 Y174.0 I0.925 J-1.6021
G0 Z2.0
G0 X56.1239 Y145.8465
G0 Z1.0
G1 F5.0 Z-0.4
G2 F225.0 X57.86 Y144.0 I-0.1139 J-1.8465
G2 X55.085 Y142.3979 I-1.85 J0.0
G2 Y145.6021 I0.925 J1.6021
G2 X56.1239 Y145.8465 I0.925 J-1.6021
G1 F5.0 Z-0.8
G2 F225.0 X57.86 Y144.0 I-0.1139 J-1.8465
G2 X55.085 Y142.3979 I-1.85 J0.0
G2 Y145.6021 I0.925 J1.6021
G2 X56.1239 Y145.8465 I0.925 J-1.6021
G1 F5.0 Z-1.2
G2 F225.0 X57.86 Y144.0 I-0.1139 J-1.8465
G2 X55.085 Y142.3979 I-1.85 J0.0
G2 Y145.6021 I0.925 J1.6021
G2 X56.1239 Y145.8465 I0.925 J-1.6021
G1 F5.0 Z-1.6
G2 F225.0 X57.86 Y144.0 I-0.1139 J-1.8465
G2 X55.085 Y142.3979 I-1.85 J0.0
G2 Y145.6021 I0.925 J1.6021
G2 X56.1239 Y145.8465 I0.925 J-1.6021
G1 F5.0 Z-2.0
G2 F225.0 X57.86 Y144.0 I-0.1139 J-1.8465
G2 X55.085 Y142.3979 I-1.85 J0.0
G2 Y145.6021 I0.925 J1.6021
G2 X56.1239 Y145.8465 I0.925 J-1.6021
G1 F5.0 Z-2.4
G2 F225.0 X57.86 Y144.0 I-0.1139 J-1.8465
G2 X55.085 Y142.3979 I-1.85 J0.0
G2 Y145.6021 I0.925 J1.6021
G2 X56.1239 Y145.8465 I0.925 J-1.6021
G1 F5.0 Z-2.8
G2 F225.0 X57.86 Y144.0 I-0.1139 J-1.8465
G2 X55.085 Y142.3979 I-1.85 J0.0
G2 Y145.6021 I0.925 J1.6021
G2 X56.1239 Y145.8465 I0.925 J-1.6021
G1 F5.0 Z-3.2
G2 F225.0 X57.86 Y144.0 I-0.1139 J-1.8465
G2 X55.085 Y142.3979 I-1.85 J0.0
G2 Y145.6021 I0.925 J1.6021
G2 X56.1239 Y145.8465 I0.925 J-1.6021
G1 F5.0 Z-3.6
G2 F225.0 X57.86 Y144.0 I-0.1139 J-1.8465
G2 X55.085 Y142.3979 I-1.85 J0.0
G2 Y145.6021 I0.925 J1.6021
G2 X56.1239 Y145.8465 I0.925 J-1.6021
G1 F5.0 Z-4.0
G2 F225.0 X57.86 Y144.0 I-0.1139 J-1.8465
G2 X55.085 Y142.3979 I-1.85 J0.0
G2 Y145.6021 I0.925 J1.6021
G2 X56.1239 Y145.8465 I0.925 J-1.6021
G1 F5.0 Z-4.4
G2 F225.0 X57.86 Y144.0 I-0.1139 J-1.8465
G2 X55.085 Y142.3979 I-1.85 J0.0
G2 Y145.6021 I0.925 J1.6021
G2 X56.1239 Y145.8465 I0.925 J-1.6021
G1 F5.0 Z-4.8
G2 F225.0 X57.86 Y144.0 I-0.1139 J-1.8465
G2 X55.085 Y142.3979 I-1.85 J0.0
G2 Y145.6021 I0.925 J1.6021
G2 X56.1239 Y145.8465 I0.925 J-1.6021
G1 F5.0 Z-5.2
G2 F225.0 X57.86 Y144.0 I-0.1139 J-1.8465
G2 X55.085 Y142.3979 I-1.85 J0.0
G2 Y145.6021 I0.925 J1.6021
G2 X56.1239 Y145.8465 I0.925 J-1.6021
G1 F5.0 Z-5.6
G2 F225.0 X57.86 Y144.0 I-0.1139 J-1.8465
G2 X55.085 Y142.3979 I-1.85 J0.0
G2 Y145.6021 I0.925 J1.6021
G2 X56.1239 Y145.8465 I0.925 J-1.6021
G1 F5.0 Z-6.0
G2 F225.0 X57.86 Y144.0 I-0.1139 J-1.8465
G2 X55.085 Y142.3979 I-1.85 J0.0
G2 Y145.6021 I0.925 J1.6021
G2 X56.1239 Y145.8465 I0.925 J-1.6021
G1 F5.0 Z-6.4
G2 F225.0 X57.86 Y144.0 I-0.1139 J-1.8465
G2 X55.085 Y142.3979 I-1.85 J0.0
G2 Y145.6021 I0.925 J1.6021
G2 X56.1239 Y145.8465 I0.925 J-1.6021
G1 F5.0 Z-6.8
G2 F225.0 X57.86 Y144.0 I-0.1139 J-1.8465
G2 X55.085 Y142.3979 I-1.85 J0.0
G2 Y145.6021 I0.925 J1.6021
G2 X56.1239 Y145.8465 I0.925 J-1.6021
G1 F5.0 Z-7.0
G2 F225.0 X57.86 Y144.0 I-0.1139 J-1.8465
G2 X55.085 Y142.3979 I-1.85 J0.0
G2 Y145.6021 I0.925 J1.6021
G2 X56.1239 Y145.8465 I0.925 J-1.6021
G0 Z2.0
G0 X28.2584 Y144.0483
G0 Z1.0
G1 F5.0 Z-0.4
G2 F225.0 X28.26 Y144.0 I-0.7484 J-0.0483
G2 X27.135 Y143.3505 I-0.75 J0.0
G2 Y144.6495 I0.375 J0.6495
G2 X28.2584 Y144.0483 I0.375 J-0.6495
G1 F5.0 Z-0.8
G2 F225.0 X28.26 Y144.0 I-0.7484 J-0.0483
G2 X27.135 Y143.3505 I-0.75 J0.0
G2 Y144.6495 I0.375 J0.6495
G2 X28.2584 Y144.0483 I0.375 J-0.6495
G1 F5.0 Z-1.2
G2 F225.0 X28.26 Y144.0 I-0.7484 J-0.0483
G2 X27.135 Y143.3505 I-0.75 J0.0
G2 Y144.6495 I0.375 J0.6495
G2 X28.2584 Y144.0483 I0.375 J-0.6495
G1 F5.0 Z-1.6
G2 F225.0 X28.26 Y144.0 I-0.7484 J-0.0483
G2 X27.135 Y143.3505 I-0.75 J0.0
G2 Y144.6495 I0.375 J0.6495
G2 X28.2584 Y144.0483 I0.375 J-0.6495
G1 F5.0 Z-2.0
G2 F225.0 X28.26 Y144.0 I-0.7484 J-0.0483
G2 X27.135 Y143.3505 I-0.75 J0.0
G2 Y144.6495 I0.375 J0.6495
G2 X28.2584 Y144.0483 I0.375 J-0.6495
G1 F5.0 Z-2.4
G2 F225.0 X28.26 Y144.0 I-0.7484 J-0.0483
G2 X27.135 Y143.3505 I-0.75 J0.0
G2 Y144.6495 I0.375 J0.6495
G2 X28.2584 Y144.0483 I0.375 J-0.6495
G1 F5.0 Z-2.8
G2 F225.0 X28.26 Y144.0 I-0.7484 J-0.0483
G2 X27.135 Y143.3505 I-0.75 J0.0
G2 Y144.6495 I0.375 J0.6495
G2 X28.2584 Y144.0483 I0.375 J-0.6495
G1 F5.0 Z-3.2
G2 F225.0 X28.26 Y144.0 I-0.7484 J-0.0483
G2 X27.135 Y143.3505 I-0.75 J0.0
G2 Y144.6495 I0.375 J0.6495
G2 X28.2584 Y144.0483 I0.375 J-0.6495
G1 F5.0 Z-3.6
G2 F225.0 X28.26 Y144.0 I-0.7484 J-0.0483
G2 X27.135 Y143.3505 I-0.75 J0.0
G2 Y144.6495 I0.375 J0.6495
G2 X28.2584 Y144.0483 I0.375 J-0.6495
G1 F5.0 Z-4.0
G2 F225.0 X28.26 Y144.0 I-0.7484 J-0.0483
G2 X27.135 Y143.3505 I-0.75 J0.0
G2 Y144.6495 I0.375 J0.6495
G2 X28.2584 Y144.0483 I0.375 J-0.6495
G1 F5.0 Z-4.4
G2 F225.0 X28.26 Y144.0 I-0.7484 J-0.0483
G2 X27.135 Y143.3505 I-0.75 J0.0
G2 Y144.6495 I0.375 J0.6495
G2 X28.2584 Y144.0483 I0.375 J-0.6495
G1 F5.0 Z-4.8
G2 F225.0 X28.26 Y144.0 I-0.7484 J-0.0483
G2 X27.135 Y143.3505 I-0.75 J0.0
G2 Y144.6495 I0.375 J0.6495
G2 X28.2584 Y144.0483 I0.375 J-0.6495
G1 F5.0 Z-5.2
G2 F225.0 X28.26 Y144.0 I-0.7484 J-0.0483
G2 X27.135 Y143.3505 I-0.75 J0.0
G2 Y144.6495 I0.375 J0.6495
G2 X28.2584 Y144.0483 I0.375 J-0.6495
G1 F5.0 Z-5.6
G2 F225.0 X28.26 Y144.0 I-0.7484 J-0.0483
G2 X27.135 Y143.3505 I-0.75 J0.0
G2 Y144.6495 I0.375 J0.6495
G2 X28.2584 Y144.0483 I0.375 J-0.6495
G1 F5.0 Z-6.0
G2 F225.0 X28.26 Y144.0 I-0.7484 J-0.0483
G2 X27.135 Y143.3505 I-0.75 J0.0
G2 Y144.6495 I0.375 J0.6495
G2 X28.2584 Y144.0483 I0.375 J-0.6495
G1 F5.0 Z-6.4
G2 F225.0 X28.26 Y144.0 I-0.7484 J-0.0483
G2 X27.135 Y143.3505 I-0.75 J0.0
G2 Y144.6495 I0.375 J0.6495
G2 X28.2584 Y144.0483 I0.375 J-0.6495
G1 F5.0 Z-6.8
G2 F225.0 X28.26 Y144.0 I-0.7484 J-0.0483
G2 X27.135 Y143.3505 I-0.75 J0.0
G2 Y144.6495 I0.375 J0.6495
G2 X28.2584 Y144.0483 I0.375 J-0.6495
G1 F5.0 Z-7.0
G2 F225.0 X28.26 Y144.0 I-0.7484 J-0.0483
G2 X27.135 Y143.3505 I-0.75 J0.0
G2 Y144.6495 I0.375 J0.6495
G2 X28.2584 Y144.0483 I0.375 J-0.6495
G0 Z2.0
G0 X27.5287 Y173.2502
G0 Z1.0
G1 F5.0 Z-0.4
G2 F225.0 X27.135 Y173.3505 I-0.0187 J0.7498
G2 Y174.6495 I0.375 J0.6495
G2 X28.26 Y174.0 I0.375 J-0.6495
G2 X27.5287 Y173.2502 I-0.75 J0.0
G1 F5.0 Z-0.8
G2 F225.0 X27.135 Y173.3505 I-0.0187 J0.7498
G2 Y174.6495 I0.375 J0.6495
G2 X28.26 Y174.0 I0.375 J-0.6495
G2 X27.5287 Y173.2502 I-0.75 J0.0
G1 F5.0 Z-1.2
G2 F225.0 X27.135 Y173.3505 I-0.0187 J0.7498
G2 Y174.6495 I0.375 J0.6495
G2 X28.26 Y174.0 I0.375 J-0.6495
G2 X27.5287 Y173.2502 I-0.75 J0.0
G1 F5.0 Z-1.6
G2 F225.0 X27.135 Y173.3505 I-0.0187 J0.7498
G2 Y174.6495 I0.375 J0.6495
G2 X28.26 Y174.0 I0.375 J-0.6495
G2 X27.5287 Y173.2502 I-0.75 J0.0
G1 F5.0 Z-2.0
G2 F225.0 X27.135 Y173.3505 I-0.0187 J0.7498
G2 Y174.6495 I0.375 J0.6495
G2 X28.26 Y174.0 I0.375 J-0.6495
G2 X27.5287 Y173.2502 I-0.75 J0.0
G1 F5.0 Z-2.4
G2 F225.0 X27.135 Y173.3505 I-0.0187 J0.7498
G2 Y174.6495 I0.375 J0.6495
G2 X28.26 Y174.0 I0.375 J-0.6495
G2 X27.5287 Y173.2502 I-0.75 J0.0
G1 F5.0 Z-2.8
G2 F225.0 X27.135 Y173.3505 I-0.0187 J0.7498
G2 Y174.6495 I0.375 J0.6495
G2 X28.26 Y174.0 I0.375 J-0.6495
G2 X27.5287 Y173.2502 I-0.75 J0.0
G1 F5.0 Z-3.2
G2 F225.0 X27.135 Y173.3505 I-0.0187 J0.7498
G2 Y174.6495 I0.375 J0.6495
G2 X28.26 Y174.0 I0.375 J-0.6495
G2 X27.5287 Y173.2502 I-0.75 J0.0
G1 F5.0 Z-3.6
G2 F225.0 X27.135 Y173.3505 I-0.0187 J0.7498
G2 Y174.6495 I0.375 J0.6495
G2 X28.26 Y174.0 I0.375 J-0.6495
G2 X27.5287 Y173.2502 I-0.75 J0.0
G1 F5.0 Z-4.0
G2 F225.0 X27.135 Y173.3505 I-0.0187 J0.7498
G2 Y174.6495 I0.375 J0.6495
G2 X28.26 Y174.0 I0.375 J-0.6495
G2 X27.5287 Y173.2502 I-0.75 J0.0
G1 F5.0 Z-4.4
G2 F225.0 X27.135 Y173.3505 I-0.0187 J0.7498
G2 Y174.6495 I0.375 J0.6495
G2 X28.26 Y174.0 I0.375 J-0.6495
G2 X27.5287 Y173.2502 I-0.75 J0.0
G1 F5.0 Z-4.8
G2 F225.0 X27.135 Y173.3505 I-0.0187 J0.7498
G2 Y174.6495 I0.375 J0.6495
G2 X28.26 Y174.0 I0.375 J-0.6495
G2 X27.5287 Y173.2502 I-0.75 J0.0
G1 F5.0 Z-5.2
G2 F225.0 X27.135 Y173.3505 I-0.0187 J0.7498
G2 Y174.6495 I0.375 J0.6495
G2 X28.26 Y174.0 I0.375 J-0.6495
G2 X27.5287 Y173.2502 I-0.75 J0.0
G1 F5.0 Z-5.6
G2 F225.0 X27.135 Y173.3505 I-0.0187 J0.7498
G2 Y174.6495 I0.375 J0.6495
G2 X28.26 Y174.0 I0.375 J-0.6495
G2 X27.5287 Y173.2502 I-0.75 J0.0
G1 F5.0 Z-6.0
G2 F225.0 X27.135 Y173.3505 I-0.0187 J0.7498
G2 Y174.6495 I0.375 J0.6495
G2 X28.26 Y174.0 I0.375 J-0.6495
G2 X27.5287 Y173.2502 I-0.75 J0.0
G1 F5.0 Z-6.4
G2 F225.0 X27.135 Y173.3505 I-0.0187 J0.7498
G2 Y174.6495 I0.375 J0.6495
G2 X28.26 Y174.0 I0.375 J-0.6495
G2 X27.5287 Y173.2502 I-0.75 J0.0
G1 F5.0 Z-6.8
G2 F225.0 X27.135 Y173.3505 I-0.0187 J0.7498
G2 Y174.6495 I0.375 J0.6495
G2 X28.26 Y174.0 I0.375 J-0.6495
G2 X27.5287 Y173.2502 I-0.75 J0.0
G1 F5.0 Z-7.0
G2 F225.0 X27.135 Y173.3505 I-0.0187 J0.7498
G2 Y174.6495 I0.375 J0.6495
G2 X28.26 Y174.0 I0.375 J-0.6495
G2 X27.5287 Y173.2502 I-0.75 J0.0
G0 Z2.0
G0 X89.6501 Y173.9783
G0 Z1.0
G1 F5.0 Z-0.4
G2 F225.0 X90.575 Y175.6021 I1.8499 J0.0217
G2 X93.35 Y174.0 I0.925 J-1.6021
G2 X90.575 Y172.3979 I-1.85 J0.0
G2 X89.6501 Y173.9783 I0.925 J1.6021
G1 F5.0 Z-0.8
G2 F225.0 X90.575 Y175.6021 I1.8499 J0.0217
G2 X93.35 Y174.0 I0.925 J-1.6021
G2 X90.575 Y172.3979 I-1.85 J0.0
G2 X89.6501 Y173.9783 I0.925 J1.6021
G1 F5.0 Z-1.2
G2 F225.0 X90.575 Y175.6021 I1.8499 J0.0217
G2 X93.35 Y174.0 I0.925 J-1.6021
G2 X90.575 Y172.3979 I-1.85 J0.0
G2 X89.6501 Y173.9783 I0.925 J1.6021
G1 F5.0 Z-1.6
G2 F225.0 X90.575 Y175.6021 I1.8499 J0.0217
G2 X93.35 Y174.0 I0.925 J-1.6021
G2 X90.575 Y172.3979 I-1.85 J0.0
G2 X89.6501 Y173.9783 I0.925 J1.6021
G1 F5.0 Z-2.0
G2 F225.0 X90.575 Y175.6021 I1.8499 J0.0217
G2 X93.35 Y174.0 I0.925 J-1.6021
G2 X90.575 Y172.3979 I-1.85 J0.0
G2 X89.6501 Y173.9783 I0.925 J1.6021
G1 F5.0 Z-2.4
G2 F225.0 X90.575 Y175.6021 I1.8499 J0.0217
G2 X93.35 Y174.0 I0.925 J-1.6021
G2 X90.575 Y172.3979 I-1.85 J0.0
G2 X89.6501 Y173.9783 I0.925 J1.6021
G1 F5.0 Z-2.8
G2 F225.0 X90.575 Y175.6021 I1.8499 J0.0217
G2 X93.35 Y174.0 I0.925 J-1.6021
G2 X90.575 Y172.3979 I-1.85 J0.0
G2 X89.6501 Y173.9783 I0.925 J1.6021
G1 F5.0 Z-3.2
G2 F225.0 X90.575 Y175.6021 I1.8499 J0.0217
G2 X93.35 Y174.0 I0.925 J-1.6021
G2 X90.575 Y172.3979 I-1.85 J0.0
G2 X89.6501 Y173.9783 I0.925 J1.6021
G1 F5.0 Z-3.6
G2 F225.0 X90.575 Y175.6021 I1.8499 J0.0217
G2 X93.35 Y174.0 I0.925 J-1.6021
G2 X90.575 Y172.3979 I-1.85 J0.0
G2 X89.6501 Y173.9783 I0.925 J1.6021
G1 F5.0 Z-4.0
G2 F225.0 X90.575 Y175.6021 I1.8499 J0.0217
G2 X93.35 Y174.0 I0.925 J-1.6021
G2 X90.575 Y172.3979 I-1.85 J0.0
G2 X89.6501 Y173.9783 I0.925 J1.6021
G1 F5.0 Z-4.4
G2 F225.0 X90.575 Y175.6021 I1.8499 J0.0217
G2 X93.35 Y174.0 I0.925 J-1.6021
G2 X90.575 Y172.3979 I-1.85 J0.0
G2 X89.6501 Y173.9783 I0.925 J1.6021
G1 F5.0 Z-4.8
G2 F225.0 X90.575 Y175.6021 I1.8499 J0.0217
G2 X93.35 Y174.0 I0.925 J-1.6021
G2 X90.575 Y172.3979 I-1.85 J0.0
G2 X89.6501 Y173.9783 I0.925 J1.6021
G1 F5.0 Z-5.2
G2 F225.0 X90.575 Y175.6021 I1.8499 J0.0217
G2 X93.35 Y174.0 I0.925 J-1.6021
G2 X90.575 Y172.3979 I-1.85 J0.0
G2 X89.6501 Y173.9783 I0.925 J1.6021
G1 F5.0 Z-5.6
G2 F225.0 X90.575 Y175.6021 I1.8499 J0.0217
G2 X93.35 Y174.0 I0.925 J-1.6021
G2 X90.575 Y172.3979 I-1.85 J0.0
G2 X89.6501 Y173.9783 I0.925 J1.6021
G1 F5.0 Z-6.0
G2 F225.0 X90.575 Y175.6021 I1.8499 J0.0217
G2 X93.35 Y174.0 I0.925 J-1.6021
G2 X90.575 Y172.3979 I-1.85 J0.0
G2 X89.6501 Y173.9783 I0.925 J1.6021
G1 F5.0 Z-6.4
G2 F225.0 X90.575 Y175.6021 I1.8499 J0.0217
G2 X93.35 Y174.0 I0.925 J-1.6021
G2 X90.575 Y172.3979 I-1.85 J0.0
G2 X89.6501 Y173.9783 I0.925 J1.6021
G1 F5.0 Z-6.8
G2 F225.0 X90.575 Y175.6021 I1.8499 J0.0217
G2 X93.35 Y174.0 I0.925 J-1.6021
G2 X90.575 Y172.3979 I-1.85 J0.0
G2 X89.6501 Y173.9783 I0.925 J1.6021
G1 F5.0 Z-7.0
G2 F225.0 X90.575 Y175.6021 I1.8499 J0.0217
G2 X93.35 Y174.0 I0.925 J-1.6021
G2 X90.575 Y172.3979 I-1.85 J0.0
G2 X89.6501 Y173.9783 I0.925 J1.6021
G0 Z2.0
G0 X91.455 Y99.8495
G0 Z1.0
G1 F5.0 Z-0.4
G2 F225.0 X93.35 Y98.0 I0.045 J-1.8495
G2 X90.575 Y96.3979 I-1.85 J0.0
G2 Y99.6021 I0.925 J1.6021
G2 X91.455 Y99.8495 I0.925 J-1.6021
G1 F5.0 Z-0.8
G2 F225.0 X93.35 Y98.0 I0.045 J-1.8495
G2 X90.575 Y96.3979 I-1.85 J0.0
G2 Y99.6021 I0.925 J1.6021
G2 X91.455 Y99.8495 I0.925 J-1.6021
G1 F5.0 Z-1.2
G2 F225.0 X93.35 Y98.0 I0.045 J-1.8495
G2 X90.575 Y96.3979 I-1.85 J0.0
G2 Y99.6021 I0.925 J1.6021
G2 X91.455 Y99.8495 I0.925 J-1.6021
G1 F5.0 Z-1.6
G2 F225.0 X93.35 Y98.0 I0.045 J-1.8495
G2 X90.575 Y96.3979 I-1.85 J0.0
G2 Y99.6021 I0.925 J1.6021
G2 X91.455 Y99.8495 I0.925 J-1.6021
G1 F5.0 Z-2.0
G2 F225.0 X93.35 Y98.0 I0.045 J-1.8495
G2 X90.575 Y96.3979 I-1.85 J0.0
G2 Y99.6021 I0.925 J1.6021
G2 X91.455 Y99.8495 I0.925 J-1.6021
G1 F5.0 Z-2.4
G2 F225.0 X93.35 Y98.0 I0.045 J-1.8495
G2 X90.575 Y96.3979 I-1.85 J0.0
G2 Y99.6021 I0.925 J1.6021
G2 X91.455 Y99.8495 I0.925 J-1.6021
G1 F5.0 Z-2.8
G2 F225.0 X93.35 Y98.0 I0.045 J-1.8495
G2 X90.575 Y96.3979 I-1.85 J0.0
G2 Y99.6021 I0.925 J1.6021
G2 X91.455 Y99.8495 I0.925 J-1.6021
G1 F5.0 Z-3.2
G2 F225.0 X93.35 Y98.0 I0.045 J-1.8495
G2 X90.575 Y96.3979 I-1.85 J0.0
G2 Y99.6021 I0.925 J1.6021
G2 X91.455 Y99.8495 I0.925 J-1.6021
G1 F5.0 Z-3.6
G2 F225.0 X93.35 Y98.0 I0.045 J-1.8495
G2 X90.575 Y96.3979 I-1.85 J0.0
G2 Y99.6021 I0.925 J1.6021
G2 X91.455 Y99.8495 I0.925 J-1.6021
G1 F5.0 Z-4.0
G2 F225.0 X93.35 Y98.0 I0.045 J-1.8495
G2 X90.575 Y96.3979 I-1.85 J0.0
G2 Y99.6021 I0.925 J1.6021
G2 X91.455 Y99.8495 I0.925 J-1.6021
G1 F5.0 Z-4.4
G2 F225.0 X93.35 Y98.0 I0.045 J-1.8495
G2 X90.575 Y96.3979 I-1.85 J0.0
G2 Y99.6021 I0.925 J1.6021
G2 X91.455 Y99.8495 I0.925 J-1.6021
G1 F5.0 Z-4.8
G2 F225.0 X93.35 Y98.0 I0.045 J-1.8495
G2 X90.575 Y96.3979 I-1.85 J0.0
G2 Y99.6021 I0.925 J1.6021
G2 X91.455 Y99.8495 I0.925 J-1.6021
G1 F5.0 Z-5.2
G2 F225.0 X93.35 Y98.0 I0.045 J-1.8495
G2 X90.575 Y96.3979 I-1.85 J0.0
G2 Y99.6021 I0.925 J1.6021
G2 X91.455 Y99.8495 I0.925 J-1.6021
G1 F5.0 Z-5.6
G2 F225.0 X93.35 Y98.0 I0.045 J-1.8495
G2 X90.575 Y96.3979 I-1.85 J0.0
G2 Y99.6021 I0.925 J1.6021
G2 X91.455 Y99.8495 I0.925 J-1.6021
G1 F5.0 Z-6.0
G2 F225.0 X93.35 Y98.0 I0.045 J-1.8495
G2 X90.575 Y96.3979 I-1.85 J0.0
G2 Y99.6021 I0.925 J1.6021
G2 X91.455 Y99.8495 I0.925 J-1.6021
G1 F5.0 Z-6.4
G2 F225.0 X93.35 Y98.0 I0.045 J-1.8495
G2 X90.575 Y96.3979 I-1.85 J0.0
G2 Y99.6021 I0.925 J1.6021
G2 X91.455 Y99.8495 I0.925 J-1.6021
G1 F5.0 Z-6.8
G2 F225.0 X93.35 Y98.0 I0.045 J-1.8495
G2 X90.575 Y96.3979 I-1.85 J0.0
G2 Y99.6021 I0.925 J1.6021
G2 X91.455 Y99.8495 I0.925 J-1.6021
G1 F5.0 Z-7.0
G2 F225.0 X93.35 Y98.0 I0.045 J-1.8495
G2 X90.575 Y96.3979 I-1.85 J0.0
G2 Y99.6021 I0.925 J1.6021
G2 X91.455 Y99.8495 I0.925 J-1.6021
G0 Z2.0
G0 X52.4504 Y83.293
G0 Z1.0
G1 F5.0 Z-0.4
G2 F225.0 X52.51 Y83.0 I-0.6904 J-0.293
G2 X51.385 Y82.3505 I-0.75 J0.0
G2 Y83.6495 I0.375 J0.6495
G2 X52.4504 Y83.293 I0.375 J-0.6495
G1 F5.0 Z-0.8
G2 F225.0 X52.51 Y83.0 I-0.6904 J-0.293
G2 X51.385 Y82.3505 I-0.75 J0.0
G2 Y83.6495 I0.375 J0.6495
G2 X52.4504 Y83.293 I0.375 J-0.6495
G1 F5.0 Z-1.2
G2 F225.0 X52.51 Y83.0 I-0.6904 J-0.293
G2 X51.385 Y82.3505 I-0.75 J0.0
G2 Y83.6495 I0.375 J0.6495
G2 X52.4504 Y83.293 I0.375 J-0.6495
G1 F5.0 Z-1.6
G2 F225.0 X52.51 Y83.0 I-0.6904 J-0.293
G2 X51.385 Y82.3505 I-0.75 J0.0
G2 Y83.6495 I0.375 J0.6495
G2 X52.4504 Y83.293 I0.375 J-0.6495
G1 F5.0 Z-2.0
G2 F225.0 X52.51 Y83.0 I-0.6904 J-0.293
G2 X51.385 Y82.3505 I-0.75 J0.0
G2 Y83.6495 I0.375 J0.6495
G2 X52.4504 Y83.293 I0.375 J-0.6495
G1 F5.0 Z-2.4
G2 F225.0 X52.51 Y83.0 I-0.6904 J-0.293
G2 X51.385 Y82.3505 I-0.75 J0.0
G2 Y83.6495 I0.375 J0.6495
G2 X52.4504 Y83.293 I0.375 J-0.6495
G1 F5.0 Z-2.8
G2 F225.0 X52.51 Y83.0 I-0.6904 J-0.293
G2 X51.385 Y82.3505 I-0.75 J0.0
G2 Y83.6495 I0.375 J0.6495
G2 X52.4504 Y83.293 I0.375 J-0.6495
G1 F5.0 Z-3.2
G2 F225.0 X52.51 Y83.0 I-0.6904 J-0.293
G2 X51.385 Y82.3505 I-0.75 J0.0
G2 Y83.6495 I0.375 J0.6495
G2 X52.4504 Y83.293 I0.375 J-0.6495
G1 F5.0 Z-3.6
G2 F225.0 X52.51 Y83.0 I-0.6904 J-0.293
G2 X51.385 Y82.3505 I-0.75 J0.0
G2 Y83.6495 I0.375 J0.6495
G2 X52.4504 Y83.293 I0.375 J-0.6495
G1 F5.0 Z-4.0
G2 F225.0 X52.51 Y83.0 I-0.6904 J-0.293
G2 X51.385 Y82.3505 I-0.75 J0.0
G2 Y83.6495 I0.375 J0.6495
G2 X52.4504 Y83.293 I0.375 J-0.6495
G1 F5.0 Z-4.4
G2 F225.0 X52.51 Y83.0 I-0.6904 J-0.293
G2 X51.385 Y82.3505 I-0.75 J0.0
G2 Y83.6495 I0.375 J0.6495
G2 X52.4504 Y83.293 I0.375 J-0.6495
G1 F5.0 Z-4.8
G2 F225.0 X52.51 Y83.0 I-0.6904 J-0.293
G2 X51.385 Y82.3505 I-0.75 J0.0
G2 Y83.6495 I0.375 J0.6495
G2 X52.4504 Y83.293 I0.375 J-0.6495
G1 F5.0 Z-5.2
G2 F225.0 X52.51 Y83.0 I-0.6904 J-0.293
G2 X51.385 Y82.3505 I-0.75 J0.0
G2 Y83.6495 I0.375 J0.6495
G2 X52.4504 Y83.293 I0.375 J-0.6495
G1 F5.0 Z-5.6
G2 F225.0 X52.51 Y83.0 I-0.6904 J-0.293
G2 X51.385 Y82.3505 I-0.75 J0.0
G2 Y83.6495 I0.375 J0.6495
G2 X52.4504 Y83.293 I0.375 J-0.6495
G1 F5.0 Z-6.0
G2 F225.0 X52.51 Y83.0 I-0.6904 J-0.293
G2 X51.385 Y82.3505 I-0.75 J0.0
G2 Y83.6495 I0.375 J0.6495
G2 X52.4504 Y83.293 I0.375 J-0.6495
G1 F5.0 Z-6.4
G2 F225.0 X52.51 Y83.0 I-0.6904 J-0.293
G2 X51.385 Y82.3505 I-0.75 J0.0
G2 Y83.6495 I0.375 J0.6495
G2 X52.4504 Y83.293 I0.375 J-0.6495
G1 F5.0 Z-6.8
G2 F225.0 X52.51 Y83.0 I-0.6904 J-0.293
G2 X51.385 Y82.3505 I-0.75 J0.0
G2 Y83.6495 I0.375 J0.6495
G2 X52.4504 Y83.293 I0.375 J-0.6495
G1 F5.0 Z-7.0
G2 F225.0 X52.51 Y83.0 I-0.6904 J-0.293
G2 X51.385 Y82.3505 I-0.75 J0.0
G2 Y83.6495 I0.375 J0.6495
G2 X52.4504 Y83.293 I0.375 J-0.6495
G0 Z2.0
G0 X32.5099 Y83.0106
G0 Z1.0
G1 F5.0 Z-0.4
G2 F225.0 X32.51 Y83.0 I-0.7499 J-0.0106
G2 X31.385 Y82.3505 I-0.75 J0.0
G2 Y83.6495 I0.375 J0.6495
G2 X32.5099 Y83.0106 I0.375 J-0.6495
G1 F5.0 Z-0.8
G2 F225.0 X32.51 Y83.0 I-0.7499 J-0.0106
G2 X31.385 Y82.3505 I-0.75 J0.0
G2 Y83.6495 I0.375 J0.6495
G2 X32.5099 Y83.0106 I0.375 J-0.6495
G1 F5.0 Z-1.2
G2 F225.0 X32.51 Y83.0 I-0.7499 J-0.0106
G2 X31.385 Y82.3505 I-0.75 J0.0
G2 Y83.6495 I0.375 J0.6495
G2 X32.5099 Y83.0106 I0.375 J-0.6495
G1 F5.0 Z-1.6
G2 F225.0 X32.51 Y83.0 I-0.7499 J-0.0106
G2 X31.385 Y82.3505 I-0.75 J0.0
G2 Y83.6495 I0.375 J0.6495
G2 X32.5099 Y83.0106 I0.375 J-0.6495
G1 F5.0 Z-2.0
G2 F225.0 X32.51 Y83.0 I-0.7499 J-0.0106
G2 X31.385 Y82.3505 I-0.75 J0.0
G2 Y83.6495 I0.375 J0.6495
G2 X32.5099 Y83.0106 I0.375 J-0.6495
G1 F5.0 Z-2.4
G2 F225.0 X32.51 Y83.0 I-0.7499 J-0.0106
G2 X31.385 Y82.3505 I-0.75 J0.0
G2 Y83.6495 I0.375 J0.6495
G2 X32.5099 Y83.0106 I0.375 J-0.6495
G1 F5.0 Z-2.8
G2 F225.0 X32.51 Y83.0 I-0.7499 J-0.0106
G2 X31.385 Y82.3505 I-0.75 J0.0
G2 Y83.6495 I0.375 J0.6495
G2 X32.5099 Y83.0106 I0.375 J-0.6495
G1 F5.0 Z-3.2
G2 F225.0 X32.51 Y83.0 I-0.7499 J-0.0106
G2 X31.385 Y82.3505 I-0.75 J0.0
G2 Y83.6495 I0.375 J0.6495
G2 X32.5099 Y83.0106 I0.375 J-0.6495
G1 F5.0 Z-3.6
G2 F225.0 X32.51 Y83.0 I-0.7499 J-0.0106
G2 X31.385 Y82.3505 I-0.75 J0.0
G2 Y83.6495 I0.375 J0.6495
G2 X32.5099 Y83.0106 I0.375 J-0.6495
G1 F5.0 Z-4.0
G2 F225.0 X32.51 Y83.0 I-0.7499 J-0.0106
G2 X31.385 Y82.3505 I-0.75 J0.0
G2 Y83.6495 I0.375 J0.6495
G2 X32.5099 Y83.0106 I0.375 J-0.6495
G1 F5.0 Z-4.4
G2 F225.0 X32.51 Y83.0 I-0.7499 J-0.0106
G2 X31.385 Y82.3505 I-0.75 J0.0
G2 Y83.6495 I0.375 J0.6495
G2 X32.5099 Y83.0106 I0.375 J-0.6495
G1 F5.0 Z-4.8
G2 F225.0 X32.51 Y83.0 I-0.7499 J-0.0106
G2 X31.385 Y82.3505 I-0.75 J0.0
G2 Y83.6495 I0.375 J0.6495
G2 X32.5099 Y83.0106 I0.375 J-0.6495
G1 F5.0 Z-5.2
G2 F225.0 X32.51 Y83.0 I-0.7499 J-0.0106
G2 X31.385 Y82.3505 I-0.75 J0.0
G2 Y83.6495 I0.375 J0.6495
G2 X32.5099 Y83.0106 I0.375 J-0.6495
G1 F5.0 Z-5.6
G2 F225.0 X32.51 Y83.0 I-0.7499 J-0.0106
G2 X31.385 Y82.3505 I-0.75 J0.0
G2 Y83.6495 I0.375 J0.6495
G2 X32.5099 Y83.0106 I0.375 J-0.6495
G1 F5.0 Z-6.0
G2 F225.0 X32.51 Y83.0 I-0.7499 J-0.0106
G2 X31.385 Y82.3505 I-0.75 J0.0
G2 Y83.6495 I0.375 J0.6495
G2 X32.5099 Y83.0106 I0.375 J-0.6495
G1 F5.0 Z-6.4
G2 F225.0 X32.51 Y83.0 I-0.7499 J-0.0106
G2 X31.385 Y82.3505 I-0.75 J0.0
G2 Y83.6495 I0.375 J0.6495
G2 X32.5099 Y83.0106 I0.375 J-0.6495
G1 F5.0 Z-6.8
G2 F225.0 X32.51 Y83.0 I-0.7499 J-0.0106
G2 X31.385 Y82.3505 I-0.75 J0.0
G2 Y83.6495 I0.375 J0.6495
G2 X32.5099 Y83.0106 I0.375 J-0.6495
G1 F5.0 Z-7.0
G2 F225.0 X32.51 Y83.0 I-0.7499 J-0.0106
G2 X31.385 Y82.3505 I-0.75 J0.0
G2 Y83.6495 I0.375 J0.6495
G2 X32.5099 Y83.0106 I0.375 J-0.6495
G0 Z2.0
G0 X27.6294 Y52.7404
G0 Z1.0
G1 F5.0 Z-0.4
G2 F225.0 X28.26 Y52.0 I-0.1194 J-0.7404
G2 X27.135 Y51.3505 I-0.75 J0.0
G2 Y52.6495 I0.375 J0.6495
G2 X27.6294 Y52.7404 I0.375 J-0.6495
G1 F5.0 Z-0.8
G2 F225.0 X28.26 Y52.0 I-0.1194 J-0.7404
G2 X27.135 Y51.3505 I-0.75 J0.0
G2 Y52.6495 I0.375 J0.6495
G2 X27.6294 Y52.7404 I0.375 J-0.6495
G1 F5.0 Z-1.2
G2 F225.0 X28.26 Y52.0 I-0.1194 J-0.7404
G2 X27.135 Y51.3505 I-0.75 J0.0
G2 Y52.6495 I0.375 J0.6495
G2 X27.6294 Y52.7404 I0.375 J-0.6495
G1 F5.0 Z-1.6
G2 F225.0 X28.26 Y52.0 I-0.1194 J-0.7404
G2 X27.135 Y51.3505 I-0.75 J0.0
G2 Y52.6495 I0.375 J0.6495
G2 X27.6294 Y52.7404 I0.375 J-0.6495
G1 F5.0 Z-2.0
G2 F225.0 X28.26 Y52.0 I-0.1194 J-0.7404
G2 X27.135 Y51.3505 I-0.75 J0.0
G2 Y52.6495 I0.375 J0.6495
G2 X27.6294 Y52.7404 I0.375 J-0.6495
G1 F5.0 Z-2.4
G2 F225.0 X28.26 Y52.0 I-0.1194 J-0.7404
G2 X27.135 Y51.3505 I-0.75 J0.0
G2 Y52.6495 I0.375 J0.6495
G2 X27.6294 Y52.7404 I0.375 J-0.6495
G1 F5.0 Z-2.8
G2 F225.0 X28.26 Y52.0 I-0.1194 J-0.7404
G2 X27.135 Y51.3505 I-0.75 J0.0
G2 Y52.6495 I0.375 J0.6495
G2 X27.6294 Y52.7404 I0.375 J-0.6495
G1 F5.0 Z-3.2
G2 F225.0 X28.26 Y52.0 I-0.1194 J-0.7404
G2 X27.135 Y51.3505 I-0.75 J0.0
G2 Y52.6495 I0.375 J0.6495
G2 X27.6294 Y52.7404 I0.375 J-0.6495
G1 F5.0 Z-3.6
G2 F225.0 X28.26 Y52.0 I-0.1194 J-0.7404
G2 X27.135 Y51.3505 I-0.75 J0.0
G2 Y52.6495 I0.375 J0.6495
G2 X27.6294 Y52.7404 I0.375 J-0.6495
G1 F5.0 Z-4.0
G2 F225.0 X28.26 Y52.0 I-0.1194 J-0.7404
G2 X27.135 Y51.3505 I-0.75 J0.0
G2 Y52.6495 I0.375 J0.6495
G2 X27.6294 Y52.7404 I0.375 J-0.6495
G1 F5.0 Z-4.4
G2 F225.0 X28.26 Y52.0 I-0.1194 J-0.7404
G2 X27.135 Y51.3505 I-0.75 J0.0
G2 Y52.6495 I0.375 J0.6495
G2 X27.6294 Y52.7404 I0.375 J-0.6495
G1 F5.0 Z-4.8
G2 F225.0 X28.26 Y52.0 I-0.1194 J-0.7404
G2 X27.135 Y51.3505 I-0.75 J0.0
G2 Y52.6495 I0.375 J0.6495
G2 X27.6294 Y52.7404 I0.375 J-0.6495
G1 F5.0 Z-5.2
G2 F225.0 X28.26 Y52.0 I-0.1194 J-0.7404
G2 X27.135 Y51.3505 I-0.75 J0.0
G2 Y52.6495 I0.375 J0.6495
G2 X27.6294 Y52.7404 I0.375 J-0.6495
G1 F5.0 Z-5.6
G2 F225.0 X28.26 Y52.0 I-0.1194 J-0.7404
G2 X27.135 Y51.3505 I-0.75 J0.0
G2 Y52.6495 I0.375 J0.6495
G2 X27.6294 Y52.7404 I0.375 J-0.6495
G1 F5.0 Z-6.0
G2 F225.0 X28.26 Y52.0 I-0.1194 J-0.7404
G2 X27.135 Y51.3505 I-0.75 J0.0
G2 Y52.6495 I0.375 J0.6495
G2 X27.6294 Y52.7404 I0.375 J-0.6495
G1 F5.0 Z-6.4
G2 F225.0 X28.26 Y52.0 I-0.1194 J-0.7404
G2 X27.135 Y51.3505 I-0.75 J0.0
G2 Y52.6495 I0.375 J0.6495
G2 X27.6294 Y52.7404 I0.375 J-0.6495
G1 F5.0 Z-6.8
G2 F225.0 X28.26 Y52.0 I-0.1194 J-0.7404
G2 X27.135 Y51.3505 I-0.75 J0.0
G2 Y52.6495 I0.375 J0.6495
G2 X27.6294 Y52.7404 I0.375 J-0.6495
G1 F5.0 Z-7.0
G2 F225.0 X28.26 Y52.0 I-0.1194 J-0.7404
G2 X27.135 Y51.3505 I-0.75 J0.0
G2 Y52.6495 I0.375 J0.6495
G2 X27.6294 Y52.7404 I0.375 J-0.6495
G0 Z2.0
G0 X54.1606 Y52.0482
G0 Z1.0
G1 F5.0 Z-0.4
G2 F225.0 X55.085 Y53.6021 I1.8494 J-0.0482
G2 X57.86 Y52.0 I0.925 J-1.6021
G2 X55.085 Y50.3979 I-1.85 J0.0
G2 X54.1606 Y52.0482 I0.925 J1.6021
G1 F5.0 Z-0.8
G2 F225.0 X55.085 Y53.6021 I1.8494 J-0.0482
G2 X57.86 Y52.0 I0.925 J-1.6021
G2 X55.085 Y50.3979 I-1.85 J0.0
G2 X54.1606 Y52.0482 I0.925 J1.6021
G1 F5.0 Z-1.2
G2 F225.0 X55.085 Y53.6021 I1.8494 J-0.0482
G2 X57.86 Y52.0 I0.925 J-1.6021
G2 X55.085 Y50.3979 I-1.85 J0.0
G2 X54.1606 Y52.0482 I0.925 J1.6021
G1 F5.0 Z-1.6
G2 F225.0 X55.085 Y53.6021 I1.8494 J-0.0482
G2 X57.86 Y52.0 I0.925 J-1.6021
G2 X55.085 Y50.3979 I-1.85 J0.0
G2 X54.1606 Y52.0482 I0.925 J1.6021
G1 F5.0 Z-2.0
G2 F225.0 X55.085 Y53.6021 I1.8494 J-0.0482
G2 X57.86 Y52.0 I0.925 J-1.6021
G2 X55.085 Y50.3979 I-1.85 J0.0
G2 X54.1606 Y52.0482 I0.925 J1.6021
G1 F5.0 Z-2.4
G2 F225.0 X55.085 Y53.6021 I1.8494 J-0.0482
G2 X57.86 Y52.0 I0.925 J-1.6021
G2 X55.085 Y50.3979 I-1.85 J0.0
G2 X54.1606 Y52.0482 I0.925 J1.6021
G1 F5.0 Z-2.8
G2 F225.0 X55.085 Y53.6021 I1.8494 J-0.0482
G2 X57.86 Y52.0 I0.925 J-1.6021
G2 X55.085 Y50.3979 I-1.85 J0.0
G2 X54.1606 Y52.0482 I0.925 J1.6021
G1 F5.0 Z-3.2
G2 F225.0 X55.085 Y53.6021 I1.8494 J-0.0482
G2 X57.86 Y52.0 I0.925 J-1.6021
G2 X55.085 Y50.3979 I-1.85 J0.0
G2 X54.1606 Y52.0482 I0.925 J1.6021
G1 F5.0 Z-3.6
G2 F225.0 X55.085 Y53.6021 I1.8494 J-0.0482
G2 X57.86 Y52.0 I0.925 J-1.6021
G2 X55.085 Y50.3979 I-1.85 J0.0
G2 X54.1606 Y52.0482 I0.925 J1.6021
G1 F5.0 Z-4.0
G2 F225.0 X55.085 Y53.6021 I1.8494 J-0.0482
G2 X57.86 Y52.0 I0.925 J-1.6021
G2 X55.085 Y50.3979 I-1.85 J0.0
G2 X54.1606 Y52.0482 I0.925 J1.6021
G1 F5.0 Z-4.4
G2 F225.0 X55.085 Y53.6021 I1.8494 J-0.0482
G2 X57.86 Y52.0 I0.925 J-1.6021
G2 X55.085 Y50.3979 I-1.85 J0.0
G2 X54.1606 Y52.0482 I0.925 J1.6021
G1 F5.0 Z-4.8
G2 F225.0 X55.085 Y53.6021 I1.8494 J-0.0482
G2 X57.86 Y52.0 I0.925 J-1.6021
G2 X55.085 Y50.3979 I-1.85 J0.0
G2 X54.1606 Y52.0482 I0.925 J1.6021
G1 F5.0 Z-5.2
G2 F225.0 X55.085 Y53.6021 I1.8494 J-0.0482
G2 X57.86 Y52.0 I0.925 J-1.6021
G2 X55.085 Y50.3979 I-1.85 J0.0
G2 X54.1606 Y52.0482 I0.925 J1.6021
G1 F5.0 Z-5.6
G2 F225.0 X55.085 Y53.6021 I1.8494 J-0.0482
G2 X57.86 Y52.0 I0.925 J-1.6021
G2 X55.085 Y50.3979 I-1.85 J0.0
G2 X54.1606 Y52.0482 I0.925 J1.6021
G1 F5.0 Z-6.0
G2 F225.0 X55.085 Y53.6021 I1.8494 J-0.0482
G2 X57.86 Y52.0 I0.925 J-1.6021
G2 X55.085 Y50.3979 I-1.85 J0.0
G2 X54.1606 Y52.0482 I0.925 J1.6021
G1 F5.0 Z-6.4
G2 F225.0 X55.085 Y53.6021 I1.8494 J-0.0482
G2 X57.86 Y52.0 I0.925 J-1.6021
G2 X55.085 Y50.3979 I-1.85 J0.0
G2 X54.1606 Y52.0482 I0.925 J1.6021
G1 F5.0 Z-6.8
G2 F225.0 X55.085 Y53.6021 I1.8494 J-0.0482
G2 X57.86 Y52.0 I0.925 J-1.6021
G2 X55.085 Y50.3979 I-1.85 J0.0
G2 X54.1606 Y52.0482 I0.925 J1.6021
G1 F5.0 Z-7.0
G2 F225.0 X55.085 Y53.6021 I1.8494 J-0.0482
G2 X57.86 Y52.0 I0.925 J-1.6021
G2 X55.085 Y50.3979 I-1.85 J0.0
G2 X54.1606 Y52.0482 I0.925 J1.6021
G0 Z2.0
G0 X55.8964 Y23.8465
G0 Z1.0
G1 F5.0 Z-0.4
G2 F225.0 X57.86 Y22.0 I0.1136 J-1.8465
G2 X55.085 Y20.3979 I-1.85 J0.0
G2 Y23.6021 I0.925 J1.6021
G2 X55.8964 Y23.8465 I0.925 J-1.6021
G1 F5.0 Z-0.8
G2 F225.0 X57.86 Y22.0 I0.1136 J-1.8465
G2 X55.085 Y20.3979 I-1.85 J0.0
G2 Y23.6021 I0.925 J1.6021
G2 X55.8964 Y23.8465 I0.925 J-1.6021
G1 F5.0 Z-1.2
G2 F225.0 X57.86 Y22.0 I0.1136 J-1.8465
G2 X55.085 Y20.3979 I-1.85 J0.0
G2 Y23.6021 I0.925 J1.6021
G2 X55.8964 Y23.8465 I0.925 J-1.6021
G1 F5.0 Z-1.6
G2 F225.0 X57.86 Y22.0 I0.1136 J-1.8465
G2 X55.085 Y20.3979 I-1.85 J0.0
G2 Y23.6021 I0.925 J1.6021
G2 X55.8964 Y23.8465 I0.925 J-1.6021
G1 F5.0 Z-2.0
G2 F225.0 X57.86 Y22.0 I0.1136 J-1.8465
G2 X55.085 Y20.3979 I-1.85 J0.0
G2 Y23.6021 I0.925 J1.6021
G2 X55.8964 Y23.8465 I0.925 J-1.6021
G1 F5.0 Z-2.4
G2 F225.0 X57.86 Y22.0 I0.1136 J-1.8465
G2 X55.085 Y20.3979 I-1.85 J0.0
G2 Y23.6021 I0.925 J1.6021
G2 X55.8964 Y23.8465 I0.925 J-1.6021
G1 F5.0 Z-2.8
G2 F225.0 X57.86 Y22.0 I0.1136 J-1.8465
G2 X55.085 Y20.3979 I-1.85 J0.0
G2 Y23.6021 I0.925 J1.6021
G2 X55.8964 Y23.8465 I0.925 J-1.6021
G1 F5.0 Z-3.2
G2 F225.0 X57.86 Y22.0 I0.1136 J-1.8465
G2 X55.085 Y20.3979 I-1.85 J0.0
G2 Y23.6021 I0.925 J1.6021
G2 X55.8964 Y23.8465 I0.925 J-1.6021
G1 F5.0 Z-3.6
G2 F225.0 X57.86 Y22.0 I0.1136 J-1.8465
G2 X55.085 Y20.3979 I-1.85 J0.0
G2 Y23.6021 I0.925 J1.6021
G2 X55.8964 Y23.8465 I0.925 J-1.6021
G1 F5.0 Z-4.0
G2 F225.0 X57.86 Y22.0 I0.1136 J-1.8465
G2 X55.085 Y20.3979 I-1.85 J0.0
G2 Y23.6021 I0.925 J1.6021
G2 X55.8964 Y23.8465 I0.925 J-1.6021
G1 F5.0 Z-4.4
G2 F225.0 X57.86 Y22.0 I0.1136 J-1.8465
G2 X55.085 Y20.3979 I-1.85 J0.0
G2 Y23.6021 I0.925 J1.6021
G2 X55.8964 Y23.8465 I0.925 J-1.6021
G1 F5.0 Z-4.8
G2 F225.0 X57.86 Y22.0 I0.1136 J-1.8465
G2 X55.085 Y20.3979 I-1.85 J0.0
G2 Y23.6021 I0.925 J1.6021
G2 X55.8964 Y23.8465 I0.925 J-1.6021
G1 F5.0 Z-5.2
G2 F225.0 X57.86 Y22.0 I0.1136 J-1.8465
G2 X55.085 Y20.3979 I-1.85 J0.0
G2 Y23.6021 I0.925 J1.6021
G2 X55.8964 Y23.8465 I0.925 J-1.6021
G1 F5.0 Z-5.6
G2 F225.0 X57.86 Y22.0 I0.1136 J-1.8465
G2 X55.085 Y20.3979 I-1.85 J0.0
G2 Y23.6021 I0.925 J1.6021
G2 X55.8964 Y23.8465 I0.925 J-1.6021
G1 F5.0 Z-6.0
G2 F225.0 X57.86 Y22.0 I0.1136 J-1.8465
G2 X55.085 Y20.3979 I-1.85 J0.0
G2 Y23.6021 I0.925 J1.6021
G2 X55.8964 Y23.8465 I0.925 J-1.6021
G1 F5.0 Z-6.4
G2 F225.0 X57.86 Y22.0 I0.1136 J-1.8465
G2 X55.085 Y20.3979 I-1.85 J0.0
G2 Y23.6021 I0.925 J1.6021
G2 X55.8964 Y23.8465 I0.925 J-1.6021
G1 F5.0 Z-6.8
G2 F225.0 X57.86 Y22.0 I0.1136 J-1.8465
G2 X55.085 Y20.3979 I-1.85 J0.0
G2 Y23.6021 I0.925 J1.6021
G2 X55.8964 Y23.8465 I0.925 J-1.6021
G1 F5.0 Z-7.0
G2 F225.0 X57.86 Y22.0 I0.1136 J-1.8465
G2 X55.085 Y20.3979 I-1.85 J0.0
G2 Y23.6021 I0.925 J1.6021
G2 X55.8964 Y23.8465 I0.925 J-1.6021
G0 Z2.0
G0 X28.2584 Y22.0487
G0 Z1.0
G1 F5.0 Z-0.4
G2 F225.0 X28.26 Y22.0 I-0.7484 J-0.0487
G2 X27.135 Y21.3505 I-0.75 J0.0
G2 Y22.6495 I0.375 J0.6495
G2 X28.2584 Y22.0487 I0.375 J-0.6495
G1 F5.0 Z-0.8
G2 F225.0 X28.26 Y22.0 I-0.7484 J-0.0487
G2 X27.135 Y21.3505 I-0.75 J0.0
G2 Y22.6495 I0.375 J0.6495
G2 X28.2584 Y22.0487 I0.375 J-0.6495
G1 F5.0 Z-1.2
G2 F225.0 X28.26 Y22.0 I-0.7484 J-0.0487
G2 X27.135 Y21.3505 I-0.75 J0.0
G2 Y22.6495 I0.375 J0.6495
G2 X28.2584 Y22.0487 I0.375 J-0.6495
G1 F5.0 Z-1.6
G2 F225.0 X28.26 Y22.0 I-0.7484 J-0.0487
G2 X27.135 Y21.3505 I-0.75 J0.0
G2 Y22.6495 I0.375 J0.6495
G2 X28.2584 Y22.0487 I0.375 J-0.6495
G1 F5.0 Z-2.0
G2 F225.0 X28.26 Y22.0 I-0.7484 J-0.0487
G2 X27.135 Y21.3505 I-0.75 J0.0
G2 Y22.6495 I0.375 J0.6495
G2 X28.2584 Y22.0487 I0.375 J-0.6495
G1 F5.0 Z-2.4
G2 F225.0 X28.26 Y22.0 I-0.7484 J-0.0487
G2 X27.135 Y21.3505 I-0.75 J0.0
G2 Y22.6495 I0.375 J0.6495
G2 X28.2584 Y22.0487 I0.375 J-0.6495
G1 F5.0 Z-2.8
G2 F225.0 X28.26 Y22.0 I-0.7484 J-0.0487
G2 X27.135 Y21.3505 I-0.75 J0.0
G2 Y22.6495 I0.375 J0.6495
G2 X28.2584 Y22.0487 I0.375 J-0.6495
G1 F5.0 Z-3.2
G2 F225.0 X28.26 Y22.0 I-0.7484 J-0.0487
G2 X27.135 Y21.3505 I-0.75 J0.0
G2 Y22.6495 I0.375 J0.6495
G2 X28.2584 Y22.0487 I0.375 J-0.6495
G1 F5.0 Z-3.6
G2 F225.0 X28.26 Y22.0 I-0.7484 J-0.0487
G2 X27.135 Y21.3505 I-0.75 J0.0
G2 Y22.6495 I0.375 J0.6495
G2 X28.2584 Y22.0487 I0.375 J-0.6495
G1 F5.0 Z-4.0
G2 F225.0 X28.26 Y22.0 I-0.7484 J-0.0487
G2 X27.135 Y21.3505 I-0.75 J0.0
G2 Y22.6495 I0.375 J0.6495
G2 X28.2584 Y22.0487 I0.375 J-0.6495
G1 F5.0 Z-4.4
G2 F225.0 X28.26 Y22.0 I-0.7484 J-0.0487
G2 X27.135 Y21.3505 I-0.75 J0.0
G2 Y22.6495 I0.375 J0.6495
G2 X28.2584 Y22.0487 I0.375 J-0.6495
G1 F5.0 Z-4.8
G2 F225.0 X28.26 Y22.0 I-0.7484 J-0.0487
G2 X27.135 Y21.3505 I-0.75 J0.0
G2 Y22.6495 I0.375 J0.6495
G2 X28.2584 Y22.0487 I0.375 J-0.6495
G1 F5.0 Z-5.2
G2 F225.0 X28.26 Y22.0 I-0.7484 J-0.0487
G2 X27.135 Y21.3505 I-0.75 J0.0
G2 Y22.6495 I0.375 J0.6495
G2 X28.2584 Y22.0487 I0.375 J-0.6495
G1 F5.0 Z-5.6
G2 F225.0 X28.26 Y22.0 I-0.7484 J-0.0487
G2 X27.135 Y21.3505 I-0.75 J0.0
G2 Y22.6495 I0.375 J0.6495
G2 X28.2584 Y22.0487 I0.375 J-0.6495
G1 F5.0 Z-6.0
G2 F225.0 X28.26 Y22.0 I-0.7484 J-0.0487
G2 X27.135 Y21.3505 I-0.75 J0.0
G2 Y22.6495 I0.375 J0.6495
G2 X28.2584 Y22.0487 I0.375 J-0.6495
G1 F5.0 Z-6.4
G2 F225.0 X28.26 Y22.0 I-0.7484 J-0.0487
G2 X27.135 Y21.3505 I-0.75 J0.0
G2 Y22.6495 I0.375 J0.6495
G2 X28.2584 Y22.0487 I0.375 J-0.6495
G1 F5.0 Z-6.8
G2 F225.0 X28.26 Y22.0 I-0.7484 J-0.0487
G2 X27.135 Y21.3505 I-0.75 J0.0
G2 Y22.6495 I0.375 J0.6495
G2 X28.2584 Y22.0487 I0.375 J-0.6495
G1 F5.0 Z-7.0
G2 F225.0 X28.26 Y22.0 I-0.7484 J-0.0487
G2 X27.135 Y21.3505 I-0.75 J0.0
G2 Y22.6495 I0.375 J0.6495
G2 X28.2584 Y22.0487 I0.375 J-0.6495
G0 Z2.0
G0 X89.65 Y22.0014
G0 Z1.0
G1 F5.0 Z-0.4
G2 F225.0 X90.575 Y23.6021 I1.85 J-0.0014
G2 X93.35 Y22.0 I0.925 J-1.6021
G2 X90.575 Y20.3979 I-1.85 J0.0
G2 X89.65 Y22.0014 I0.925 J1.6021
G1 F5.0 Z-0.8
G2 F225.0 X90.575 Y23.6021 I1.85 J-0.0014
G2 X93.35 Y22.0 I0.925 J-1.6021
G2 X90.575 Y20.3979 I-1.85 J0.0
G2 X89.65 Y22.0014 I0.925 J1.6021
G1 F5.0 Z-1.2
G2 F225.0 X90.575 Y23.6021 I1.85 J-0.0014
G2 X93.35 Y22.0 I0.925 J-1.6021
G2 X90.575 Y20.3979 I-1.85 J0.0
G2 X89.65 Y22.0014 I0.925 J1.6021
G1 F5.0 Z-1.6
G2 F225.0 X90.575 Y23.6021 I1.85 J-0.0014
G2 X93.35 Y22.0 I0.925 J-1.6021
G2 X90.575 Y20.3979 I-1.85 J0.0
G2 X89.65 Y22.0014 I0.925 J1.6021
G1 F5.0 Z-2.0
G2 F225.0 X90.575 Y23.6021 I1.85 J-0.0014
G2 X93.35 Y22.0 I0.925 J-1.6021
G2 X90.575 Y20.3979 I-1.85 J0.0
G2 X89.65 Y22.0014 I0.925 J1.6021
G1 F5.0 Z-2.4
G2 F225.0 X90.575 Y23.6021 I1.85 J-0.0014
G2 X93.35 Y22.0 I0.925 J-1.6021
G2 X90.575 Y20.3979 I-1.85 J0.0
G2 X89.65 Y22.0014 I0.925 J1.6021
G1 F5.0 Z-2.8
G2 F225.0 X90.575 Y23.6021 I1.85 J-0.0014
G2 X93.35 Y22.0 I0.925 J-1.6021
G2 X90.575 Y20.3979 I-1.85 J0.0
G2 X89.65 Y22.0014 I0.925 J1.6021
G1 F5.0 Z-3.2
G2 F225.0 X90.575 Y23.6021 I1.85 J-0.0014
G2 X93.35 Y22.0 I0.925 J-1.6021
G2 X90.575 Y20.3979 I-1.85 J0.0
G2 X89.65 Y22.0014 I0.925 J1.6021
G1 F5.0 Z-3.6
G2 F225.0 X90.575 Y23.6021 I1.85 J-0.0014
G2 X93.35 Y22.0 I0.925 J-1.6021
G2 X90.575 Y20.3979 I-1.85 J0.0
G2 X89.65 Y22.0014 I0.925 J1.6021
G1 F5.0 Z-4.0
G2 F225.0 X90.575 Y23.6021 I1.85 J-0.0014
G2 X93.35 Y22.0 I0.925 J-1.6021
G2 X90.575 Y20.3979 I-1.85 J0.0
G2 X89.65 Y22.0014 I0.925 J1.6021
G1 F5.0 Z-4.4
G2 F225.0 X90.575 Y23.6021 I1.85 J-0.0014
G2 X93.35 Y22.0 I0.925 J-1.6021
G2 X90.575 Y20.3979 I-1.85 J0.0
G2 X89.65 Y22.0014 I0.925 J1.6021
G1 F5.0 Z-4.8
G2 F225.0 X90.575 Y23.6021 I1.85 J-0.0014
G2 X93.35 Y22.0 I0.925 J-1.6021
G2 X90.575 Y20.3979 I-1.85 J0.0
G2 X89.65 Y22.0014 I0.925 J1.6021
G1 F5.0 Z-5.2
G2 F225.0 X90.575 Y23.6021 I1.85 J-0.0014
G2 X93.35 Y22.0 I0.925 J-1.6021
G2 X90.575 Y20.3979 I-1.85 J0.0
G2 X89.65 Y22.0014 I0.925 J1.6021
G1 F5.0 Z-5.6
G2 F225.0 X90.575 Y23.6021 I1.85 J-0.0014
G2 X93.35 Y22.0 I0.925 J-1.6021
G2 X90.575 Y20.3979 I-1.85 J0.0
G2 X89.65 Y22.0014 I0.925 J1.6021
G1 F5.0 Z-6.0
G2 F225.0 X90.575 Y23.6021 I1.85 J-0.0014
G2 X93.35 Y22.0 I0.925 J-1.6021
G2 X90.575 Y20.3979 I-1.85 J0.0
G2 X89.65 Y22.0014 I0.925 J1.6021
G1 F5.0 Z-6.4
G2 F225.0 X90.575 Y23.6021 I1.85 J-0.0014
G2 X93.35 Y22.0 I0.925 J-1.6021
G2 X90.575 Y20.3979 I-1.85 J0.0
G2 X89.65 Y22.0014 I0.925 J1.6021
G1 F5.0 Z-6.8
G2 F225.0 X90.575 Y23.6021 I1.85 J-0.0014
G2 X93.35 Y22.0 I0.925 J-1.6021
G2 X90.575 Y20.3979 I-1.85 J0.0
G2 X89.65 Y22.0014 I0.925 J1.6021
G1 F5.0 Z-7.0
G2 F225.0 X90.575 Y23.6021 I1.85 J-0.0014
G2 X93.35 Y22.0 I0.925 J-1.6021
G2 X90.575 Y20.3979 I-1.85 J0.0
G2 X89.65 Y22.0014 I0.925 J1.6021
G0 Z2.0
G0 X152.2523 Y17.059
G0 Z1.0
G1 F5.0 Z-0.4
G2 F225.0 X152.625 Y17.6495 I0.7477 J-0.059
G2 X153.75 Y17.0 I0.375 J-0.6495
G2 X152.625 Y16.3505 I-0.75 J0.0
G2 X152.2523 Y17.059 I0.375 J0.6495
G1 F5.0 Z-0.8
G2 F225.0 X152.625 Y17.6495 I0.7477 J-0.059
G2 X153.75 Y17.0 I0.375 J-0.6495
G2 X152.625 Y16.3505 I-0.75 J0.0
G2 X152.2523 Y17.059 I0.375 J0.6495
G1 F5.0 Z-1.2
G2 F225.0 X152.625 Y17.6495 I0.7477 J-0.059
G2 X153.75 Y17.0 I0.375 J-0.6495
G2 X152.625 Y16.3505 I-0.75 J0.0
G2 X152.2523 Y17.059 I0.375 J0.6495
G1 F5.0 Z-1.6
G2 F225.0 X152.625 Y17.6495 I0.7477 J-0.059
G2 X153.75 Y17.0 I0.375 J-0.6495
G2 X152.625 Y16.3505 I-0.75 J0.0
G2 X152.2523 Y17.059 I0.375 J0.6495
G1 F5.0 Z-2.0
G2 F225.0 X152.625 Y17.6495 I0.7477 J-0.059
G2 X153.75 Y17.0 I0.375 J-0.6495
G2 X152.625 Y16.3505 I-0.75 J0.0
G2 X152.2523 Y17.059 I0.375 J0.6495
G1 F5.0 Z-2.4
G2 F225.0 X152.625 Y17.6495 I0.7477 J-0.059
G2 X153.75 Y17.0 I0.375 J-0.6495
G2 X152.625 Y16.3505 I-0.75 J0.0
G2 X152.2523 Y17.059 I0.375 J0.6495
G1 F5.0 Z-2.8
G2 F225.0 X152.625 Y17.6495 I0.7477 J-0.059
G2 X153.75 Y17.0 I0.375 J-0.6495
G2 X152.625 Y16.3505 I-0.75 J0.0
G2 X152.2523 Y17.059 I0.375 J0.6495
G1 F5.0 Z-3.2
G2 F225.0 X152.625 Y17.6495 I0.7477 J-0.059
G2 X153.75 Y17.0 I0.375 J-0.6495
G2 X152.625 Y16.3505 I-0.75 J0.0
G2 X152.2523 Y17.059 I0.375 J0.6495
G1 F5.0 Z-3.6
G2 F225.0 X152.625 Y17.6495 I0.7477 J-0.059
G2 X153.75 Y17.0 I0.375 J-0.6495
G2 X152.625 Y16.3505 I-0.75 J0.0
G2 X152.2523 Y17.059 I0.375 J0.6495
G1 F5.0 Z-4.0
G2 F225.0 X152.625 Y17.6495 I0.7477 J-0.059
G2 X153.75 Y17.0 I0.375 J-0.6495
G2 X152.625 Y16.3505 I-0.75 J0.0
G2 X152.2523 Y17.059 I0.375 J0.6495
G1 F5.0 Z-4.4
G2 F225.0 X152.625 Y17.6495 I0.7477 J-0.059
G2 X153.75 Y17.0 I0.375 J-0.6495
G2 X152.625 Y16.3505 I-0.75 J0.0
G2 X152.2523 Y17.059 I0.375 J0.6495
G1 F5.0 Z-4.8
G2 F225.0 X152.625 Y17.6495 I0.7477 J-0.059
G2 X153.75 Y17.0 I0.375 J-0.6495
G2 X152.625 Y16.3505 I-0.75 J0.0
G2 X152.2523 Y17.059 I0.375 J0.6495
G1 F5.0 Z-5.2
G2 F225.0 X152.625 Y17.6495 I0.7477 J-0.059
G2 X153.75 Y17.0 I0.375 J-0.6495
G2 X152.625 Y16.3505 I-0.75 J0.0
G2 X152.2523 Y17.059 I0.375 J0.6495
G1 F5.0 Z-5.6
G2 F225.0 X152.625 Y17.6495 I0.7477 J-0.059
G2 X153.75 Y17.0 I0.375 J-0.6495
G2 X152.625 Y16.3505 I-0.75 J0.0
G2 X152.2523 Y17.059 I0.375 J0.6495
G1 F5.0 Z-6.0
G2 F225.0 X152.625 Y17.6495 I0.7477 J-0.059
G2 X153.75 Y17.0 I0.375 J-0.6495
G2 X152.625 Y16.3505 I-0.75 J0.0
G2 X152.2523 Y17.059 I0.375 J0.6495
G1 F5.0 Z-6.4
G2 F225.0 X152.625 Y17.6495 I0.7477 J-0.059
G2 X153.75 Y17.0 I0.375 J-0.6495
G2 X152.625 Y16.3505 I-0.75 J0.0
G2 X152.2523 Y17.059 I0.375 J0.6495
G1 F5.0 Z-6.8
G2 F225.0 X152.625 Y17.6495 I0.7477 J-0.059
G2 X153.75 Y17.0 I0.375 J-0.6495
G2 X152.625 Y16.3505 I-0.75 J0.0
G2 X152.2523 Y17.059 I0.375 J0.6495
G1 F5.0 Z-7.0
G2 F225.0 X152.625 Y17.6495 I0.7477 J-0.059
G2 X153.75 Y17.0 I0.375 J-0.6495
G2 X152.625 Y16.3505 I-0.75 J0.0
G2 X152.2523 Y17.059 I0.375 J0.6495
G0 Z2.0
G0 X172.25 Y17.0021
G0 Z1.0
G1 F5.0 Z-0.4
G2 F225.0 X172.625 Y17.6495 I0.75 J-0.0021
G2 X173.75 Y17.0 I0.375 J-0.6495
G2 X172.625 Y16.3505 I-0.75 J0.0
G2 X172.25 Y17.0021 I0.375 J0.6495
G1 F5.0 Z-0.8
G2 F225.0 X172.625 Y17.6495 I0.75 J-0.0021
G2 X173.75 Y17.0 I0.375 J-0.6495
G2 X172.625 Y16.3505 I-0.75 J0.0
G2 X172.25 Y17.0021 I0.375 J0.6495
G1 F5.0 Z-1.2
G2 F225.0 X172.625 Y17.6495 I0.75 J-0.0021
G2 X173.75 Y17.0 I0.375 J-0.6495
G2 X172.625 Y16.3505 I-0.75 J0.0
G2 X172.25 Y17.0021 I0.375 J0.6495
G1 F5.0 Z-1.6
G2 F225.0 X172.625 Y17.6495 I0.75 J-0.0021
G2 X173.75 Y17.0 I0.375 J-0.6495
G2 X172.625 Y16.3505 I-0.75 J0.0
G2 X172.25 Y17.0021 I0.375 J0.6495
G1 F5.0 Z-2.0
G2 F225.0 X172.625 Y17.6495 I0.75 J-0.0021
G2 X173.75 Y17.0 I0.375 J-0.6495
G2 X172.625 Y16.3505 I-0.75 J0.0
G2 X172.25 Y17.0021 I0.375 J0.6495
G1 F5.0 Z-2.4
G2 F225.0 X172.625 Y17.6495 I0.75 J-0.0021
G2 X173.75 Y17.0 I0.375 J-0.6495
G2 X172.625 Y16.3505 I-0.75 J0.0
G2 X172.25 Y17.0021 I0.375 J0.6495
G1 F5.0 Z-2.8
G2 F225.0 X172.625 Y17.6495 I0.75 J-0.0021
G2 X173.75 Y17.0 I0.375 J-0.6495
G2 X172.625 Y16.3505 I-0.75 J0.0
G2 X172.25 Y17.0021 I0.375 J0.6495
G1 F5.0 Z-3.2
G2 F225.0 X172.625 Y17.6495 I0.75 J-0.0021
G2 X173.75 Y17.0 I0.375 J-0.6495
G2 X172.625 Y16.3505 I-0.75 J0.0
G2 X172.25 Y17.0021 I0.375 J0.6495
G1 F5.0 Z-3.6
G2 F225.0 X172.625 Y17.6495 I0.75 J-0.0021
G2 X173.75 Y17.0 I0.375 J-0.6495
G2 X172.625 Y16.3505 I-0.75 J0.0
G2 X172.25 Y17.0021 I0.375 J0.6495
G1 F5.0 Z-4.0
G2 F225.0 X172.625 Y17.6495 I0.75 J-0.0021
G2 X173.75 Y17.0 I0.375 J-0.6495
G2 X172.625 Y16.3505 I-0.75 J0.0
G2 X172.25 Y17.0021 I0.375 J0.6495
G1 F5.0 Z-4.4
G2 F225.0 X172.625 Y17.6495 I0.75 J-0.0021
G2 X173.75 Y17.0 I0.375 J-0.6495
G2 X172.625 Y16.3505 I-0.75 J0.0
G2 X172.25 Y17.0021 I0.375 J0.6495
G1 F5.0 Z-4.8
G2 F225.0 X172.625 Y17.6495 I0.75 J-0.0021
G2 X173.75 Y17.0 I0.375 J-0.6495
G2 X172.625 Y16.3505 I-0.75 J0.0
G2 X172.25 Y17.0021 I0.375 J0.6495
G1 F5.0 Z-5.2
G2 F225.0 X172.625 Y17.6495 I0.75 J-0.0021
G2 X173.75 Y17.0 I0.375 J-0.6495
G2 X172.625 Y16.3505 I-0.75 J0.0
G2 X172.25 Y17.0021 I0.375 J0.6495
G1 F5.0 Z-5.6
G2 F225.0 X172.625 Y17.6495 I0.75 J-0.0021
G2 X173.75 Y17.0 I0.375 J-0.6495
G2 X172.625 Y16.3505 I-0.75 J0.0
G2 X172.25 Y17.0021 I0.375 J0.6495
G1 F5.0 Z-6.0
G2 F225.0 X172.625 Y17.6495 I0.75 J-0.0021
G2 X173.75 Y17.0 I0.375 J-0.6495
G2 X172.625 Y16.3505 I-0.75 J0.0
G2 X172.25 Y17.0021 I0.375 J0.6495
G1 F5.0 Z-6.4
G2 F225.0 X172.625 Y17.6495 I0.75 J-0.0021
G2 X173.75 Y17.0 I0.375 J-0.6495
G2 X172.625 Y16.3505 I-0.75 J0.0
G2 X172.25 Y17.0021 I0.375 J0.6495
G1 F5.0 Z-6.8
G2 F225.0 X172.625 Y17.6495 I0.75 J-0.0021
G2 X173.75 Y17.0 I0.375 J-0.6495
G2 X172.625 Y16.3505 I-0.75 J0.0
G2 X172.25 Y17.0021 I0.375 J0.6495
G1 F5.0 Z-7.0
G2 F225.0 X172.625 Y17.6495 I0.75 J-0.0021
G2 X173.75 Y17.0 I0.375 J-0.6495
G2 X172.625 Y16.3505 I-0.75 J0.0
G2 X172.25 Y17.0021 I0.375 J0.6495
G0 Z2.0
G0 X192.25 Y17.0001
G0 Z1.0
G1 F5.0 Z-0.4
G2 F225.0 X192.625 Y17.6495 I0.75 J-0.0001
G2 X193.75 Y17.0 I0.375 J-0.6495
G2 X192.625 Y16.3505 I-0.75 J0.0
G2 X192.25 Y17.0001 I0.375 J0.6495
G1 F5.0 Z-0.8
G2 F225.0 X192.625 Y17.6495 I0.75 J-0.0001
G2 X193.75 Y17.0 I0.375 J-0.6495
G2 X192.625 Y16.3505 I-0.75 J0.0
G2 X192.25 Y17.0001 I0.375 J0.6495
G1 F5.0 Z-1.2
G2 F225.0 X192.625 Y17.6495 I0.75 J-0.0001
G2 X193.75 Y17.0 I0.375 J-0.6495
G2 X192.625 Y16.3505 I-0.75 J0.0
G2 X192.25 Y17.0001 I0.375 J0.6495
G1 F5.0 Z-1.6
G2 F225.0 X192.625 Y17.6495 I0.75 J-0.0001
G2 X193.75 Y17.0 I0.375 J-0.6495
G2 X192.625 Y16.3505 I-0.75 J0.0
G2 X192.25 Y17.0001 I0.375 J0.6495
G1 F5.0 Z-2.0
G2 F225.0 X192.625 Y17.6495 I0.75 J-0.0001
G2 X193.75 Y17.0 I0.375 J-0.6495
G2 X192.625 Y16.3505 I-0.75 J0.0
G2 X192.25 Y17.0001 I0.375 J0.6495
G1 F5.0 Z-2.4
G2 F225.0 X192.625 Y17.6495 I0.75 J-0.0001
G2 X193.75 Y17.0 I0.375 J-0.6495
G2 X192.625 Y16.3505 I-0.75 J0.0
G2 X192.25 Y17.0001 I0.375 J0.6495
G1 F5.0 Z-2.8
G2 F225.0 X192.625 Y17.6495 I0.75 J-0.0001
G2 X193.75 Y17.0 I0.375 J-0.6495
G2 X192.625 Y16.3505 I-0.75 J0.0
G2 X192.25 Y17.0001 I0.375 J0.6495
G1 F5.0 Z-3.2
G2 F225.0 X192.625 Y17.6495 I0.75 J-0.0001
G2 X193.75 Y17.0 I0.375 J-0.6495
G2 X192.625 Y16.3505 I-0.75 J0.0
G2 X192.25 Y17.0001 I0.375 J0.6495
G1 F5.0 Z-3.6
G2 F225.0 X192.625 Y17.6495 I0.75 J-0.0001
G2 X193.75 Y17.0 I0.375 J-0.6495
G2 X192.625 Y16.3505 I-0.75 J0.0
G2 X192.25 Y17.0001 I0.375 J0.6495
G1 F5.0 Z-4.0
G2 F225.0 X192.625 Y17.6495 I0.75 J-0.0001
G2 X193.75 Y17.0 I0.375 J-0.6495
G2 X192.625 Y16.3505 I-0.75 J0.0
G2 X192.25 Y17.0001 I0.375 J0.6495
G1 F5.0 Z-4.4
G2 F225.0 X192.625 Y17.6495 I0.75 J-0.0001
G2 X193.75 Y17.0 I0.375 J-0.6495
G2 X192.625 Y16.3505 I-0.75 J0.0
G2 X192.25 Y17.0001 I0.375 J0.6495
G1 F5.0 Z-4.8
G2 F225.0 X192.625 Y17.6495 I0.75 J-0.0001
G2 X193.75 Y17.0 I0.375 J-0.6495
G2 X192.625 Y16.3505 I-0.75 J0.0
G2 X192.25 Y17.0001 I0.375 J0.6495
G1 F5.0 Z-5.2
G2 F225.0 X192.625 Y17.6495 I0.75 J-0.0001
G2 X193.75 Y17.0 I0.375 J-0.6495
G2 X192.625 Y16.3505 I-0.75 J0.0
G2 X192.25 Y17.0001 I0.375 J0.6495
G1 F5.0 Z-5.6
G2 F225.0 X192.625 Y17.6495 I0.75 J-0.0001
G2 X193.75 Y17.0 I0.375 J-0.6495
G2 X192.625 Y16.3505 I-0.75 J0.0
G2 X192.25 Y17.0001 I0.375 J0.6495
G1 F5.0 Z-6.0
G2 F225.0 X192.625 Y17.6495 I0.75 J-0.0001
G2 X193.75 Y17.0 I0.375 J-0.6495
G2 X192.625 Y16.3505 I-0.75 J0.0
G2 X192.25 Y17.0001 I0.375 J0.6495
G1 F5.0 Z-6.4
G2 F225.0 X192.625 Y17.6495 I0.75 J-0.0001
G2 X193.75 Y17.0 I0.375 J-0.6495
G2 X192.625 Y16.3505 I-0.75 J0.0
G2 X192.25 Y17.0001 I0.375 J0.6495
G1 F5.0 Z-6.8
G2 F225.0 X192.625 Y17.6495 I0.75 J-0.0001
G2 X193.75 Y17.0 I0.375 J-0.6495
G2 X192.625 Y16.3505 I-0.75 J0.0
G2 X192.25 Y17.0001 I0.375 J0.6495
G1 F5.0 Z-7.0
G2 F225.0 X192.625 Y17.6495 I0.75 J-0.0001
G2 X193.75 Y17.0 I0.375 J-0.6495
G2 X192.625 Y16.3505 I-0.75 J0.0
G2 X192.25 Y17.0001 I0.375 J0.6495
G0 Z2.0
G0 X212.25 Y17.0
G0 Z1.0
G1 F5.0 Z-0.4
G2 F225.0 X212.625 Y17.6495 I0.75 J0.0
G2 X213.75 Y17.0 I0.375 J-0.6495
G2 X212.625 Y16.3505 I-0.75 J0.0
G2 X212.25 Y17.0 I0.375 J0.6495
G1 F5.0 Z-0.8
G2 F225.0 X212.625 Y17.6495 I0.75 J0.0
G2 X213.75 Y17.0 I0.375 J-0.6495
G2 X212.625 Y16.3505 I-0.75 J0.0
G2 X212.25 Y17.0 I0.375 J0.6495
G1 F5.0 Z-1.2
G2 F225.0 X212.625 Y17.6495 I0.75 J0.0
G2 X213.75 Y17.0 I0.375 J-0.6495
G2 X212.625 Y16.3505 I-0.75 J0.0
G2 X212.25 Y17.0 I0.375 J0.6495
G1 F5.0 Z-1.6
G2 F225.0 X212.625 Y17.6495 I0.75 J0.0
G2 X213.75 Y17.0 I0.375 J-0.6495
G2 X212.625 Y16.3505 I-0.75 J0.0
G2 X212.25 Y17.0 I0.375 J0.6495
G1 F5.0 Z-2.0
G2 F225.0 X212.625 Y17.6495 I0.75 J0.0
G2 X213.75 Y17.0 I0.375 J-0.6495
G2 X212.625 Y16.3505 I-0.75 J0.0
G2 X212.25 Y17.0 I0.375 J0.6495
G1 F5.0 Z-2.4
G2 F225.0 X212.625 Y17.6495 I0.75 J0.0
G2 X213.75 Y17.0 I0.375 J-0.6495
G2 X212.625 Y16.3505 I-0.75 J0.0
G2 X212.25 Y17.0 I0.375 J0.6495
G1 F5.0 Z-2.8
G2 F225.0 X212.625 Y17.6495 I0.75 J0.0
G2 X213.75 Y17.0 I0.375 J-0.6495
G2 X212.625 Y16.3505 I-0.75 J0.0
G2 X212.25 Y17.0 I0.375 J0.6495
G1 F5.0 Z-3.2
G2 F225.0 X212.625 Y17.6495 I0.75 J0.0
G2 X213.75 Y17.0 I0.375 J-0.6495
G2 X212.625 Y16.3505 I-0.75 J0.0
G2 X212.25 Y17.0 I0.375 J0.6495
G1 F5.0 Z-3.6
G2 F225.0 X212.625 Y17.6495 I0.75 J0.0
G2 X213.75 Y17.0 I0.375 J-0.6495
G2 X212.625 Y16.3505 I-0.75 J0.0
G2 X212.25 Y17.0 I0.375 J0.6495
G1 F5.0 Z-4.0
G2 F225.0 X212.625 Y17.6495 I0.75 J0.0
G2 X213.75 Y17.0 I0.375 J-0.6495
G2 X212.625 Y16.3505 I-0.75 J0.0
G2 X212.25 Y17.0 I0.375 J0.6495
G1 F5.0 Z-4.4
G2 F225.0 X212.625 Y17.6495 I0.75 J0.0
G2 X213.75 Y17.0 I0.375 J-0.6495
G2 X212.625 Y16.3505 I-0.75 J0.0
G2 X212.25 Y17.0 I0.375 J0.6495
G1 F5.0 Z-4.8
G2 F225.0 X212.625 Y17.6495 I0.75 J0.0
G2 X213.75 Y17.0 I0.375 J-0.6495
G2 X212.625 Y16.3505 I-0.75 J0.0
G2 X212.25 Y17.0 I0.375 J0.6495
G1 F5.0 Z-5.2
G2 F225.0 X212.625 Y17.6495 I0.75 J0.0
G2 X213.75 Y17.0 I0.375 J-0.6495
G2 X212.625 Y16.3505 I-0.75 J0.0
G2 X212.25 Y17.0 I0.375 J0.6495
G1 F5.0 Z-5.6
G2 F225.0 X212.625 Y17.6495 I0.75 J0.0
G2 X213.75 Y17.0 I0.375 J-0.6495
G2 X212.625 Y16.3505 I-0.75 J0.0
G2 X212.25 Y17.0 I0.375 J0.6495
G1 F5.0 Z-6.0
G2 F225.0 X212.625 Y17.6495 I0.75 J0.0
G2 X213.75 Y17.0 I0.375 J-0.6495
G2 X212.625 Y16.3505 I-0.75 J0.0
G2 X212.25 Y17.0 I0.375 J0.6495
G1 F5.0 Z-6.4
G2 F225.0 X212.625 Y17.6495 I0.75 J0.0
G2 X213.75 Y17.0 I0.375 J-0.6495
G2 X212.625 Y16.3505 I-0.75 J0.0
G2 X212.25 Y17.0 I0.375 J0.6495
G1 F5.0 Z-6.8
G2 F225.0 X212.625 Y17.6495 I0.75 J0.0
G2 X213.75 Y17.0 I0.375 J-0.6495
G2 X212.625 Y16.3505 I-0.75 J0.0
G2 X212.25 Y17.0 I0.375 J0.6495
G1 F5.0 Z-7.0
G2 F225.0 X212.625 Y17.6495 I0.75 J0.0
G2 X213.75 Y17.0 I0.375 J-0.6495
G2 X212.625 Y16.3505 I-0.75 J0.0
G2 X212.25 Y17.0 I0.375 J0.6495
G0 Z2.0
G0 X212.9867 Y58.6501
G0 Z1.0
G1 F5.0 Z-0.4
G2 F225.0 X212.625 Y58.7505 I0.0133 J0.7499
G2 Y60.0495 I0.375 J0.6495
G2 X213.75 Y59.4 I0.375 J-0.6495
G2 X212.9867 Y58.6501 I-0.75 J0.0
G1 F5.0 Z-0.8
G2 F225.0 X212.625 Y58.7505 I0.0133 J0.7499
G2 Y60.0495 I0.375 J0.6495
G2 X213.75 Y59.4 I0.375 J-0.6495
G2 X212.9867 Y58.6501 I-0.75 J0.0
G1 F5.0 Z-1.2
G2 F225.0 X212.625 Y58.7505 I0.0133 J0.7499
G2 Y60.0495 I0.375 J0.6495
G2 X213.75 Y59.4 I0.375 J-0.6495
G2 X212.9867 Y58.6501 I-0.75 J0.0
G1 F5.0 Z-1.6
G2 F225.0 X212.625 Y58.7505 I0.0133 J0.7499
G2 Y60.0495 I0.375 J0.6495
G2 X213.75 Y59.4 I0.375 J-0.6495
G2 X212.9867 Y58.6501 I-0.75 J0.0
G1 F5.0 Z-2.0
G2 F225.0 X212.625 Y58.7505 I0.0133 J0.7499
G2 Y60.0495 I0.375 J0.6495
G2 X213.75 Y59.4 I0.375 J-0.6495
G2 X212.9867 Y58.6501 I-0.75 J0.0
G1 F5.0 Z-2.4
G2 F225.0 X212.625 Y58.7505 I0.0133 J0.7499
G2 Y60.0495 I0.375 J0.6495
G2 X213.75 Y59.4 I0.375 J-0.6495
G2 X212.9867 Y58.6501 I-0.75 J0.0
G1 F5.0 Z-2.8
G2 F225.0 X212.625 Y58.7505 I0.0133 J0.7499
G2 Y60.0495 I0.375 J0.6495
G2 X213.75 Y59.4 I0.375 J-0.6495
G2 X212.9867 Y58.6501 I-0.75 J0.0
G1 F5.0 Z-3.2
G2 F225.0 X212.625 Y58.7505 I0.0133 J0.7499
G2 Y60.0495 I0.375 J0.6495
G2 X213.75 Y59.4 I0.375 J-0.6495
G2 X212.9867 Y58.6501 I-0.75 J0.0
G1 F5.0 Z-3.6
G2 F225.0 X212.625 Y58.7505 I0.0133 J0.7499
G2 Y60.0495 I0.375 J0.6495
G2 X213.75 Y59.4 I0.375 J-0.6495
G2 X212.9867 Y58.6501 I-0.75 J0.0
G1 F5.0 Z-4.0
G2 F225.0 X212.625 Y58.7505 I0.0133 J0.7499
G2 Y60.0495 I0.375 J0.6495
G2 X213.75 Y59.4 I0.375 J-0.6495
G2 X212.9867 Y58.6501 I-0.75 J0.0
G1 F5.0 Z-4.4
G2 F225.0 X212.625 Y58.7505 I0.0133 J0.7499
G2 Y60.0495 I0.375 J0.6495
G2 X213.75 Y59.4 I0.375 J-0.6495
G2 X212.9867 Y58.6501 I-0.75 J0.0
G1 F5.0 Z-4.8
G2 F225.0 X212.625 Y58.7505 I0.0133 J0.7499
G2 Y60.0495 I0.375 J0.6495
G2 X213.75 Y59.4 I0.375 J-0.6495
G2 X212.9867 Y58.6501 I-0.75 J0.0
G1 F5.0 Z-5.2
G2 F225.0 X212.625 Y58.7505 I0.0133 J0.7499
G2 Y60.0495 I0.375 J0.6495
G2 X213.75 Y59.4 I0.375 J-0.6495
G2 X212.9867 Y58.6501 I-0.75 J0.0
G1 F5.0 Z-5.6
G2 F225.0 X212.625 Y58.7505 I0.0133 J0.7499
G2 Y60.0495 I0.375 J0.6495
G2 X213.75 Y59.4 I0.375 J-0.6495
G2 X212.9867 Y58.6501 I-0.75 J0.0
G1 F5.0 Z-6.0
G2 F225.0 X212.625 Y58.7505 I0.0133 J0.7499
G2 Y60.0495 I0.375 J0.6495
G2 X213.75 Y59.4 I0.375 J-0.6495
G2 X212.9867 Y58.6501 I-0.75 J0.0
G1 F5.0 Z-6.4
G2 F225.0 X212.625 Y58.7505 I0.0133 J0.7499
G2 Y60.0495 I0.375 J0.6495
G2 X213.75 Y59.4 I0.375 J-0.6495
G2 X212.9867 Y58.6501 I-0.75 J0.0
G1 F5.0 Z-6.8
G2 F225.0 X212.625 Y58.7505 I0.0133 J0.7499
G2 Y60.0495 I0.375 J0.6495
G2 X213.75 Y59.4 I0.375 J-0.6495
G2 X212.9867 Y58.6501 I-0.75 J0.0
G1 F5.0 Z-7.0
G2 F225.0 X212.625 Y58.7505 I0.0133 J0.7499
G2 Y60.0495 I0.375 J0.6495
G2 X213.75 Y59.4 I0.375 J-0.6495
G2 X212.9867 Y58.6501 I-0.75 J0.0
G0 Z2.0
G0 X186.7443 Y57.206
G0 Z1.0
G1 F5.0 Z-0.4
G2 F225.0 X186.75 Y57.0 I-3.7443 J-0.206
G2 X181.125 Y53.7524 I-3.75 J0.0
G2 Y60.2476 I1.875 J3.2476
G2 X186.7443 Y57.206 I1.875 J-3.2476
G1 F5.0 Z-0.8
G2 F225.0 X186.75 Y57.0 I-3.7443 J-0.206
G2 X181.125 Y53.7524 I-3.75 J0.0
G2 Y60.2476 I1.875 J3.2476
G2 X186.7443 Y57.206 I1.875 J-3.2476
G1 F5.0 Z-1.2
G2 F225.0 X186.75 Y57.0 I-3.7443 J-0.206
G2 X181.125 Y53.7524 I-3.75 J0.0
G2 Y60.2476 I1.875 J3.2476
G2 X186.7443 Y57.206 I1.875 J-3.2476
G1 F5.0 Z-1.6
G2 F225.0 X186.75 Y57.0 I-3.7443 J-0.206
G2 X181.125 Y53.7524 I-3.75 J0.0
G2 Y60.2476 I1.875 J3.2476
G2 X186.7443 Y57.206 I1.875 J-3.2476
G1 F5.0 Z-2.0
G2 F225.0 X186.75 Y57.0 I-3.7443 J-0.206
G2 X181.125 Y53.7524 I-3.75 J0.0
G2 Y60.2476 I1.875 J3.2476
G2 X186.7443 Y57.206 I1.875 J-3.2476
G1 F5.0 Z-2.4
G2 F225.0 X186.75 Y57.0 I-3.7443 J-0.206
G2 X181.125 Y53.7524 I-3.75 J0.0
G2 Y60.2476 I1.875 J3.2476
G2 X186.7443 Y57.206 I1.875 J-3.2476
G1 F5.0 Z-2.8
G2 F225.0 X186.75 Y57.0 I-3.7443 J-0.206
G2 X181.125 Y53.7524 I-3.75 J0.0
G2 Y60.2476 I1.875 J3.2476
G2 X186.7443 Y57.206 I1.875 J-3.2476
G1 F5.0 Z-3.2
G2 F225.0 X186.75 Y57.0 I-3.7443 J-0.206
G2 X181.125 Y53.7524 I-3.75 J0.0
G2 Y60.2476 I1.875 J3.2476
G2 X186.7443 Y57.206 I1.875 J-3.2476
G1 F5.0 Z-3.6
G2 F225.0 X186.75 Y57.0 I-3.7443 J-0.206
G2 X181.125 Y53.7524 I-3.75 J0.0
G2 Y60.2476 I1.875 J3.2476
G2 X186.7443 Y57.206 I1.875 J-3.2476
G1 F5.0 Z-4.0
G2 F225.0 X186.75 Y57.0 I-3.7443 J-0.206
G2 X181.125 Y53.7524 I-3.75 J0.0
G2 Y60.2476 I1.875 J3.2476
G2 X186.7443 Y57.206 I1.875 J-3.2476
G1 F5.0 Z-4.4
G2 F225.0 X186.75 Y57.0 I-3.7443 J-0.206
G2 X181.125 Y53.7524 I-3.75 J0.0
G2 Y60.2476 I1.875 J3.2476
G2 X186.7443 Y57.206 I1.875 J-3.2476
G1 F5.0 Z-4.8
G2 F225.0 X186.75 Y57.0 I-3.7443 J-0.206
G2 X181.125 Y53.7524 I-3.75 J0.0
G2 Y60.2476 I1.875 J3.2476
G2 X186.7443 Y57.206 I1.875 J-3.2476
G1 F5.0 Z-5.2
G2 F225.0 X186.75 Y57.0 I-3.7443 J-0.206
G2 X181.125 Y53.7524 I-3.75 J0.0
G2 Y60.2476 I1.875 J3.2476
G2 X186.7443 Y57.206 I1.875 J-3.2476
G1 F5.0 Z-5.6
G2 F225.0 X186.75 Y57.0 I-3.7443 J-0.206
G2 X181.125 Y53.7524 I-3.75 J0.0
G2 Y60.2476 I1.875 J3.2476
G2 X186.7443 Y57.206 I1.875 J-3.2476
G1 F5.0 Z-6.0
G2 F225.0 X186.75 Y57.0 I-3.7443 J-0.206
G2 X181.125 Y53.7524 I-3.75 J0.0
G2 Y60.2476 I1.875 J3.2476
G2 X186.7443 Y57.206 I1.875 J-3.2476
G1 F5.0 Z-6.4
G2 F225.0 X186.75 Y57.0 I-3.7443 J-0.206
G2 X181.125 Y53.7524 I-3.75 J0.0
G2 Y60.2476 I1.875 J3.2476
G2 X186.7443 Y57.206 I1.875 J-3.2476
G1 F5.0 Z-6.8
G2 F225.0 X186.75 Y57.0 I-3.7443 J-0.206
G2 X181.125 Y53.7524 I-3.75 J0.0
G2 Y60.2476 I1.875 J3.2476
G2 X186.7443 Y57.206 I1.875 J-3.2476
G1 F5.0 Z-7.0
G2 F225.0 X186.75 Y57.0 I-3.7443 J-0.206
G2 X181.125 Y53.7524 I-3.75 J0.0
G2 Y60.2476 I1.875 J3.2476
G2 X186.7443 Y57.206 I1.875 J-3.2476
G0 Z2.0
G0 X192.7965 Y78.6781
G0 Z1.0
G1 F5.0 Z-0.4
G2 F225.0 X192.625 Y78.7505 I0.2035 J0.7219
G2 Y80.0495 I0.375 J0.6495
G2 X193.75 Y79.4 I0.375 J-0.6495
G2 X192.7965 Y78.6781 I-0.75 J0.0
G1 F5.0 Z-0.8
G2 F225.0 X192.625 Y78.7505 I0.2035 J0.7219
G2 Y80.0495 I0.375 J0.6495
G2 X193.75 Y79.4 I0.375 J-0.6495
G2 X192.7965 Y78.6781 I-0.75 J0.0
G1 F5.0 Z-1.2
G2 F225.0 X192.625 Y78.7505 I0.2035 J0.7219
G2 Y80.0495 I0.375 J0.6495
G2 X193.75 Y79.4 I0.375 J-0.6495
G2 X192.7965 Y78.6781 I-0.75 J0.0
G1 F5.0 Z-1.6
G2 F225.0 X192.625 Y78.7505 I0.2035 J0.7219
G2 Y80.0495 I0.375 J0.6495
G2 X193.75 Y79.4 I0.375 J-0.6495
G2 X192.7965 Y78.6781 I-0.75 J0.0
G1 F5.0 Z-2.0
G2 F225.0 X192.625 Y78.7505 I0.2035 J0.7219
G2 Y80.0495 I0.375 J0.6495
G2 X193.75 Y79.4 I0.375 J-0.6495
G2 X192.7965 Y78.6781 I-0.75 J0.0
G1 F5.0 Z-2.4
G2 F225.0 X192.625 Y78.7505 I0.2035 J0.7219
G2 Y80.0495 I0.375 J0.6495
G2 X193.75 Y79.4 I0.375 J-0.6495
G2 X192.7965 Y78.6781 I-0.75 J0.0
G1 F5.0 Z-2.8
G2 F225.0 X192.625 Y78.7505 I0.2035 J0.7219
G2 Y80.0495 I0.375 J0.6495
G2 X193.75 Y79.4 I0.375 J-0.6495
G2 X192.7965 Y78.6781 I-0.75 J0.0
G1 F5.0 Z-3.2
G2 F225.0 X192.625 Y78.7505 I0.2035 J0.7219
G2 Y80.0495 I0.375 J0.6495
G2 X193.75 Y79.4 I0.375 J-0.6495
G2 X192.7965 Y78.6781 I-0.75 J0.0
G1 F5.0 Z-3.6
G2 F225.0 X192.625 Y78.7505 I0.2035 J0.7219
G2 Y80.0495 I0.375 J0.6495
G2 X193.75 Y79.4 I0.375 J-0.6495
G2 X192.7965 Y78.6781 I-0.75 J0.0
G1 F5.0 Z-4.0
G2 F225.0 X192.625 Y78.7505 I0.2035 J0.7219
G2 Y80.0495 I0.375 J0.6495
G2 X193.75 Y79.4 I0.375 J-0.6495
G2 X192.7965 Y78.6781 I-0.75 J0.0
G1 F5.0 Z-4.4
G2 F225.0 X192.625 Y78.7505 I0.2035 J0.7219
G2 Y80.0495 I0.375 J0.6495
G2 X193.75 Y79.4 I0.375 J-0.6495
G2 X192.7965 Y78.6781 I-0.75 J0.0
G1 F5.0 Z-4.8
G2 F225.0 X192.625 Y78.7505 I0.2035 J0.7219
G2 Y80.0495 I0.375 J0.6495
G2 X193.75 Y79.4 I0.375 J-0.6495
G2 X192.7965 Y78.6781 I-0.75 J0.0
G1 F5.0 Z-5.2
G2 F225.0 X192.625 Y78.7505 I0.2035 J0.7219
G2 Y80.0495 I0.375 J0.6495
G2 X193.75 Y79.4 I0.375 J-0.6495
G2 X192.7965 Y78.6781 I-0.75 J0.0
G1 F5.0 Z-5.6
G2 F225.0 X192.625 Y78.7505 I0.2035 J0.7219
G2 Y80.0495 I0.375 J0.6495
G2 X193.75 Y79.4 I0.375 J-0.6495
G2 X192.7965 Y78.6781 I-0.75 J0.0
G1 F5.0 Z-6.0
G2 F225.0 X192.625 Y78.7505 I0.2035 J0.7219
G2 Y80.0495 I0.375 J0.6495
G2 X193.75 Y79.4 I0.375 J-0.6495
G2 X192.7965 Y78.6781 I-0.75 J0.0
G1 F5.0 Z-6.4
G2 F225.0 X192.625 Y78.7505 I0.2035 J0.7219
G2 Y80.0495 I0.375 J0.6495
G2 X193.75 Y79.4 I0.375 J-0.6495
G2 X192.7965 Y78.6781 I-0.75 J0.0
G1 F5.0 Z-6.8
G2 F225.0 X192.625 Y78.7505 I0.2035 J0.7219
G2 Y80.0495 I0.375 J0.6495
G2 X193.75 Y79.4 I0.375 J-0.6495
G2 X192.7965 Y78.6781 I-0.75 J0.0
G1 F5.0 Z-7.0
G2 F225.0 X192.625 Y78.7505 I0.2035 J0.7219
G2 Y80.0495 I0.375 J0.6495
G2 X193.75 Y79.4 I0.375 J-0.6495
G2 X192.7965 Y78.6781 I-0.75 J0.0
G0 Z2.0
G0 X173.7495 Y79.3727
G0 Z1.0
G1 F5.0 Z-0.4
G2 F225.0 X172.625 Y78.7505 I-0.7495 J0.0273
G2 Y80.0495 I0.375 J0.6495
G2 X173.75 Y79.4 I0.375 J-0.6495
G2 X173.7495 Y79.3727 I-0.75 J0.0
G1 F5.0 Z-0.8
G2 F225.0 X172.625 Y78.7505 I-0.7495 J0.0273
G2 Y80.0495 I0.375 J0.6495
G2 X173.75 Y79.4 I0.375 J-0.6495
G2 X173.7495 Y79.3727 I-0.75 J0.0
G1 F5.0 Z-1.2
G2 F225.0 X172.625 Y78.7505 I-0.7495 J0.0273
G2 Y80.0495 I0.375 J0.6495
G2 X173.75 Y79.4 I0.375 J-0.6495
G2 X173.7495 Y79.3727 I-0.75 J0.0
G1 F5.0 Z-1.6
G2 F225.0 X172.625 Y78.7505 I-0.7495 J0.0273
G2 Y80.0495 I0.375 J0.6495
G2 X173.75 Y79.4 I0.375 J-0.6495
G2 X173.7495 Y79.3727 I-0.75 J0.0
G1 F5.0 Z-2.0
G2 F225.0 X172.625 Y78.7505 I-0.7495 J0.0273
G2 Y80.0495 I0.375 J0.6495
G2 X173.75 Y79.4 I0.375 J-0.6495
G2 X173.7495 Y79.3727 I-0.75 J0.0
G1 F5.0 Z-2.4
G2 F225.0 X172.625 Y78.7505 I-0.7495 J0.0273
G2 Y80.0495 I0.375 J0.6495
G2 X173.75 Y79.4 I0.375 J-0.6495
G2 X173.7495 Y79.3727 I-0.75 J0.0
G1 F5.0 Z-2.8
G2 F225.0 X172.625 Y78.7505 I-0.7495 J0.0273
G2 Y80.0495 I0.375 J0.6495
G2 X173.75 Y79.4 I0.375 J-0.6495
G2 X173.7495 Y79.3727 I-0.75 J0.0
G1 F5.0 Z-3.2
G2 F225.0 X172.625 Y78.7505 I-0.7495 J0.0273
G2 Y80.0495 I0.375 J0.6495
G2 X173.75 Y79.4 I0.375 J-0.6495
G2 X173.7495 Y79.3727 I-0.75 J0.0
G1 F5.0 Z-3.6
G2 F225.0 X172.625 Y78.7505 I-0.7495 J0.0273
G2 Y80.0495 I0.375 J0.6495
G2 X173.75 Y79.4 I0.375 J-0.6495
G2 X173.7495 Y79.3727 I-0.75 J0.0
G1 F5.0 Z-4.0
G2 F225.0 X172.625 Y78.7505 I-0.7495 J0.0273
G2 Y80.0495 I0.375 J0.6495
G2 X173.75 Y79.4 I0.375 J-0.6495
G2 X173.7495 Y79.3727 I-0.75 J0.0
G1 F5.0 Z-4.4
G2 F225.0 X172.625 Y78.7505 I-0.7495 J0.0273
G2 Y80.0495 I0.375 J0.6495
G2 X173.75 Y79.4 I0.375 J-0.6495
G2 X173.7495 Y79.3727 I-0.75 J0.0
G1 F5.0 Z-4.8
G2 F225.0 X172.625 Y78.7505 I-0.7495 J0.0273
G2 Y80.0495 I0.375 J0.6495
G2 X173.75 Y79.4 I0.375 J-0.6495
G2 X173.7495 Y79.3727 I-0.75 J0.0
G1 F5.0 Z-5.2
G2 F225.0 X172.625 Y78.7505 I-0.7495 J0.0273
G2 Y80.0495 I0.375 J0.6495
G2 X173.75 Y79.4 I0.375 J-0.6495
G2 X173.7495 Y79.3727 I-0.75 J0.0
G1 F5.0 Z-5.6
G2 F225.0 X172.625 Y78.7505 I-0.7495 J0.0273
G2 Y80.0495 I0.375 J0.6495
G2 X173.75 Y79.4 I0.375 J-0.6495
G2 X173.7495 Y79.3727 I-0.75 J0.0
G1 F5.0 Z-6.0
G2 F225.0 X172.625 Y78.7505 I-0.7495 J0.0273
G2 Y80.0495 I0.375 J0.6495
G2 X173.75 Y79.4 I0.375 J-0.6495
G2 X173.7495 Y79.3727 I-0.75 J0.0
G1 F5.0 Z-6.4
G2 F225.0 X172.625 Y78.7505 I-0.7495 J0.0273
G2 Y80.0495 I0.375 J0.6495
G2 X173.75 Y79.4 I0.375 J-0.6495
G2 X173.7495 Y79.3727 I-0.75 J0.0
G1 F5.0 Z-6.8
G2 F225.0 X172.625 Y78.7505 I-0.7495 J0.0273
G2 Y80.0495 I0.375 J0.6495
G2 X173.75 Y79.4 I0.375 J-0.6495
G2 X173.7495 Y79.3727 I-0.75 J0.0
G1 F5.0 Z-7.0
G2 F225.0 X172.625 Y78.7505 I-0.7495 J0.0273
G2 Y80.0495 I0.375 J0.6495
G2 X173.75 Y79.4 I0.375 J-0.6495
G2 X173.7495 Y79.3727 I-0.75 J0.0
G0 Z2.0
G0 X153.5403 Y59.9201
G0 Z1.0
G1 F5.0 Z-0.4
G2 F225.0 X153.75 Y59.4 I-0.5403 J-0.5201
G2 X152.625 Y58.7505 I-0.75 J0.0
G2 Y60.0495 I0.375 J0.6495
G2 X153.5403 Y59.9201 I0.375 J-0.6495
G1 F5.0 Z-0.8
G2 F225.0 X153.75 Y59.4 I-0.5403 J-0.5201
G2 X152.625 Y58.7505 I-0.75 J0.0
G2 Y60.0495 I0.375 J0.6495
G2 X153.5403 Y59.9201 I0.375 J-0.6495
G1 F5.0 Z-1.2
G2 F225.0 X153.75 Y59.4 I-0.5403 J-0.5201
G2 X152.625 Y58.7505 I-0.75 J0.0
G2 Y60.0495 I0.375 J0.6495
G2 X153.5403 Y59.9201 I0.375 J-0.6495
G1 F5.0 Z-1.6
G2 F225.0 X153.75 Y59.4 I-0.5403 J-0.5201
G2 X152.625 Y58.7505 I-0.75 J0.0
G2 Y60.0495 I0.375 J0.6495
G2 X153.5403 Y59.9201 I0.375 J-0.6495
G1 F5.0 Z-2.0
G2 F225.0 X153.75 Y59.4 I-0.5403 J-0.5201
G2 X152.625 Y58.7505 I-0.75 J0.0
G2 Y60.0495 I0.375 J0.6495
G2 X153.5403 Y59.9201 I0.375 J-0.6495
G1 F5.0 Z-2.4
G2 F225.0 X153.75 Y59.4 I-0.5403 J-0.5201
G2 X152.625 Y58.7505 I-0.75 J0.0
G2 Y60.0495 I0.375 J0.6495
G2 X153.5403 Y59.9201 I0.375 J-0.6495
G1 F5.0 Z-2.8
G2 F225.0 X153.75 Y59.4 I-0.5403 J-0.5201
G2 X152.625 Y58.7505 I-0.75 J0.0
G2 Y60.0495 I0.375 J0.6495
G2 X153.5403 Y59.9201 I0.375 J-0.6495
G1 F5.0 Z-3.2
G2 F225.0 X153.75 Y59.4 I-0.5403 J-0.5201
G2 X152.625 Y58.7505 I-0.75 J0.0
G2 Y60.0495 I0.375 J0.6495
G2 X153.5403 Y59.9201 I0.375 J-0.6495
G1 F5.0 Z-3.6
G2 F225.0 X153.75 Y59.4 I-0.5403 J-0.5201
G2 X152.625 Y58.7505 I-0.75 J0.0
G2 Y60.0495 I0.375 J0.6495
G2 X153.5403 Y59.9201 I0.375 J-0.6495
G1 F5.0 Z-4.0
G2 F225.0 X153.75 Y59.4 I-0.5403 J-0.5201
G2 X152.625 Y58.7505 I-0.75 J0.0
G2 Y60.0495 I0.375 J0.6495
G2 X153.5403 Y59.9201 I0.375 J-0.6495
G1 F5.0 Z-4.4
G2 F225.0 X153.75 Y59.4 I-0.5403 J-0.5201
G2 X152.625 Y58.7505 I-0.75 J0.0
G2 Y60.0495 I0.375 J0.6495
G2 X153.5403 Y59.9201 I0.375 J-0.6495
G1 F5.0 Z-4.8
G2 F225.0 X153.75 Y59.4 I-0.5403 J-0.5201
G2 X152.625 Y58.7505 I-0.75 J0.0
G2 Y60.0495 I0.375 J0.6495
G2 X153.5403 Y59.9201 I0.375 J-0.6495
G1 F5.0 Z-5.2
G2 F225.0 X153.75 Y59.4 I-0.5403 J-0.5201
G2 X152.625 Y58.7505 I-0.75 J0.0
G2 Y60.0495 I0.375 J0.6495
G2 X153.5403 Y59.9201 I0.375 J-0.6495
G1 F5.0 Z-5.6
G2 F225.0 X153.75 Y59.4 I-0.5403 J-0.5201
G2 X152.625 Y58.7505 I-0.75 J0.0
G2 Y60.0495 I0.375 J0.6495
G2 X153.5403 Y59.9201 I0.375 J-0.6495
G1 F5.0 Z-6.0
G2 F225.0 X153.75 Y59.4 I-0.5403 J-0.5201
G2 X152.625 Y58.7505 I-0.75 J0.0
G2 Y60.0495 I0.375 J0.6495
G2 X153.5403 Y59.9201 I0.375 J-0.6495
G1 F5.0 Z-6.4
G2 F225.0 X153.75 Y59.4 I-0.5403 J-0.5201
G2 X152.625 Y58.7505 I-0.75 J0.0
G2 Y60.0495 I0.375 J0.6495
G2 X153.5403 Y59.9201 I0.375 J-0.6495
G1 F5.0 Z-6.8
G2 F225.0 X153.75 Y59.4 I-0.5403 J-0.5201
G2 X152.625 Y58.7505 I-0.75 J0.0
G2 Y60.0495 I0.375 J0.6495
G2 X153.5403 Y59.9201 I0.375 J-0.6495
G1 F5.0 Z-7.0
G2 F225.0 X153.75 Y59.4 I-0.5403 J-0.5201
G2 X152.625 Y58.7505 I-0.75 J0.0
G2 Y60.0495 I0.375 J0.6495
G2 X153.5403 Y59.9201 I0.375 J-0.6495
( Bearing Pocket )
S1000
G0 Z2.0
G0 X189.277 Y57.0
G0 Z1.0
G1 F5.0 Z0.0
G2 F225.0 X179.8615 Y51.564 Z-0.1333 I-6.277 J0.0
G2 Y62.436 Z-0.2667 I3.1385 J5.436
G2 X189.277 Y57.0 Z-0.4 I3.1385 J-5.436
G2 X179.8615 Y51.564 Z-0.5333 I-6.277 J0.0
G2 Y62.436 Z-0.6667 I3.1385 J5.436
G2 X189.277 Y57.0 Z-0.8 I3.1385 J-5.436
G2 X179.8615 Y51.564 Z-0.9333 I-6.277 J0.0
G2 Y62.436 Z-1.0667 I3.1385 J5.436
G2 X189.277 Y57.0 Z-1.2 I3.1385 J-5.436
G2 X179.8615 Y51.564 Z-1.3333 I-6.277 J0.0
G2 Y62.436 Z-1.4667 I3.1385 J5.436
G2 X189.277 Y57.0 Z-1.6 I3.1385 J-5.436
G2 X179.8615 Y51.564 Z-1.7333 I-6.277 J0.0
G2 Y62.436 Z-1.8667 I3.1385 J5.436
G2 X189.277 Y57.0 Z-2.0 I3.1385 J-5.436
G2 X179.8615 Y51.564 Z-2.1333 I-6.277 J0.0
G2 Y62.436 Z-2.2667 I3.1385 J5.436
G2 X189.277 Y57.0 Z-2.4 I3.1385 J-5.436
G2 X179.8615 Y51.564 Z-2.5333 I-6.277 J0.0
G2 Y62.436 Z-2.6667 I3.1385 J5.436
G2 X189.277 Y57.0 Z-2.8 I3.1385 J-5.436
G2 X179.8615 Y51.564 Z-2.9333 I-6.277 J0.0
G2 Y62.436 Z-3.0667 I3.1385 J5.436
G2 X189.277 Y57.0 Z-3.2 I3.1385 J-5.436
G2 X179.8615 Y51.564 Z-3.3333 I-6.277 J0.0
G2 Y62.436 Z-3.4667 I3.1385 J5.436
G2 X189.277 Y57.0 Z-3.6 I3.1385 J-5.436
G2 X179.8615 Y51.564 I-6.277 J0.0
G2 Y62.436 I3.1385 J5.436
G2 X189.277 Y57.0 I3.1385 J-5.436
( Profile2 )
S1000
G0 Z2.0
G0 X26.41 Y109.0
G0 Z1.0
G1 F5.0 Z-0.4
G1 F225.0 Y123.0
G2 X27.26 Y123.85 I0.85 J0.0
G1 X56.26
G2 X57.11 Y123.0 I0.0 J-0.85
G1 Y109.0
G2 X56.26 Y108.15 I-0.85 J0.0
G1 X27.26
G2 X26.41 Y109.0 I0.0 J0.85
G1 X26.01
G1 Y123.0
G2 X27.26 Y124.25 I1.25 J0.0
G1 X56.26
G2 X57.51 Y123.0 I0.0 J-1.25
G1 Y109.0
G2 X56.26 Y107.75 I-1.25 J0.0
G1 X27.26
G2 X26.01 Y109.0 I0.0 J1.25
G1 F5.0 X26.41
G1 Z-0.8
G1 F225.0 Y123.0
G2 X27.26 Y123.85 I0.85 J0.0
G1 X56.26
G2 X57.11 Y123.0 I0.0 J-0.85
G1 Y109.0
G2 X56.26 Y108.15 I-0.85 J0.0
G1 X27.26
G2 X26.41 Y109.0 I0.0 J0.85
G1 X26.01
G1 Y123.0
G2 X27.26 Y124.25 I1.25 J0.0
G1 X56.26
G2 X57.51 Y123.0 I0.0 J-1.25
G1 Y109.0
G2 X56.26 Y107.75 I-1.25 J0.0
G1 X27.26
G2 X26.01 Y109.0 I0.0 J1.25
G1 F5.0 X26.41
G1 Z-1.2
G1 F225.0 Y123.0
G2 X27.26 Y123.85 I0.85 J0.0
G1 X56.26
G2 X57.11 Y123.0 I0.0 J-0.85
G1 Y109.0
G2 X56.26 Y108.15 I-0.85 J0.0
G1 X27.26
G2 X26.41 Y109.0 I0.0 J0.85
G1 X26.01
G1 Y123.0
G2 X27.26 Y124.25 I1.25 J0.0
G1 X56.26
G2 X57.51 Y123.0 I0.0 J-1.25
G1 Y109.0
G2 X56.26 Y107.75 I-1.25 J0.0
G1 X27.26
G2 X26.01 Y109.0 I0.0 J1.25
G1 F5.0 X26.41
G1 Z-1.6
G1 F225.0 Y123.0
G2 X27.26 Y123.85 I0.85 J0.0
G1 X56.26
G2 X57.11 Y123.0 I0.0 J-0.85
G1 Y109.0
G2 X56.26 Y108.15 I-0.85 J0.0
G1 X27.26
G2 X26.41 Y109.0 I0.0 J0.85
G1 X26.01
G1 Y123.0
G2 X27.26 Y124.25 I1.25 J0.0
G1 X56.26
G2 X57.51 Y123.0 I0.0 J-1.25
G1 Y109.0
G2 X56.26 Y107.75 I-1.25 J0.0
G1 X27.26
G2 X26.01 Y109.0 I0.0 J1.25
G1 F5.0 X26.41
G1 Z-2.0
G1 F225.0 Y123.0
G2 X27.26 Y123.85 I0.85 J0.0
G1 X56.26
G2 X57.11 Y123.0 I0.0 J-0.85
G1 Y109.0
G2 X56.26 Y108.15 I-0.85 J0.0
G1 X27.26
G2 X26.41 Y109.0 I0.0 J0.85
G1 X26.01
G1 Y123.0
G2 X27.26 Y124.25 I1.25 J0.0
G1 X56.26
G2 X57.51 Y123.0 I0.0 J-1.25
G1 Y109.0
G2 X56.26 Y107.75 I-1.25 J0.0
G1 X27.26
G2 X26.01 Y109.0 I0.0 J1.25
G1 F5.0 X26.41
G1 Z-2.4
G1 F225.0 Y123.0
G2 X27.26 Y123.85 I0.85 J0.0
G1 X56.26
G2 X57.11 Y123.0 I0.0 J-0.85
G1 Y109.0
G2 X56.26 Y108.15 I-0.85 J0.0
G1 X27.26
G2 X26.41 Y109.0 I0.0 J0.85
G1 X26.01
G1 Y123.0
G2 X27.26 Y124.25 I1.25 J0.0
G1 X56.26
G2 X57.51 Y123.0 I0.0 J-1.25
G1 Y109.0
G2 X56.26 Y107.75 I-1.25 J0.0
G1 X27.26
G2 X26.01 Y109.0 I0.0 J1.25
G1 F5.0 X26.41
G1 Z-2.8
G1 F225.0 Y123.0
G2 X27.26 Y123.85 I0.85 J0.0
G1 X56.26
G2 X57.11 Y123.0 I0.0 J-0.85
G1 Y109.0
G2 X56.26 Y108.15 I-0.85 J0.0
G1 X27.26
G2 X26.41 Y109.0 I0.0 J0.85
G1 X26.01
G1 Y123.0
G2 X27.26 Y124.25 I1.25 J0.0
G1 X56.26
G2 X57.51 Y123.0 I0.0 J-1.25
G1 Y109.0
G2 X56.26 Y107.75 I-1.25 J0.0
G1 X27.26
G2 X26.01 Y109.0 I0.0 J1.25
G1 F5.0 X26.41
G1 Z-3.2
G1 F225.0 Y123.0
G2 X27.26 Y123.85 I0.85 J0.0
G1 X56.26
G2 X57.11 Y123.0 I0.0 J-0.85
G1 Y109.0
G2 X56.26 Y108.15 I-0.85 J0.0
G1 X27.26
G2 X26.41 Y109.0 I0.0 J0.85
G1 X26.01
G1 Y123.0
G2 X27.26 Y124.25 I1.25 J0.0
G1 X56.26
G2 X57.51 Y123.0 I0.0 J-1.25
G1 Y109.0
G2 X56.26 Y107.75 I-1.25 J0.0
G1 X27.26
G2 X26.01 Y109.0 I0.0 J1.25
G1 F5.0 X26.41
G1 Z-3.6
G1 F225.0 Y123.0
G2 X27.26 Y123.85 I0.85 J0.0
G1 X56.26
G2 X57.11 Y123.0 I0.0 J-0.85
G1 Y109.0
G2 X56.26 Y108.15 I-0.85 J0.0
G1 X27.26
G2 X26.41 Y109.0 I0.0 J0.85
G1 X26.01
G1 Y123.0
G2 X27.26 Y124.25 I1.25 J0.0
G1 X56.26
G2 X57.51 Y123.0 I0.0 J-1.25
G1 Y109.0
G2 X56.26 Y107.75 I-1.25 J0.0
G1 X27.26
G2 X26.01 Y109.0 I0.0 J1.25
G1 F5.0 X26.41
G1 Z-4.0
G1 F225.0 Y123.0
G2 X27.26 Y123.85 I0.85 J0.0
G1 X56.26
G2 X57.11 Y123.0 I0.0 J-0.85
G1 Y109.0
G2 X56.26 Y108.15 I-0.85 J0.0
G1 X27.26
G2 X26.41 Y109.0 I0.0 J0.85
G1 X26.01
G1 Y123.0
G2 X27.26 Y124.25 I1.25 J0.0
G1 X56.26
G2 X57.51 Y123.0 I0.0 J-1.25
G1 Y109.0
G2 X56.26 Y107.75 I-1.25 J0.0
G1 X27.26
G2 X26.01 Y109.0 I0.0 J1.25
G1 F5.0 X26.41
G1 Z-4.4
G1 F225.0 Y123.0
G2 X27.26 Y123.85 I0.85 J0.0
G1 X31.51
G1 X33.01 Z-4.0
G1 X36.51
G1 X38.01 Z-4.4
G1 X56.26
G2 X57.11 Y123.0 I0.0 J-0.85
G1 Y109.0
G2 X56.26 Y108.15 I-0.85 J0.0
G1 X52.01
G1 X50.51 Z-4.0
G1 X47.01
G1 X45.51 Z-4.4
G1 X27.26
G2 X26.41 Y109.0 I0.0 J0.85
G1 X26.01
G1 Y123.0
G2 X27.26 Y124.25 I1.25 J0.0
G1 X31.51
G1 X33.01 Z-4.0
G1 X36.51
G1 X38.01 Z-4.4
G1 X56.26
G2 X57.51 Y123.0 I0.0 J-1.25
G1 Y109.0
G2 X56.26 Y107.75 I-1.25 J0.0
G1 X52.01
G1 X50.51 Z-4.0
G1 X47.01
G1 X45.51 Z-4.4
G1 X27.26
G2 X26.01 Y109.0 I0.0 J1.25
G1 F5.0 X26.41
G1 Z-4.8
G1 F225.0 Y123.0
G2 X27.26 Y123.85 I0.85 J0.0
G1 X31.51
G1 X33.01 Z-4.0
G1 X36.51
G1 X38.01 Z-4.8
G1 X56.26
G2 X57.11 Y123.0 I0.0 J-0.85
G1 Y109.0
G2 X56.26 Y108.15 I-0.85 J0.0
G1 X52.01
G1 X50.51 Z-4.0
G1 X47.01
G1 X45.51 Z-4.8
G1 X27.26
G2 X26.41 Y109.0 I0.0 J0.85
G1 X26.01
G1 Y123.0
G2 X27.26 Y124.25 I1.25 J0.0
G1 X31.51
G1 X33.01 Z-4.0
G1 X36.51
G1 X38.01 Z-4.8
G1 X56.26
G2 X57.51 Y123.0 I0.0 J-1.25
G1 Y109.0
G2 X56.26 Y107.75 I-1.25 J0.0
G1 X52.01
G1 X50.51 Z-4.0
G1 X47.01
G1 X45.51 Z-4.8
G1 X27.26
G2 X26.01 Y109.0 I0.0 J1.25
G1 F5.0 X26.41
G1 Z-5.2
G1 F225.0 Y123.0
G2 X27.26 Y123.85 I0.85 J0.0
G1 X31.51
G1 X33.01 Z-4.0
G1 X36.51
G1 X38.01 Z-5.2
G1 X56.26
G2 X57.11 Y123.0 I0.0 J-0.85
G1 Y109.0
G2 X56.26 Y108.15 I-0.85 J0.0
G1 X52.01
G1 X50.51 Z-4.0
G1 X47.01
G1 X45.51 Z-5.2
G1 X27.26
G2 X26.41 Y109.0 I0.0 J0.85
G1 X26.01
G1 Y123.0
G2 X27.26 Y124.25 I1.25 J0.0
G1 X31.51
G1 X33.01 Z-4.0
G1 X36.51
G1 X38.01 Z-5.2
G1 X56.26
G2 X57.51 Y123.0 I0.0 J-1.25
G1 Y109.0
G2 X56.26 Y107.75 I-1.25 J0.0
G1 X52.01
G1 X50.51 Z-4.0
G1 X47.01
G1 X45.51 Z-5.2
G1 X27.26
G2 X26.01 Y109.0 I0.0 J1.25
G1 F5.0 X26.41
G1 Z-5.6
G1 F225.0 Y123.0
G2 X27.26 Y123.85 I0.85 J0.0
G1 X31.51
G1 X33.01 Z-4.0
G1 X36.51
G1 X38.01 Z-5.6
G1 X56.26
G2 X57.11 Y123.0 I0.0 J-0.85
G1 Y109.0
G2 X56.26 Y108.15 I-0.85 J0.0
G1 X52.01
G1 X50.51 Z-4.0
G1 X47.01
G1 X45.51 Z-5.6
G1 X27.26
G2 X26.41 Y109.0 I0.0 J0.85
G1 X26.01
G1 Y123.0
G2 X27.26 Y124.25 I1.25 J0.0
G1 X31.51
G1 X33.01 Z-4.0
G1 X36.51
G1 X38.01 Z-5.6
G1 X56.26
G2 X57.51 Y123.0 I0.0 J-1.25
G1 Y109.0
G2 X56.26 Y107.75 I-1.25 J0.0
G1 X52.01
G1 X50.51 Z-4.0
G1 X47.01
G1 X45.51 Z-5.6
G1 X27.26
G2 X26.01 Y109.0 I0.0 J1.25
G1 F5.0 X26.41
G1 Z-6.0
G1 F225.0 Y123.0
G2 X27.26 Y123.85 I0.85 J0.0
G1 X31.51
G1 X33.01 Z-4.0
G1 X36.51
G1 X38.01 Z-6.0
G1 X56.26
G2 X57.11 Y123.0 I0.0 J-0.85
G1 Y109.0
G2 X56.26 Y108.15 I-0.85 J0.0
G1 X52.01
G1 X50.51 Z-4.0
G1 X47.01
G1 X45.51 Z-6.0
G1 X27.26
G2 X26.41 Y109.0 I0.0 J0.85
G1 X26.01
G1 Y123.0
G2 X27.26 Y124.25 I1.25 J0.0
G1 X31.51
G1 X33.01 Z-4.0
G1 X36.51
G1 X38.01 Z-6.0
G1 X56.26
G2 X57.51 Y123.0 I0.0 J-1.25
G1 Y109.0
G2 X56.26 Y107.75 I-1.25 J0.0
G1 X52.01
G1 X50.51 Z-4.0
G1 X47.01
G1 X45.51 Z-6.0
G1 X27.26
G2 X26.01 Y109.0 I0.0 J1.25
G1 F5.0 X26.41
G1 Z-6.4
G1 F225.0 Y123.0
G2 X27.26 Y123.85 I0.85 J0.0
G1 X31.51
G1 X33.01 Z-4.0
G1 X36.51
G1 X38.01 Z-6.4
G1 X56.26
G2 X57.11 Y123.0 I0.0 J-0.85
G1 Y109.0
G2 X56.26 Y108.15 I-0.85 J0.0
G1 X52.01
G1 X50.51 Z-4.0
G1 X47.01
G1 X45.51 Z-6.4
G1 X27.26
G2 X26.41 Y109.0 I0.0 J0.85
G1 X26.01
G1 Y123.0
G2 X27.26 Y124.25 I1.25 J0.0
G1 X31.51
G1 X33.01 Z-4.0
G1 X36.51
G1 X38.01 Z-6.4
G1 X56.26
G2 X57.51 Y123.0 I0.0 J-1.25
G1 Y109.0
G2 X56.26 Y107.75 I-1.25 J0.0
G1 X52.01
G1 X50.51 Z-4.0
G1 X47.01
G1 X45.51 Z-6.4
G1 X27.26
G2 X26.01 Y109.0 I0.0 J1.25
G1 F5.0 X26.41
G1 Z-6.8
G1 F225.0 Y123.0
G2 X27.26 Y123.85 I0.85 J0.0
G1 X31.51
G1 X33.01 Z-4.0
G1 X36.51
G1 X38.01 Z-6.8
G1 X56.26
G2 X57.11 Y123.0 I0.0 J-0.85
G1 Y109.0
G2 X56.26 Y108.15 I-0.85 J0.0
G1 X52.01
G1 X50.51 Z-4.0
G1 X47.01
G1 X45.51 Z-6.8
G1 X27.26
G2 X26.41 Y109.0 I0.0 J0.85
G1 X26.01
G1 Y123.0
G2 X27.26 Y124.25 I1.25 J0.0
G1 X31.51
G1 X33.01 Z-4.0
G1 X36.51
G1 X38.01 Z-6.8
G1 X56.26
G2 X57.51 Y123.0 I0.0 J-1.25
G1 Y109.0
G2 X56.26 Y107.75 I-1.25 J0.0
G1 X52.01
G1 X50.51 Z-4.0
G1 X47.01
G1 X45.51 Z-6.8
G1 X27.26
G2 X26.01 Y109.0 I0.0 J1.25
G1 F5.0 X26.41
G1 Z-7.0
G1 F225.0 Y123.0
G2 X27.26 Y123.85 I0.85 J0.0
G1 X31.51
G1 X33.01 Z-4.0
G1 X36.51
G1 X38.01 Z-7.0
G1 X56.26
G2 X57.11 Y123.0 I0.0 J-0.85
G1 Y109.0
G2 X56.26 Y108.15 I-0.85 J0.0
G1 X52.01
G1 X50.51 Z-4.0
G1 X47.01
G1 X45.51 Z-7.0
G1 X27.26
G2 X26.41 Y109.0 I0.0 J0.85
G1 X26.01
G1 Y123.0
G2 X27.26 Y124.25 I1.25 J0.0
G1 X31.51
G1 X33.01 Z-4.0
G1 X36.51
G1 X38.01 Z-7.0
G1 X56.26
G2 X57.51 Y123.0 I0.0 J-1.25
G1 Y109.0
G2 X56.26 Y107.75 I-1.25 J0.0
G1 X52.01
G1 X50.51 Z-4.0
G1 X47.01
G1 X45.51 Z-7.0
G1 X27.26
G2 X26.01 Y109.0 I0.0 J1.25
( Profile1 )
S1000
G0 Z2.0
G0 X217.9994 Y91.55
G0 Z1.0
G1 F5.0 Z-0.4
G2 F225.0 X198.4259 Y93.4009 I-0.0313 J104.0912
G1 X198.4255 Y93.401
G2 X190.0609 Y95.3628 I19.3469 J101.3025
G1 X190.061 Y95.3627
G1 X190.0609 Y95.3628
G2 X174.926 Y100.8434 I28.7266 J102.9663
G3 X174.9014 Y100.8543 I-0.8822 J-1.9607
G2 X174.7479 Y100.9235 I2.5761 J5.9225
G3 X174.7254 Y100.9338 I-0.9087 J-1.9485
G2 X162.3072 Y107.5185 I46.2326 J102.193
G3 X162.3044 Y107.5203 I-1.1242 J-1.8326
G2 X161.0021 Y108.3302 I51.9139 J84.9211
G3 X161.0014 Y108.3307 I-1.1495 J-1.8169
G2 X151.1046 Y115.3152 I63.6708 J100.7234
G3 X151.1026 Y115.3167 I-1.3274 J-1.6913
G2 X149.0385 Y116.9729 I68.4278 J87.3991
G3 X149.0376 Y116.9736 I-1.3654 J-1.6608
G2 X141.3708 Y123.8131 I79.8613 J97.2384
G2 X135.1361 Y130.2894 I90.3767 J93.2441
G1 X134.4789 Y131.027
G1 X133.8399 Y131.755
G1 X133.2135 Y132.4792
G2 X130.8112 Y135.3593 I99.7155 J85.6151
G1 X130.8111 Y135.3594
G1 X130.8112 Y135.3593
G2 X122.5352 Y146.7477 I104.2833 J84.4847
G3 X122.5349 Y146.7481 I-1.8031 J-1.171
G2 X112.4375 Y165.2872 I114.4362 J74.3476
G3 X112.4309 Y165.3019 I-1.962 J-0.8792
G2 X112.3094 Y165.5737 I15.4539 J7.0652
G3 X112.3025 Y165.5894 I-1.9707 J-0.8595
G2 X105.3433 Y185.1637 I122.3321 J54.5169
G3 X93.6124 Y194.15 I-11.7309 J-3.1637
G1 X15.8638
G3 X4.0372 Y179.2156 I0.0 J-12.15
G2 Y19.7844 I-338.5927 J-79.7156
G3 X15.8638 Y4.85 I11.8267 J-2.7844
G1 X220.0
G3 X225.15 Y10.0 I0.0 J5.15
G1 Y86.4
G3 X220.0 Y91.55 I-5.15 J0.0
G1 X218.0
G3 X217.9994 I0.0 J-2.15
G1 X217.9995 Y91.15
G2 X198.3508 Y93.008 I-0.0314 J104.4912
G1 X198.3505 Y93.0081
G2 X189.9535 Y94.9775 I19.4219 J101.6954
G1 X189.9534
G1 X189.9535
G2 X174.7619 Y100.4787 I28.8341 J103.3516
G3 X174.7419 Y100.4875 I-0.718 J-1.5959
G2 X174.5788 Y100.561 I2.7356 J6.2894
G3 X174.5605 Y100.5694 I-0.7396 J-1.586
G2 X162.098 Y107.1776 I46.3974 J102.5574
G3 X162.0957 Y107.179 I-0.9151 J-1.4917
G2 X160.7882 Y107.9922 I52.1226 J85.2623
G3 X160.7876 Y107.9926 I-0.9357 J-1.4789
G2 X150.8576 Y115.0005 I63.8845 J101.0615
G3 X150.856 Y115.0018 I-1.0804 J-1.3767
G2 X148.7844 Y116.6639 I68.6744 J87.7141
G3 X148.7838 Y116.6645 I-1.1114 J-1.3518
G2 X141.0925 Y123.5258 I80.1152 J97.5475
G2 X134.838 Y130.0227 I90.655 J93.5314
G1 X134.1792 Y130.762
G1 X133.5383 Y131.4922
G1 X132.9105 Y132.218
G2 X130.5004 Y135.1075 I100.0185 J85.8762
G1 X130.5003 Y135.1076
G1 X130.5004 Y135.1075
G2 X122.1997 Y146.5298 I104.5941 J84.7365
G3 X122.1995 Y146.5301 I-1.4677 J-0.9531
G2 X112.0725 Y165.1236 I114.7716 J74.5655
G3 X112.0671 Y165.1356 I-1.597 J-0.7157
G2 X111.9428 Y165.4138 I15.8177 J7.2315
G3 X111.9372 Y165.4265 I-1.6041 J-0.6996
G2 X104.9571 Y185.0594 I122.6975 J54.6797
G3 X93.6124 Y193.75 I-11.3447 J-3.0594
G1 X15.8638
G3 X4.4265 Y179.3073 I0.0 J-11.75
G2 Y19.6927 I-338.9821 J-79.8073
G3 X15.8638 Y5.25 I11.4373 J-2.6927
G1 X220.0
G3 X224.75 Y10.0 I0.0 J4.75
G1 Y86.4
G3 X220.0 Y91.15 I-4.75 J0.0
G1 X218.0
G3 X217.9995 I0.0 J-1.75
G1 F5.0 X217.9994 Y91.55
G1 Z-0.8
G2 F225.0 X198.4259 Y93.4009 I-0.0313 J104.0912
G1 X198.4255 Y93.401
G2 X190.0609 Y95.3628 I19.3469 J101.3025
G1 X190.061 Y95.3627
G1 X190.0609 Y95.3628
G2 X174.926 Y100.8434 I28.7266 J102.9663
G3 X174.9014 Y100.8543 I-0.8822 J-1.9607
G2 X174.7479 Y100.9235 I2.5761 J5.9225
G3 X174.7254 Y100.9338 I-0.9087 J-1.9485
G2 X162.3072 Y107.5185 I46.2326 J102.193
G3 X162.3044 Y107.5203 I-1.1242 J-1.8326
G2 X161.0021 Y108.3302 I51.9139 J84.9211
G3 X161.0014 Y108.3307 I-1.1495 J-1.8169
G2 X151.1046 Y115.3152 I63.6708 J100.7234
G3 X151.1026 Y115.3167 I-1.3274 J-1.6913
G2 X149.0385 Y116.9729 I68.4278 J87.3991
G3 X149.0376 Y116.9736 I-1.3654 J-1.6608
G2 X141.3708 Y123.8131 I79.8613 J97.2384
G2 X135.1361 Y130.2894 I90.3767 J93.2441
G1 X134.4789 Y131.027
G1 X133.8399 Y131.755
G1 X133.2135 Y132.4792
G2 X130.8112 Y135.3593 I99.7155 J85.6151
G1 X130.8111 Y135.3594
G1 X130.8112 Y135.3593
G2 X122.5352 Y146.7477 I104.2833 J84.4847
G3 X122.5349 Y146.7481 I-1.8031 J-1.171
G2 X112.4375 Y165.2872 I114.4362 J74.3476
G3 X112.4309 Y165.3019 I-1.962 J-0.8792
G2 X112.3094 Y165.5737 I15.4539 J7.0652
G3 X112.3025 Y165.5894 I-1.9707 J-0.8595
G2 X105.3433 Y185.1637 I122.3321 J54.5169
G3 X93.6124 Y194.15 I-11.7309 J-3.1637
G1 X15.8638
G3 X4.0372 Y179.2156 I0.0 J-12.15
G2 Y19.7844 I-338.5927 J-79.7156
G3 X15.8638 Y4.85 I11.8267 J-2.7844
G1 X220.0
G3 X225.15 Y10.0 I0.0 J5.15
G1 Y86.4
G3 X220.0 Y91.55 I-5.15 J0.0
G1 X218.0
G3 X217.9994 I0.0 J-2.15
G1 X217.9995 Y91.15
G2 X198.3508 Y93.008 I-0.0314 J104.4912
G1 X198.3505 Y93.0081
G2 X189.9535 Y94.9775 I19.4219 J101.6954
G1 X189.9534
G1 X189.9535
G2 X174.7619 Y100.4787 I28.8341 J103.3516
G3 X174.7419 Y100.4875 I-0.718 J-1.5959
G2 X174.5788 Y100.561 I2.7356 J6.2894
G3 X174.5605 Y100.5694 I-0.7396 J-1.586
G2 X162.098 Y107.1776 I46.3974 J102.5574
G3 X162.0957 Y107.179 I-0.9151 J-1.4917
G2 X160.7882 Y107.9922 I52.1226 J85.2623
G3 X160.7876 Y107.9926 I-0.9357 J-1.4789
G2 X150.8576 Y115.0005 I63.8845 J101.0615
G3 X150.856 Y115.0018 I-1.0804 J-1.3767
G2 X148.7844 Y116.6639 I68.6744 J87.7141
G3 X148.7838 Y116.6645 I-1.1114 J-1.3518
G2 X141.0925 Y123.5258 I80.1152 J97.5475
G2 X134.838 Y130.0227 I90.655 J93.5314
G1 X134.1792 Y130.762
G1 X133.5383 Y131.4922
G1 X132.9105 Y132.218
G2 X130.5004 Y135.1075 I100.0185 J85.8762
G1 X130.5003 Y135.1076
G1 X130.5004 Y135.1075
G2 X122.1997 Y146.5298 I104.5941 J84.7365
G3 X122.1995 Y146.5301 I-1.4677 J-0.9531
G2 X112.0725 Y165.1236 I114.7716 J74.5655
G3 X112.0671 Y165.1356 I-1.597 J-0.7157
G2 X111.9428 Y165.4138 I15.8177 J7.2315
G3 X111.9372 Y165.4265 I-1.6041 J-0.6996
G2 X104.9571 Y185.0594 I122.6975 J54.6797
G3 X93.6124 Y193.75 I-11.3447 J-3.0594
G1 X15.8638
G3 X4.4265 Y179.3073 I0.0 J-11.75
G2 Y19.6927 I-338.9821 J-79.8073
G3 X15.8638 Y5.25 I11.4373 J-2.6927
G1 X220.0
G3 X224.75 Y10.0 I0.0 J4.75
G1 Y86.4
G3 X220.0 Y91.15 I-4.75 J0.0
G1 X218.0
G3 X217.9995 I0.0 J-1.75
G1 F5.0 X217.9994 Y91.55
G1 Z-1.2
G2 F225.0 X198.4259 Y93.4009 I-0.0313 J104.0912
G1 X198.4255 Y93.401
G2 X190.0609 Y95.3628 I19.3469 J101.3025
G1 X190.061 Y95.3627
G1 X190.0609 Y95.3628
G2 X174.926 Y100.8434 I28.7266 J102.9663
G3 X174.9014 Y100.8543 I-0.8822 J-1.9607
G2 X174.7479 Y100.9235 I2.5761 J5.9225
G3 X174.7254 Y100.9338 I-0.9087 J-1.9485
G2 X162.3072 Y107.5185 I46.2326 J102.193
G3 X162.3044 Y107.5203 I-1.1242 J-1.8326
G2 X161.0021 Y108.3302 I51.9139 J84.9211
G3 X161.0014 Y108.3307 I-1.1495 J-1.8169
G2 X151.1046 Y115.3152 I63.6708 J100.7234
G3 X151.1026 Y115.3167 I-1.3274 J-1.6913
G2 X149.0385 Y116.9729 I68.4278 J87.3991
G3 X149.0376 Y116.9736 I-1.3654 J-1.6608
G2 X141.3708 Y123.8131 I79.8613 J97.2384
G2 X135.1361 Y130.2894 I90.3767 J93.2441
G1 X134.4789 Y131.027
G1 X133.8399 Y131.755
G1 X133.2135 Y132.4792
G2 X130.8112 Y135.3593 I99.7155 J85.6151
G1 X130.8111 Y135.3594
G1 X130.8112 Y135.3593
G2 X122.5352 Y146.7477 I104.2833 J84.4847
G3 X122.5349 Y146.7481 I-1.8031 J-1.171
G2 X112.4375 Y165.2872 I114.4362 J74.3476
G3 X112.4309 Y165.3019 I-1.962 J-0.8792
G2 X112.3094 Y165.5737 I15.4539 J7.0652
G3 X112.3025 Y165.5894 I-1.9707 J-0.8595
G2 X105.3433 Y185.1637 I122.3321 J54.5169
G3 X93.6124 Y194.15 I-11.7309 J-3.1637
G1 X15.8638
G3 X4.0372 Y179.2156 I0.0 J-12.15
G2 Y19.7844 I-338.5927 J-79.7156
G3 X15.8638 Y4.85 I11.8267 J-2.7844
G1 X220.0
G3 X225.15 Y10.0 I0.0 J5.15
G1 Y86.4
G3 X220.0 Y91.55 I-5.15 J0.0
G1 X218.0
G3 X217.9994 I0.0 J-2.15
G1 X217.9995 Y91.15
G2 X198.3508 Y93.008 I-0.0314 J104.4912
G1 X198.3505 Y93.0081
G2 X189.9535 Y94.9775 I19.4219 J101.6954
G1 X189.9534
G1 X189.9535
G2 X174.7619 Y100.4787 I28.8341 J103.3516
G3 X174.7419 Y100.4875 I-0.718 J-1.5959
G2 X174.5788 Y100.561 I2.7356 J6.2894
G3 X174.5605 Y100.5694 I-0.7396 J-1.586
G2 X162.098 Y107.1776 I46.3974 J102.5574
G3 X162.0957 Y107.179 I-0.9151 J-1.4917
G2 X160.7882 Y107.9922 I52.1226 J85.2623
G3 X160.7876 Y107.9926 I-0.9357 J-1.4789
G2 X150.8576 Y115.0005 I63.8845 J101.0615
G3 X150.856 Y115.0018 I-1.0804 J-1.3767
G2 X148.7844 Y116.6639 I68.6744 J87.7141
G3 X148.7838 Y116.6645 I-1.1114 J-1.3518
G2 X141.0925 Y123.5258 I80.1152 J97.5475
G2 X134.838 Y130.0227 I90.655 J93.5314
G1 X134.1792 Y130.762
G1 X133.5383 Y131.4922
G1 X132.9105 Y132.218
G2 X130.5004 Y135.1075 I100.0185 J85.8762
G1 X130.5003 Y135.1076
G1 X130.5004 Y135.1075
G2 X122.1997 Y146.5298 I104.5941 J84.7365
G3 X122.1995 Y146.5301 I-1.4677 J-0.9531
G2 X112.0725 Y165.1236 I114.7716 J74.5655
G3 X112.0671 Y165.1356 I-1.597 J-0.7157
G2 X111.9428 Y165.4138 I15.8177 J7.2315
G3 X111.9372 Y165.4265 I-1.6041 J-0.6996
G2 X104.9571 Y185.0594 I122.6975 J54.6797
G3 X93.6124 Y193.75 I-11.3447 J-3.0594
G1 X15.8638
G3 X4.4265 Y179.3073 I0.0 J-11.75
G2 Y19.6927 I-338.9821 J-79.8073
G3 X15.8638 Y5.25 I11.4373 J-2.6927
G1 X220.0
G3 X224.75 Y10.0 I0.0 J4.75
G1 Y86.4
G3 X220.0 Y91.15 I-4.75 J0.0
G1 X218.0
G3 X217.9995 I0.0 J-1.75
G1 F5.0 X217.9994 Y91.55
G1 Z-1.6
G2 F225.0 X198.4259 Y93.4009 I-0.0313 J104.0912
G1 X198.4255 Y93.401
G2 X190.0609 Y95.3628 I19.3469 J101.3025
G1 X190.061 Y95.3627
G1 X190.0609 Y95.3628
G2 X174.926 Y100.8434 I28.7266 J102.9663
G3 X174.9014 Y100.8543 I-0.8822 J-1.9607
G2 X174.7479 Y100.9235 I2.5761 J5.9225
G3 X174.7254 Y100.9338 I-0.9087 J-1.9485
G2 X162.3072 Y107.5185 I46.2326 J102.193
G3 X162.3044 Y107.5203 I-1.1242 J-1.8326
G2 X161.0021 Y108.3302 I51.9139 J84.9211
G3 X161.0014 Y108.3307 I-1.1495 J-1.8169
G2 X151.1046 Y115.3152 I63.6708 J100.7234
G3 X151.1026 Y115.3167 I-1.3274 J-1.6913
G2 X149.0385 Y116.9729 I68.4278 J87.3991
G3 X149.0376 Y116.9736 I-1.3654 J-1.6608
G2 X141.3708 Y123.8131 I79.8613 J97.2384
G2 X135.1361 Y130.2894 I90.3767 J93.2441
G1 X134.4789 Y131.027
G1 X133.8399 Y131.755
G1 X133.2135 Y132.4792
G2 X130.8112 Y135.3593 I99.7155 J85.6151
G1 X130.8111 Y135.3594
G1 X130.8112 Y135.3593
G2 X122.5352 Y146.7477 I104.2833 J84.4847
G3 X122.5349 Y146.7481 I-1.8031 J-1.171
G2 X112.4375 Y165.2872 I114.4362 J74.3476
G3 X112.4309 Y165.3019 I-1.962 J-0.8792
G2 X112.3094 Y165.5737 I15.4539 J7.0652
G3 X112.3025 Y165.5894 I-1.9707 J-0.8595
G2 X105.3433 Y185.1637 I122.3321 J54.5169
G3 X93.6124 Y194.15 I-11.7309 J-3.1637
G1 X15.8638
G3 X4.0372 Y179.2156 I0.0 J-12.15
G2 Y19.7844 I-338.5927 J-79.7156
G3 X15.8638 Y4.85 I11.8267 J-2.7844
G1 X220.0
G3 X225.15 Y10.0 I0.0 J5.15
G1 Y86.4
G3 X220.0 Y91.55 I-5.15 J0.0
G1 X218.0
G3 X217.9994 I0.0 J-2.15
G1 X217.9995 Y91.15
G2 X198.3508 Y93.008 I-0.0314 J104.4912
G1 X198.3505 Y93.0081
G2 X189.9535 Y94.9775 I19.4219 J101.6954
G1 X189.9534
G1 X189.9535
G2 X174.7619 Y100.4787 I28.8341 J103.3516
G3 X174.7419 Y100.4875 I-0.718 J-1.5959
G2 X174.5788 Y100.561 I2.7356 J6.2894
G3 X174.5605 Y100.5694 I-0.7396 J-1.586
G2 X162.098 Y107.1776 I46.3974 J102.5574
G3 X162.0957 Y107.179 I-0.9151 J-1.4917
G2 X160.7882 Y107.9922 I52.1226 J85.2623
G3 X160.7876 Y107.9926 I-0.9357 J-1.4789
G2 X150.8576 Y115.0005 I63.8845 J101.0615
G3 X150.856 Y115.0018 I-1.0804 J-1.3767
G2 X148.7844 Y116.6639 I68.6744 J87.7141
G3 X148.7838 Y116.6645 I-1.1114 J-1.3518
G2 X141.0925 Y123.5258 I80.1152 J97.5475
G2 X134.838 Y130.0227 I90.655 J93.5314
G1 X134.1792 Y130.762
G1 X133.5383 Y131.4922
G1 X132.9105 Y132.218
G2 X130.5004 Y135.1075 I100.0185 J85.8762
G1 X130.5003 Y135.1076
G1 X130.5004 Y135.1075
G2 X122.1997 Y146.5298 I104.5941 J84.7365
G3 X122.1995 Y146.5301 I-1.4677 J-0.9531
G2 X112.0725 Y165.1236 I114.7716 J74.5655
G3 X112.0671 Y165.1356 I-1.597 J-0.7157
G2 X111.9428 Y165.4138 I15.8177 J7.2315
G3 X111.9372 Y165.4265 I-1.6041 J-0.6996
G2 X104.9571 Y185.0594 I122.6975 J54.6797
G3 X93.6124 Y193.75 I-11.3447 J-3.0594
G1 X15.8638
G3 X4.4265 Y179.3073 I0.0 J-11.75
G2 Y19.6927 I-338.9821 J-79.8073
G3 X15.8638 Y5.25 I11.4373 J-2.6927
G1 X220.0
G3 X224.75 Y10.0 I0.0 J4.75
G1 Y86.4
G3 X220.0 Y91.15 I-4.75 J0.0
G1 X218.0
G3 X217.9995 I0.0 J-1.75
G1 F5.0 X217.9994 Y91.55
G1 Z-2.0
G2 F225.0 X198.4259 Y93.4009 I-0.0313 J104.0912
G1 X198.4255 Y93.401
G2 X190.0609 Y95.3628 I19.3469 J101.3025
G1 X190.061 Y95.3627
G1 X190.0609 Y95.3628
G2 X174.926 Y100.8434 I28.7266 J102.9663
G3 X174.9014 Y100.8543 I-0.8822 J-1.9607
G2 X174.7479 Y100.9235 I2.5761 J5.9225
G3 X174.7254 Y100.9338 I-0.9087 J-1.9485
G2 X162.3072 Y107.5185 I46.2326 J102.193
G3 X162.3044 Y107.5203 I-1.1242 J-1.8326
G2 X161.0021 Y108.3302 I51.9139 J84.9211
G3 X161.0014 Y108.3307 I-1.1495 J-1.8169
G2 X151.1046 Y115.3152 I63.6708 J100.7234
G3 X151.1026 Y115.3167 I-1.3274 J-1.6913
G2 X149.0385 Y116.9729 I68.4278 J87.3991
G3 X149.0376 Y116.9736 I-1.3654 J-1.6608
G2 X141.3708 Y123.8131 I79.8613 J97.2384
G2 X135.1361 Y130.2894 I90.3767 J93.2441
G1 X134.4789 Y131.027
G1 X133.8399 Y131.755
G1 X133.2135 Y132.4792
G2 X130.8112 Y135.3593 I99.7155 J85.6151
G1 X130.8111 Y135.3594
G1 X130.8112 Y135.3593
G2 X122.5352 Y146.7477 I104.2833 J84.4847
G3 X122.5349 Y146.7481 I-1.8031 J-1.171
G2 X112.4375 Y165.2872 I114.4362 J74.3476
G3 X112.4309 Y165.3019 I-1.962 J-0.8792
G2 X112.3094 Y165.5737 I15.4539 J7.0652
G3 X112.3025 Y165.5894 I-1.9707 J-0.8595
G2 X105.3433 Y185.1637 I122.3321 J54.5169
G3 X93.6124 Y194.15 I-11.7309 J-3.1637
G1 X15.8638
G3 X4.0372 Y179.2156 I0.0 J-12.15
G2 Y19.7844 I-338.5927 J-79.7156
G3 X15.8638 Y4.85 I11.8267 J-2.7844
G1 X220.0
G3 X225.15 Y10.0 I0.0 J5.15
G1 Y86.4
G3 X220.0 Y91.55 I-5.15 J0.0
G1 X218.0
G3 X217.9994 I0.0 J-2.15
G1 X217.9995 Y91.15
G2 X198.3508 Y93.008 I-0.0314 J104.4912
G1 X198.3505 Y93.0081
G2 X189.9535 Y94.9775 I19.4219 J101.6954
G1 X189.9534
G1 X189.9535
G2 X174.7619 Y100.4787 I28.8341 J103.3516
G3 X174.7419 Y100.4875 I-0.718 J-1.5959
G2 X174.5788 Y100.561 I2.7356 J6.2894
G3 X174.5605 Y100.5694 I-0.7396 J-1.586
G2 X162.098 Y107.1776 I46.3974 J102.5574
G3 X162.0957 Y107.179 I-0.9151 J-1.4917
G2 X160.7882 Y107.9922 I52.1226 J85.2623
G3 X160.7876 Y107.9926 I-0.9357 J-1.4789
G2 X150.8576 Y115.0005 I63.8845 J101.0615
G3 X150.856 Y115.0018 I-1.0804 J-1.3767
G2 X148.7844 Y116.6639 I68.6744 J87.7141
G3 X148.7838 Y116.6645 I-1.1114 J-1.3518
G2 X141.0925 Y123.5258 I80.1152 J97.5475
G2 X134.838 Y130.0227 I90.655 J93.5314
G1 X134.1792 Y130.762
G1 X133.5383 Y131.4922
G1 X132.9105 Y132.218
G2 X130.5004 Y135.1075 I100.0185 J85.8762
G1 X130.5003 Y135.1076
G1 X130.5004 Y135.1075
G2 X122.1997 Y146.5298 I104.5941 J84.7365
G3 X122.1995 Y146.5301 I-1.4677 J-0.9531
G2 X112.0725 Y165.1236 I114.7716 J74.5655
G3 X112.0671 Y165.1356 I-1.597 J-0.7157
G2 X111.9428 Y165.4138 I15.8177 J7.2315
G3 X111.9372 Y165.4265 I-1.6041 J-0.6996
G2 X104.9571 Y185.0594 I122.6975 J54.6797
G3 X93.6124 Y193.75 I-11.3447 J-3.0594
G1 X15.8638
G3 X4.4265 Y179.3073 I0.0 J-11.75
G2 Y19.6927 I-338.9821 J-79.8073
G3 X15.8638 Y5.25 I11.4373 J-2.6927
G1 X220.0
G3 X224.75 Y10.0 I0.0 J4.75
G1 Y86.4
G3 X220.0 Y91.15 I-4.75 J0.0
G1 X218.0
G3 X217.9995 I0.0 J-1.75
G1 F5.0 X217.9994 Y91.55
G1 Z-2.4
G2 F225.0 X198.4259 Y93.4009 I-0.0313 J104.0912
G1 X198.4255 Y93.401
G2 X190.0609 Y95.3628 I19.3469 J101.3025
G1 X190.061 Y95.3627
G1 X190.0609 Y95.3628
G2 X174.926 Y100.8434 I28.7266 J102.9663
G3 X174.9014 Y100.8543 I-0.8822 J-1.9607
G2 X174.7479 Y100.9235 I2.5761 J5.9225
G3 X174.7254 Y100.9338 I-0.9087 J-1.9485
G2 X162.3072 Y107.5185 I46.2326 J102.193
G3 X162.3044 Y107.5203 I-1.1242 J-1.8326
G2 X161.0021 Y108.3302 I51.9139 J84.9211
G3 X161.0014 Y108.3307 I-1.1495 J-1.8169
G2 X151.1046 Y115.3152 I63.6708 J100.7234
G3 X151.1026 Y115.3167 I-1.3274 J-1.6913
G2 X149.0385 Y116.9729 I68.4278 J87.3991
G3 X149.0376 Y116.9736 I-1.3654 J-1.6608
G2 X141.3708 Y123.8131 I79.8613 J97.2384
G2 X135.1361 Y130.2894 I90.3767 J93.2441
G1 X134.4789 Y131.027
G1 X133.8399 Y131.755
G1 X133.2135 Y132.4792
G2 X130.8112 Y135.3593 I99.7155 J85.6151
G1 X130.8111 Y135.3594
G1 X130.8112 Y135.3593
G2 X122.5352 Y146.7477 I104.2833 J84.4847
G3 X122.5349 Y146.7481 I-1.8031 J-1.171
G2 X112.4375 Y165.2872 I114.4362 J74.3476
G3 X112.4309 Y165.3019 I-1.962 J-0.8792
G2 X112.3094 Y165.5737 I15.4539 J7.0652
G3 X112.3025 Y165.5894 I-1.9707 J-0.8595
G2 X105.3433 Y185.1637 I122.3321 J54.5169
G3 X93.6124 Y194.15 I-11.7309 J-3.1637
G1 X15.8638
G3 X4.0372 Y179.2156 I0.0 J-12.15
G2 Y19.7844 I-338.5927 J-79.7156
G3 X15.8638 Y4.85 I11.8267 J-2.7844
G1 X220.0
G3 X225.15 Y10.0 I0.0 J5.15
G1 Y86.4
G3 X220.0 Y91.55 I-5.15 J0.0
G1 X218.0
G3 X217.9994 I0.0 J-2.15
G1 X217.9995 Y91.15
G2 X198.3508 Y93.008 I-0.0314 J104.4912
G1 X198.3505 Y93.0081
G2 X189.9535 Y94.9775 I19.4219 J101.6954
G1 X189.9534
G1 X189.9535
G2 X174.7619 Y100.4787 I28.8341 J103.3516
G3 X174.7419 Y100.4875 I-0.718 J-1.5959
G2 X174.5788 Y100.561 I2.7356 J6.2894
G3 X174.5605 Y100.5694 I-0.7396 J-1.586
G2 X162.098 Y107.1776 I46.3974 J102.5574
G3 X162.0957 Y107.179 I-0.9151 J-1.4917
G2 X160.7882 Y107.9922 I52.1226 J85.2623
G3 X160.7876 Y107.9926 I-0.9357 J-1.4789
G2 X150.8576 Y115.0005 I63.8845 J101.0615
G3 X150.856 Y115.0018 I-1.0804 J-1.3767
G2 X148.7844 Y116.6639 I68.6744 J87.7141
G3 X148.7838 Y116.6645 I-1.1114 J-1.3518
G2 X141.0925 Y123.5258 I80.1152 J97.5475
G2 X134.838 Y130.0227 I90.655 J93.5314
G1 X134.1792 Y130.762
G1 X133.5383 Y131.4922
G1 X132.9105 Y132.218
G2 X130.5004 Y135.1075 I100.0185 J85.8762
G1 X130.5003 Y135.1076
G1 X130.5004 Y135.1075
G2 X122.1997 Y146.5298 I104.5941 J84.7365
G3 X122.1995 Y146.5301 I-1.4677 J-0.9531
G2 X112.0725 Y165.1236 I114.7716 J74.5655
G3 X112.0671 Y165.1356 I-1.597 J-0.7157
G2 X111.9428 Y165.4138 I15.8177 J7.2315
G3 X111.9372 Y165.4265 I-1.6041 J-0.6996
G2 X104.9571 Y185.0594 I122.6975 J54.6797
G3 X93.6124 Y193.75 I-11.3447 J-3.0594
G1 X15.8638
G3 X4.4265 Y179.3073 I0.0 J-11.75
G2 Y19.6927 I-338.9821 J-79.8073
G3 X15.8638 Y5.25 I11.4373 J-2.6927
G1 X220.0
G3 X224.75 Y10.0 I0.0 J4.75
G1 Y86.4
G3 X220.0 Y91.15 I-4.75 J0.0
G1 X218.0
G3 X217.9995 I0.0 J-1.75
G1 F5.0 X217.9994 Y91.55
G1 Z-2.8
G2 F225.0 X198.4259 Y93.4009 I-0.0313 J104.0912
G1 X198.4255 Y93.401
G2 X190.0609 Y95.3628 I19.3469 J101.3025
G1 X190.061 Y95.3627
G1 X190.0609 Y95.3628
G2 X174.926 Y100.8434 I28.7266 J102.9663
G3 X174.9014 Y100.8543 I-0.8822 J-1.9607
G2 X174.7479 Y100.9235 I2.5761 J5.9225
G3 X174.7254 Y100.9338 I-0.9087 J-1.9485
G2 X162.3072 Y107.5185 I46.2326 J102.193
G3 X162.3044 Y107.5203 I-1.1242 J-1.8326
G2 X161.0021 Y108.3302 I51.9139 J84.9211
G3 X161.0014 Y108.3307 I-1.1495 J-1.8169
G2 X151.1046 Y115.3152 I63.6708 J100.7234
G3 X151.1026 Y115.3167 I-1.3274 J-1.6913
G2 X149.0385 Y116.9729 I68.4278 J87.3991
G3 X149.0376 Y116.9736 I-1.3654 J-1.6608
G2 X141.3708 Y123.8131 I79.8613 J97.2384
G2 X135.1361 Y130.2894 I90.3767 J93.2441
G1 X134.4789 Y131.027
G1 X133.8399 Y131.755
G1 X133.2135 Y132.4792
G2 X130.8112 Y135.3593 I99.7155 J85.6151
G1 X130.8111 Y135.3594
G1 X130.8112 Y135.3593
G2 X122.5352 Y146.7477 I104.2833 J84.4847
G3 X122.5349 Y146.7481 I-1.8031 J-1.171
G2 X112.4375 Y165.2872 I114.4362 J74.3476
G3 X112.4309 Y165.3019 I-1.962 J-0.8792
G2 X112.3094 Y165.5737 I15.4539 J7.0652
G3 X112.3025 Y165.5894 I-1.9707 J-0.8595
G2 X105.3433 Y185.1637 I122.3321 J54.5169
G3 X93.6124 Y194.15 I-11.7309 J-3.1637
G1 X15.8638
G3 X4.0372 Y179.2156 I0.0 J-12.15
G2 Y19.7844 I-338.5927 J-79.7156
G3 X15.8638 Y4.85 I11.8267 J-2.7844
G1 X220.0
G3 X225.15 Y10.0 I0.0 J5.15
G1 Y86.4
G3 X220.0 Y91.55 I-5.15 J0.0
G1 X218.0
G3 X217.9994 I0.0 J-2.15
G1 X217.9995 Y91.15
G2 X198.3508 Y93.008 I-0.0314 J104.4912
G1 X198.3505 Y93.0081
G2 X189.9535 Y94.9775 I19.4219 J101.6954
G1 X189.9534
G1 X189.9535
G2 X174.7619 Y100.4787 I28.8341 J103.3516
G3 X174.7419 Y100.4875 I-0.718 J-1.5959
G2 X174.5788 Y100.561 I2.7356 J6.2894
G3 X174.5605 Y100.5694 I-0.7396 J-1.586
G2 X162.098 Y107.1776 I46.3974 J102.5574
G3 X162.0957 Y107.179 I-0.9151 J-1.4917
G2 X160.7882 Y107.9922 I52.1226 J85.2623
G3 X160.7876 Y107.9926 I-0.9357 J-1.4789
G2 X150.8576 Y115.0005 I63.8845 J101.0615
G3 X150.856 Y115.0018 I-1.0804 J-1.3767
G2 X148.7844 Y116.6639 I68.6744 J87.7141
G3 X148.7838 Y116.6645 I-1.1114 J-1.3518
G2 X141.0925 Y123.5258 I80.1152 J97.5475
G2 X134.838 Y130.0227 I90.655 J93.5314
G1 X134.1792 Y130.762
G1 X133.5383 Y131.4922
G1 X132.9105 Y132.218
G2 X130.5004 Y135.1075 I100.0185 J85.8762
G1 X130.5003 Y135.1076
G1 X130.5004 Y135.1075
G2 X122.1997 Y146.5298 I104.5941 J84.7365
G3 X122.1995 Y146.5301 I-1.4677 J-0.9531
G2 X112.0725 Y165.1236 I114.7716 J74.5655
G3 X112.0671 Y165.1356 I-1.597 J-0.7157
G2 X111.9428 Y165.4138 I15.8177 J7.2315
G3 X111.9372 Y165.4265 I-1.6041 J-0.6996
G2 X104.9571 Y185.0594 I122.6975 J54.6797
G3 X93.6124 Y193.75 I-11.3447 J-3.0594
G1 X15.8638
G3 X4.4265 Y179.3073 I0.0 J-11.75
G2 Y19.6927 I-338.9821 J-79.8073
G3 X15.8638 Y5.25 I11.4373 J-2.6927
G1 X220.0
G3 X224.75 Y10.0 I0.0 J4.75
G1 Y86.4
G3 X220.0 Y91.15 I-4.75 J0.0
G1 X218.0
G3 X217.9995 I0.0 J-1.75
G1 F5.0 X217.9994 Y91.55
G1 Z-3.2
G2 F225.0 X198.4259 Y93.4009 I-0.0313 J104.0912
G1 X198.4255 Y93.401
G2 X190.0609 Y95.3628 I19.3469 J101.3025
G1 X190.061 Y95.3627
G1 X190.0609 Y95.3628
G2 X174.926 Y100.8434 I28.7266 J102.9663
G3 X174.9014 Y100.8543 I-0.8822 J-1.9607
G2 X174.7479 Y100.9235 I2.5761 J5.9225
G3 X174.7254 Y100.9338 I-0.9087 J-1.9485
G2 X162.3072 Y107.5185 I46.2326 J102.193
G3 X162.3044 Y107.5203 I-1.1242 J-1.8326
G2 X161.0021 Y108.3302 I51.9139 J84.9211
G3 X161.0014 Y108.3307 I-1.1495 J-1.8169
G2 X151.1046 Y115.3152 I63.6708 J100.7234
G3 X151.1026 Y115.3167 I-1.3274 J-1.6913
G2 X149.0385 Y116.9729 I68.4278 J87.3991
G3 X149.0376 Y116.9736 I-1.3654 J-1.6608
G2 X141.3708 Y123.8131 I79.8613 J97.2384
G2 X135.1361 Y130.2894 I90.3767 J93.2441
G1 X134.4789 Y131.027
G1 X133.8399 Y131.755
G1 X133.2135 Y132.4792
G2 X130.8112 Y135.3593 I99.7155 J85.6151
G1 X130.8111 Y135.3594
G1 X130.8112 Y135.3593
G2 X122.5352 Y146.7477 I104.2833 J84.4847
G3 X122.5349 Y146.7481 I-1.8031 J-1.171
G2 X112.4375 Y165.2872 I114.4362 J74.3476
G3 X112.4309 Y165.3019 I-1.962 J-0.8792
G2 X112.3094 Y165.5737 I15.4539 J7.0652
G3 X112.3025 Y165.5894 I-1.9707 J-0.8595
G2 X105.3433 Y185.1637 I122.3321 J54.5169
G3 X93.6124 Y194.15 I-11.7309 J-3.1637
G1 X15.8638
G3 X4.0372 Y179.2156 I0.0 J-12.15
G2 Y19.7844 I-338.5927 J-79.7156
G3 X15.8638 Y4.85 I11.8267 J-2.7844
G1 X220.0
G3 X225.15 Y10.0 I0.0 J5.15
G1 Y86.4
G3 X220.0 Y91.55 I-5.15 J0.0
G1 X218.0
G3 X217.9994 I0.0 J-2.15
G1 X217.9995 Y91.15
G2 X198.3508 Y93.008 I-0.0314 J104.4912
G1 X198.3505 Y93.0081
G2 X189.9535 Y94.9775 I19.4219 J101.6954
G1 X189.9534
G1 X189.9535
G2 X174.7619 Y100.4787 I28.8341 J103.3516
G3 X174.7419 Y100.4875 I-0.718 J-1.5959
G2 X174.5788 Y100.561 I2.7356 J6.2894
G3 X174.5605 Y100.5694 I-0.7396 J-1.586
G2 X162.098 Y107.1776 I46.3974 J102.5574
G3 X162.0957 Y107.179 I-0.9151 J-1.4917
G2 X160.7882 Y107.9922 I52.1226 J85.2623
G3 X160.7876 Y107.9926 I-0.9357 J-1.4789
G2 X150.8576 Y115.0005 I63.8845 J101.0615
G3 X150.856 Y115.0018 I-1.0804 J-1.3767
G2 X148.7844 Y116.6639 I68.6744 J87.7141
G3 X148.7838 Y116.6645 I-1.1114 J-1.3518
G2 X141.0925 Y123.5258 I80.1152 J97.5475
G2 X134.838 Y130.0227 I90.655 J93.5314
G1 X134.1792 Y130.762
G1 X133.5383 Y131.4922
G1 X132.9105 Y132.218
G2 X130.5004 Y135.1075 I100.0185 J85.8762
G1 X130.5003 Y135.1076
G1 X130.5004 Y135.1075
G2 X122.1997 Y146.5298 I104.5941 J84.7365
G3 X122.1995 Y146.5301 I-1.4677 J-0.9531
G2 X112.0725 Y165.1236 I114.7716 J74.5655
G3 X112.0671 Y165.1356 I-1.597 J-0.7157
G2 X111.9428 Y165.4138 I15.8177 J7.2315
G3 X111.9372 Y165.4265 I-1.6041 J-0.6996
G2 X104.9571 Y185.0594 I122.6975 J54.6797
G3 X93.6124 Y193.75 I-11.3447 J-3.0594
G1 X15.8638
G3 X4.4265 Y179.3073 I0.0 J-11.75
G2 Y19.6927 I-338.9821 J-79.8073
G3 X15.8638 Y5.25 I11.4373 J-2.6927
G1 X220.0
G3 X224.75 Y10.0 I0.0 J4.75
G1 Y86.4
G3 X220.0 Y91.15 I-4.75 J0.0
G1 X218.0
G3 X217.9995 I0.0 J-1.75
G1 F5.0 X217.9994 Y91.55
G1 Z-3.6
G2 F225.0 X198.4259 Y93.4009 I-0.0313 J104.0912
G1 X198.4255 Y93.401
G2 X190.0609 Y95.3628 I19.3469 J101.3025
G1 X190.061 Y95.3627
G1 X190.0609 Y95.3628
G2 X174.926 Y100.8434 I28.7266 J102.9663
G3 X174.9014 Y100.8543 I-0.8822 J-1.9607
G2 X174.7479 Y100.9235 I2.5761 J5.9225
G3 X174.7254 Y100.9338 I-0.9087 J-1.9485
G2 X162.3072 Y107.5185 I46.2326 J102.193
G3 X162.3044 Y107.5203 I-1.1242 J-1.8326
G2 X161.0021 Y108.3302 I51.9139 J84.9211
G3 X161.0014 Y108.3307 I-1.1495 J-1.8169
G2 X151.1046 Y115.3152 I63.6708 J100.7234
G3 X151.1026 Y115.3167 I-1.3274 J-1.6913
G2 X149.0385 Y116.9729 I68.4278 J87.3991
G3 X149.0376 Y116.9736 I-1.3654 J-1.6608
G2 X141.3708 Y123.8131 I79.8613 J97.2384
G2 X135.1361 Y130.2894 I90.3767 J93.2441
G1 X134.4789 Y131.027
G1 X133.8399 Y131.755
G1 X133.2135 Y132.4792
G2 X130.8112 Y135.3593 I99.7155 J85.6151
G1 X130.8111 Y135.3594
G1 X130.8112 Y135.3593
G2 X122.5352 Y146.7477 I104.2833 J84.4847
G3 X122.5349 Y146.7481 I-1.8031 J-1.171
G2 X112.4375 Y165.2872 I114.4362 J74.3476
G3 X112.4309 Y165.3019 I-1.962 J-0.8792
G2 X112.3094 Y165.5737 I15.4539 J7.0652
G3 X112.3025 Y165.5894 I-1.9707 J-0.8595
G2 X105.3433 Y185.1637 I122.3321 J54.5169
G3 X93.6124 Y194.15 I-11.7309 J-3.1637
G1 X15.8638
G3 X4.0372 Y179.2156 I0.0 J-12.15
G2 Y19.7844 I-338.5927 J-79.7156
G3 X15.8638 Y4.85 I11.8267 J-2.7844
G1 X220.0
G3 X225.15 Y10.0 I0.0 J5.15
G1 Y86.4
G3 X220.0 Y91.55 I-5.15 J0.0
G1 X218.0
G3 X217.9994 I0.0 J-2.15
G1 X217.9995 Y91.15
G2 X198.3508 Y93.008 I-0.0314 J104.4912
G1 X198.3505 Y93.0081
G2 X189.9535 Y94.9775 I19.4219 J101.6954
G1 X189.9534
G1 X189.9535
G2 X174.7619 Y100.4787 I28.8341 J103.3516
G3 X174.7419 Y100.4875 I-0.718 J-1.5959
G2 X174.5788 Y100.561 I2.7356 J6.2894
G3 X174.5605 Y100.5694 I-0.7396 J-1.586
G2 X162.098 Y107.1776 I46.3974 J102.5574
G3 X162.0957 Y107.179 I-0.9151 J-1.4917
G2 X160.7882 Y107.9922 I52.1226 J85.2623
G3 X160.7876 Y107.9926 I-0.9357 J-1.4789
G2 X150.8576 Y115.0005 I63.8845 J101.0615
G3 X150.856 Y115.0018 I-1.0804 J-1.3767
G2 X148.7844 Y116.6639 I68.6744 J87.7141
G3 X148.7838 Y116.6645 I-1.1114 J-1.3518
G2 X141.0925 Y123.5258 I80.1152 J97.5475
G2 X134.838 Y130.0227 I90.655 J93.5314
G1 X134.1792 Y130.762
G1 X133.5383 Y131.4922
G1 X132.9105 Y132.218
G2 X130.5004 Y135.1075 I100.0185 J85.8762
G1 X130.5003 Y135.1076
G1 X130.5004 Y135.1075
G2 X122.1997 Y146.5298 I104.5941 J84.7365
G3 X122.1995 Y146.5301 I-1.4677 J-0.9531
G2 X112.0725 Y165.1236 I114.7716 J74.5655
G3 X112.0671 Y165.1356 I-1.597 J-0.7157
G2 X111.9428 Y165.4138 I15.8177 J7.2315
G3 X111.9372 Y165.4265 I-1.6041 J-0.6996
G2 X104.9571 Y185.0594 I122.6975 J54.6797
G3 X93.6124 Y193.75 I-11.3447 J-3.0594
G1 X15.8638
G3 X4.4265 Y179.3073 I0.0 J-11.75
G2 Y19.6927 I-338.9821 J-79.8073
G3 X15.8638 Y5.25 I11.4373 J-2.6927
G1 X220.0
G3 X224.75 Y10.0 I0.0 J4.75
G1 Y86.4
G3 X220.0 Y91.15 I-4.75 J0.0
G1 X218.0
G3 X217.9995 I0.0 J-1.75
G1 F5.0 X217.9994 Y91.55
G1 Z-4.0
G2 F225.0 X198.4259 Y93.4009 I-0.0313 J104.0912
G1 X198.4255 Y93.401
G2 X190.0609 Y95.3628 I19.3469 J101.3025
G1 X190.061 Y95.3627
G1 X190.0609 Y95.3628
G2 X174.926 Y100.8434 I28.7266 J102.9663
G3 X174.9014 Y100.8543 I-0.8822 J-1.9607
G2 X174.7479 Y100.9235 I2.5761 J5.9225
G3 X174.7254 Y100.9338 I-0.9087 J-1.9485
G2 X162.3072 Y107.5185 I46.2326 J102.193
G3 X162.3044 Y107.5203 I-1.1242 J-1.8326
G2 X161.0021 Y108.3302 I51.9139 J84.9211
G3 X161.0014 Y108.3307 I-1.1495 J-1.8169
G2 X151.1046 Y115.3152 I63.6708 J100.7234
G3 X151.1026 Y115.3167 I-1.3274 J-1.6913
G2 X149.0385 Y116.9729 I68.4278 J87.3991
G3 X149.0376 Y116.9736 I-1.3654 J-1.6608
G2 X141.3708 Y123.8131 I79.8613 J97.2384
G2 X135.1361 Y130.2894 I90.3767 J93.2441
G1 X134.4789 Y131.027
G1 X133.8399 Y131.755
G1 X133.2135 Y132.4792
G2 X130.8112 Y135.3593 I99.7155 J85.6151
G1 X130.8111 Y135.3594
G1 X130.8112 Y135.3593
G2 X122.5352 Y146.7477 I104.2833 J84.4847
G3 X122.5349 Y146.7481 I-1.8031 J-1.171
G2 X112.4375 Y165.2872 I114.4362 J74.3476
G3 X112.4309 Y165.3019 I-1.962 J-0.8792
G2 X112.3094 Y165.5737 I15.4539 J7.0652
G3 X112.3025 Y165.5894 I-1.9707 J-0.8595
G2 X105.3433 Y185.1637 I122.3321 J54.5169
G3 X93.6124 Y194.15 I-11.7309 J-3.1637
G1 X15.8638
G3 X4.0372 Y179.2156 I0.0 J-12.15
G2 Y19.7844 I-338.5927 J-79.7156
G3 X15.8638 Y4.85 I11.8267 J-2.7844
G1 X220.0
G3 X225.15 Y10.0 I0.0 J5.15
G1 Y86.4
G3 X220.0 Y91.55 I-5.15 J0.0
G1 X218.0
G3 X217.9994 I0.0 J-2.15
G1 X217.9995 Y91.15
G2 X198.3508 Y93.008 I-0.0314 J104.4912
G1 X198.3505 Y93.0081
G2 X189.9535 Y94.9775 I19.4219 J101.6954
G1 X189.9534
G1 X189.9535
G2 X174.7619 Y100.4787 I28.8341 J103.3516
G3 X174.7419 Y100.4875 I-0.718 J-1.5959
G2 X174.5788 Y100.561 I2.7356 J6.2894
G3 X174.5605 Y100.5694 I-0.7396 J-1.586
G2 X162.098 Y107.1776 I46.3974 J102.5574
G3 X162.0957 Y107.179 I-0.9151 J-1.4917
G2 X160.7882 Y107.9922 I52.1226 J85.2623
G3 X160.7876 Y107.9926 I-0.9357 J-1.4789
G2 X150.8576 Y115.0005 I63.8845 J101.0615
G3 X150.856 Y115.0018 I-1.0804 J-1.3767
G2 X148.7844 Y116.6639 I68.6744 J87.7141
G3 X148.7838 Y116.6645 I-1.1114 J-1.3518
G2 X141.0925 Y123.5258 I80.1152 J97.5475
G2 X134.838 Y130.0227 I90.655 J93.5314
G1 X134.1792 Y130.762
G1 X133.5383 Y131.4922
G1 X132.9105 Y132.218
G2 X130.5004 Y135.1075 I100.0185 J85.8762
G1 X130.5003 Y135.1076
G1 X130.5004 Y135.1075
G2 X122.1997 Y146.5298 I104.5941 J84.7365
G3 X122.1995 Y146.5301 I-1.4677 J-0.9531
G2 X112.0725 Y165.1236 I114.7716 J74.5655
G3 X112.0671 Y165.1356 I-1.597 J-0.7157
G2 X111.9428 Y165.4138 I15.8177 J7.2315
G3 X111.9372 Y165.4265 I-1.6041 J-0.6996
G2 X104.9571 Y185.0594 I122.6975 J54.6797
G3 X93.6124 Y193.75 I-11.3447 J-3.0594
G1 X15.8638
G3 X4.4265 Y179.3073 I0.0 J-11.75
G2 Y19.6927 I-338.9821 J-79.8073
G3 X15.8638 Y5.25 I11.4373 J-2.6927
G1 X220.0
G3 X224.75 Y10.0 I0.0 J4.75
G1 Y86.4
G3 X220.0 Y91.15 I-4.75 J0.0
G1 X218.0
G3 X217.9995 I0.0 J-1.75
G1 F5.0 X217.9994 Y91.55
G1 Z-4.4
G2 F225.0 X198.4259 Y93.4009 I-0.0313 J104.0912
G1 X198.4255 Y93.401
G2 X190.0609 Y95.3628 I19.3469 J101.3025
G1 X190.061 Y95.3627
G1 X190.0609 Y95.3628
G2 X174.926 Y100.8434 I28.7266 J102.9663
G3 X174.9014 Y100.8543 I-0.8822 J-1.9607
G2 X174.7479 Y100.9235 I2.5761 J5.9225
G3 X174.7254 Y100.9338 I-0.9087 J-1.9485
G2 X162.3072 Y107.5185 I46.2326 J102.193
G3 X162.3044 Y107.5203 I-1.1242 J-1.8326
G2 X161.0021 Y108.3302 I51.9139 J84.9211
G3 X161.0014 Y108.3307 I-1.1495 J-1.8169
G2 X151.1046 Y115.3152 I63.6708 J100.7234
G3 X151.1026 Y115.3167 I-1.3274 J-1.6913
