( Made using CamBam - http://www.cambam.co.uk )
( LH OX-c side gantry TALL (Anti Backlash) 7/30/2015 9:09:23 PM )
( T0 : 3.65 )
G21 G90 G64 G40
G0 Z3.0
( T0 : 3.65 )
T0 M6
( Main Holes )
G17
M3 S1000
G0 X49.435 Y128.0
G0 Z1.0
G1 F5.0 Z-0.6
G2 F250.0 X48.4225 Y127.4154 I-0.675 J0.0
G2 Y128.5846 I0.3375 J0.5846
G2 X49.435 Y128.0 I0.3375 J-0.5846
G1 F5.0 Z-1.2
G2 F250.0 X48.4225 Y127.4154 I-0.675 J0.0
G2 Y128.5846 I0.3375 J0.5846
G2 X49.435 Y128.0 I0.3375 J-0.5846
G1 F5.0 Z-1.8
G2 F250.0 X48.4225 Y127.4154 I-0.675 J0.0
G2 Y128.5846 I0.3375 J0.5846
G2 X49.435 Y128.0 I0.3375 J-0.5846
G1 F5.0 Z-2.4
G2 F250.0 X48.4225 Y127.4154 I-0.675 J0.0
G2 Y128.5846 I0.3375 J0.5846
G2 X49.435 Y128.0 I0.3375 J-0.5846
G1 F5.0 Z-3.0
G2 F250.0 X48.4225 Y127.4154 I-0.675 J0.0
G2 Y128.5846 I0.3375 J0.5846
G2 X49.435 Y128.0 I0.3375 J-0.5846
G1 F5.0 Z-3.6
G2 F250.0 X48.4225 Y127.4154 I-0.675 J0.0
G2 Y128.5846 I0.3375 J0.5846
G2 X49.435 Y128.0 I0.3375 J-0.5846
G1 F5.0 Z-4.2
G2 F250.0 X48.4225 Y127.4154 I-0.675 J0.0
G2 Y128.5846 I0.3375 J0.5846
G2 X49.435 Y128.0 I0.3375 J-0.5846
G1 F5.0 Z-4.8
G2 F250.0 X48.4225 Y127.4154 I-0.675 J0.0
G2 Y128.5846 I0.3375 J0.5846
G2 X49.435 Y128.0 I0.3375 J-0.5846
G1 F5.0 Z-5.4
G2 F250.0 X48.4225 Y127.4154 I-0.675 J0.0
G2 Y128.5846 I0.3375 J0.5846
G2 X49.435 Y128.0 I0.3375 J-0.5846
G1 F5.0 Z-6.0
G2 F250.0 X48.4225 Y127.4154 I-0.675 J0.0
G2 Y128.5846 I0.3375 J0.5846
G2 X49.435 Y128.0 I0.3375 J-0.5846
G1 F5.0 Z-6.6
G2 F250.0 X48.4225 Y127.4154 I-0.675 J0.0
G2 Y128.5846 I0.3375 J0.5846
G2 X49.435 Y128.0 I0.3375 J-0.5846
G1 F5.0 Z-7.0
G2 F250.0 X48.4225 Y127.4154 I-0.675 J0.0
G2 Y128.5846 I0.3375 J0.5846
G2 X49.435 Y128.0 I0.3375 J-0.5846
G0 Z3.0
G0 X29.435
G0 Z1.0
G1 F5.0 Z-0.6
G2 F250.0 X28.4225 Y127.4154 I-0.675 J0.0
G2 Y128.5846 I0.3375 J0.5846
G2 X29.435 Y128.0 I0.3375 J-0.5846
G1 F5.0 Z-1.2
G2 F250.0 X28.4225 Y127.4154 I-0.675 J0.0
G2 Y128.5846 I0.3375 J0.5846
G2 X29.435 Y128.0 I0.3375 J-0.5846
G1 F5.0 Z-1.8
G2 F250.0 X28.4225 Y127.4154 I-0.675 J0.0
G2 Y128.5846 I0.3375 J0.5846
G2 X29.435 Y128.0 I0.3375 J-0.5846
G1 F5.0 Z-2.4
G2 F250.0 X28.4225 Y127.4154 I-0.675 J0.0
G2 Y128.5846 I0.3375 J0.5846
G2 X29.435 Y128.0 I0.3375 J-0.5846
G1 F5.0 Z-3.0
G2 F250.0 X28.4225 Y127.4154 I-0.675 J0.0
G2 Y128.5846 I0.3375 J0.5846
G2 X29.435 Y128.0 I0.3375 J-0.5846
G1 F5.0 Z-3.6
G2 F250.0 X28.4225 Y127.4154 I-0.675 J0.0
G2 Y128.5846 I0.3375 J0.5846
G2 X29.435 Y128.0 I0.3375 J-0.5846
G1 F5.0 Z-4.2
G2 F250.0 X28.4225 Y127.4154 I-0.675 J0.0
G2 Y128.5846 I0.3375 J0.5846
G2 X29.435 Y128.0 I0.3375 J-0.5846
G1 F5.0 Z-4.8
G2 F250.0 X28.4225 Y127.4154 I-0.675 J0.0
G2 Y128.5846 I0.3375 J0.5846
G2 X29.435 Y128.0 I0.3375 J-0.5846
G1 F5.0 Z-5.4
G2 F250.0 X28.4225 Y127.4154 I-0.675 J0.0
G2 Y128.5846 I0.3375 J0.5846
G2 X29.435 Y128.0 I0.3375 J-0.5846
G1 F5.0 Z-6.0
G2 F250.0 X28.4225 Y127.4154 I-0.675 J0.0
G2 Y128.5846 I0.3375 J0.5846
G2 X29.435 Y128.0 I0.3375 J-0.5846
G1 F5.0 Z-6.6
G2 F250.0 X28.4225 Y127.4154 I-0.675 J0.0
G2 Y128.5846 I0.3375 J0.5846
G2 X29.435 Y128.0 I0.3375 J-0.5846
G1 F5.0 Z-7.0
G2 F250.0 X28.4225 Y127.4154 I-0.675 J0.0
G2 Y128.5846 I0.3375 J0.5846
G2 X29.435 Y128.0 I0.3375 J-0.5846
G0 Z3.0
G0 X24.6311 Y154.336
G0 Z1.0
G1 F5.0 Z-0.6
G2 F250.0 X24.1725 Y154.4154 I-0.1211 J0.664
G2 Y155.5846 I0.3375 J0.5846
G2 X25.185 Y155.0 I0.3375 J-0.5846
G2 X24.6311 Y154.336 I-0.675 J0.0
G1 F5.0 Z-1.2
G2 F250.0 X24.1725 Y154.4154 I-0.1211 J0.664
G2 Y155.5846 I0.3375 J0.5846
G2 X25.185 Y155.0 I0.3375 J-0.5846
G2 X24.6311 Y154.336 I-0.675 J0.0
G1 F5.0 Z-1.8
G2 F250.0 X24.1725 Y154.4154 I-0.1211 J0.664
G2 Y155.5846 I0.3375 J0.5846
G2 X25.185 Y155.0 I0.3375 J-0.5846
G2 X24.6311 Y154.336 I-0.675 J0.0
G1 F5.0 Z-2.4
G2 F250.0 X24.1725 Y154.4154 I-0.1211 J0.664
G2 Y155.5846 I0.3375 J0.5846
G2 X25.185 Y155.0 I0.3375 J-0.5846
G2 X24.6311 Y154.336 I-0.675 J0.0
G1 F5.0 Z-3.0
G2 F250.0 X24.1725 Y154.4154 I-0.1211 J0.664
G2 Y155.5846 I0.3375 J0.5846
G2 X25.185 Y155.0 I0.3375 J-0.5846
G2 X24.6311 Y154.336 I-0.675 J0.0
G1 F5.0 Z-3.6
G2 F250.0 X24.1725 Y154.4154 I-0.1211 J0.664
G2 Y155.5846 I0.3375 J0.5846
G2 X25.185 Y155.0 I0.3375 J-0.5846
G2 X24.6311 Y154.336 I-0.675 J0.0
G1 F5.0 Z-4.2
G2 F250.0 X24.1725 Y154.4154 I-0.1211 J0.664
G2 Y155.5846 I0.3375 J0.5846
G2 X25.185 Y155.0 I0.3375 J-0.5846
G2 X24.6311 Y154.336 I-0.675 J0.0
G1 F5.0 Z-4.8
G2 F250.0 X24.1725 Y154.4154 I-0.1211 J0.664
G2 Y155.5846 I0.3375 J0.5846
G2 X25.185 Y155.0 I0.3375 J-0.5846
G2 X24.6311 Y154.336 I-0.675 J0.0
G1 F5.0 Z-5.4
G2 F250.0 X24.1725 Y154.4154 I-0.1211 J0.664
G2 Y155.5846 I0.3375 J0.5846
G2 X25.185 Y155.0 I0.3375 J-0.5846
G2 X24.6311 Y154.336 I-0.675 J0.0
G1 F5.0 Z-6.0
G2 F250.0 X24.1725 Y154.4154 I-0.1211 J0.664
G2 Y155.5846 I0.3375 J0.5846
G2 X25.185 Y155.0 I0.3375 J-0.5846
G2 X24.6311 Y154.336 I-0.675 J0.0
G1 F5.0 Z-6.6
G2 F250.0 X24.1725 Y154.4154 I-0.1211 J0.664
G2 Y155.5846 I0.3375 J0.5846
G2 X25.185 Y155.0 I0.3375 J-0.5846
G2 X24.6311 Y154.336 I-0.675 J0.0
G1 F5.0 Z-7.0
G2 F250.0 X24.1725 Y154.4154 I-0.1211 J0.664
G2 Y155.5846 I0.3375 J0.5846
G2 X25.185 Y155.0 I0.3375 J-0.5846
G2 X24.6311 Y154.336 I-0.675 J0.0
G0 Z3.0
G0 X51.2355 Y154.9585
G0 Z1.0
G1 F5.0 Z-0.6
G2 F250.0 X52.1225 Y156.5372 I1.7745 J0.0415
G2 X54.785 Y155.0 I0.8875 J-1.5372
G2 X52.1225 Y153.4628 I-1.775 J0.0
G2 X51.2355 Y154.9585 I0.8875 J1.5372
G1 F5.0 Z-1.2
G2 F250.0 X52.1225 Y156.5372 I1.7745 J0.0415
G2 X54.785 Y155.0 I0.8875 J-1.5372
G2 X52.1225 Y153.4628 I-1.775 J0.0
G2 X51.2355 Y154.9585 I0.8875 J1.5372
G1 F5.0 Z-1.8
G2 F250.0 X52.1225 Y156.5372 I1.7745 J0.0415
G2 X54.785 Y155.0 I0.8875 J-1.5372
G2 X52.1225 Y153.4628 I-1.775 J0.0
G2 X51.2355 Y154.9585 I0.8875 J1.5372
G1 F5.0 Z-2.4
G2 F250.0 X52.1225 Y156.5372 I1.7745 J0.0415
G2 X54.785 Y155.0 I0.8875 J-1.5372
G2 X52.1225 Y153.4628 I-1.775 J0.0
G2 X51.2355 Y154.9585 I0.8875 J1.5372
G1 F5.0 Z-3.0
G2 F250.0 X52.1225 Y156.5372 I1.7745 J0.0415
G2 X54.785 Y155.0 I0.8875 J-1.5372
G2 X52.1225 Y153.4628 I-1.775 J0.0
G2 X51.2355 Y154.9585 I0.8875 J1.5372
G1 F5.0 Z-3.6
G2 F250.0 X52.1225 Y156.5372 I1.7745 J0.0415
G2 X54.785 Y155.0 I0.8875 J-1.5372
G2 X52.1225 Y153.4628 I-1.775 J0.0
G2 X51.2355 Y154.9585 I0.8875 J1.5372
G1 F5.0 Z-4.2
G2 F250.0 X52.1225 Y156.5372 I1.7745 J0.0415
G2 X54.785 Y155.0 I0.8875 J-1.5372
G2 X52.1225 Y153.4628 I-1.775 J0.0
G2 X51.2355 Y154.9585 I0.8875 J1.5372
G1 F5.0 Z-4.8
G2 F250.0 X52.1225 Y156.5372 I1.7745 J0.0415
G2 X54.785 Y155.0 I0.8875 J-1.5372
G2 X52.1225 Y153.4628 I-1.775 J0.0
G2 X51.2355 Y154.9585 I0.8875 J1.5372
G1 F5.0 Z-5.4
G2 F250.0 X52.1225 Y156.5372 I1.7745 J0.0415
G2 X54.785 Y155.0 I0.8875 J-1.5372
G2 X52.1225 Y153.4628 I-1.775 J0.0
G2 X51.2355 Y154.9585 I0.8875 J1.5372
G1 F5.0 Z-6.0
G2 F250.0 X52.1225 Y156.5372 I1.7745 J0.0415
G2 X54.785 Y155.0 I0.8875 J-1.5372
G2 X52.1225 Y153.4628 I-1.775 J0.0
G2 X51.2355 Y154.9585 I0.8875 J1.5372
G1 F5.0 Z-6.6
G2 F250.0 X52.1225 Y156.5372 I1.7745 J0.0415
G2 X54.785 Y155.0 I0.8875 J-1.5372
G2 X52.1225 Y153.4628 I-1.775 J0.0
G2 X51.2355 Y154.9585 I0.8875 J1.5372
G1 F5.0 Z-7.0
G2 F250.0 X52.1225 Y156.5372 I1.7745 J0.0415
G2 X54.785 Y155.0 I0.8875 J-1.5372
G2 X52.1225 Y153.4628 I-1.775 J0.0
G2 X51.2355 Y154.9585 I0.8875 J1.5372
G0 Z3.0
G0 X52.9053 Y183.2281
G0 Z1.0
G1 F5.0 Z-0.6
G2 F250.0 X52.1225 Y183.4628 I0.1047 J1.7719
G2 Y186.5372 I0.8875 J1.5372
G2 X54.785 Y185.0 I0.8875 J-1.5372
G2 X52.9053 Y183.2281 I-1.775 J0.0
G1 F5.0 Z-1.2
G2 F250.0 X52.1225 Y183.4628 I0.1047 J1.7719
G2 Y186.5372 I0.8875 J1.5372
G2 X54.785 Y185.0 I0.8875 J-1.5372
G2 X52.9053 Y183.2281 I-1.775 J0.0
G1 F5.0 Z-1.8
G2 F250.0 X52.1225 Y183.4628 I0.1047 J1.7719
G2 Y186.5372 I0.8875 J1.5372
G2 X54.785 Y185.0 I0.8875 J-1.5372
G2 X52.9053 Y183.2281 I-1.775 J0.0
G1 F5.0 Z-2.4
G2 F250.0 X52.1225 Y183.4628 I0.1047 J1.7719
G2 Y186.5372 I0.8875 J1.5372
G2 X54.785 Y185.0 I0.8875 J-1.5372
G2 X52.9053 Y183.2281 I-1.775 J0.0
G1 F5.0 Z-3.0
G2 F250.0 X52.1225 Y183.4628 I0.1047 J1.7719
G2 Y186.5372 I0.8875 J1.5372
G2 X54.785 Y185.0 I0.8875 J-1.5372
G2 X52.9053 Y183.2281 I-1.775 J0.0
G1 F5.0 Z-3.6
G2 F250.0 X52.1225 Y183.4628 I0.1047 J1.7719
G2 Y186.5372 I0.8875 J1.5372
G2 X54.785 Y185.0 I0.8875 J-1.5372
G2 X52.9053 Y183.2281 I-1.775 J0.0
G1 F5.0 Z-4.2
G2 F250.0 X52.1225 Y183.4628 I0.1047 J1.7719
G2 Y186.5372 I0.8875 J1.5372
G2 X54.785 Y185.0 I0.8875 J-1.5372
G2 X52.9053 Y183.2281 I-1.775 J0.0
G1 F5.0 Z-4.8
G2 F250.0 X52.1225 Y183.4628 I0.1047 J1.7719
G2 Y186.5372 I0.8875 J1.5372
G2 X54.785 Y185.0 I0.8875 J-1.5372
G2 X52.9053 Y183.2281 I-1.775 J0.0
G1 F5.0 Z-5.4
G2 F250.0 X52.1225 Y183.4628 I0.1047 J1.7719
G2 Y186.5372 I0.8875 J1.5372
G2 X54.785 Y185.0 I0.8875 J-1.5372
G2 X52.9053 Y183.2281 I-1.775 J0.0
G1 F5.0 Z-6.0
G2 F250.0 X52.1225 Y183.4628 I0.1047 J1.7719
G2 Y186.5372 I0.8875 J1.5372
G2 X54.785 Y185.0 I0.8875 J-1.5372
G2 X52.9053 Y183.2281 I-1.775 J0.0
G1 F5.0 Z-6.6
G2 F250.0 X52.1225 Y183.4628 I0.1047 J1.7719
G2 Y186.5372 I0.8875 J1.5372
G2 X54.785 Y185.0 I0.8875 J-1.5372
G2 X52.9053 Y183.2281 I-1.775 J0.0
G1 F5.0 Z-7.0
G2 F250.0 X52.1225 Y183.4628 I0.1047 J1.7719
G2 Y186.5372 I0.8875 J1.5372
G2 X54.785 Y185.0 I0.8875 J-1.5372
G2 X52.9053 Y183.2281 I-1.775 J0.0
G0 Z3.0
G0 X25.1837 Y184.958
G0 Z1.0
G1 F5.0 Z-0.6
G2 F250.0 X24.1725 Y184.4154 I-0.6737 J0.042
G2 Y185.5846 I0.3375 J0.5846
G2 X25.185 Y185.0 I0.3375 J-0.5846
G2 X25.1837 Y184.958 I-0.675 J0.0
G1 F5.0 Z-1.2
G2 F250.0 X24.1725 Y184.4154 I-0.6737 J0.042
G2 Y185.5846 I0.3375 J0.5846
G2 X25.185 Y185.0 I0.3375 J-0.5846
G2 X25.1837 Y184.958 I-0.675 J0.0
G1 F5.0 Z-1.8
G2 F250.0 X24.1725 Y184.4154 I-0.6737 J0.042
G2 Y185.5846 I0.3375 J0.5846
G2 X25.185 Y185.0 I0.3375 J-0.5846
G2 X25.1837 Y184.958 I-0.675 J0.0
G1 F5.0 Z-2.4
G2 F250.0 X24.1725 Y184.4154 I-0.6737 J0.042
G2 Y185.5846 I0.3375 J0.5846
G2 X25.185 Y185.0 I0.3375 J-0.5846
G2 X25.1837 Y184.958 I-0.675 J0.0
G1 F5.0 Z-3.0
G2 F250.0 X24.1725 Y184.4154 I-0.6737 J0.042
G2 Y185.5846 I0.3375 J0.5846
G2 X25.185 Y185.0 I0.3375 J-0.5846
G2 X25.1837 Y184.958 I-0.675 J0.0
G1 F5.0 Z-3.6
G2 F250.0 X24.1725 Y184.4154 I-0.6737 J0.042
G2 Y185.5846 I0.3375 J0.5846
G2 X25.185 Y185.0 I0.3375 J-0.5846
G2 X25.1837 Y184.958 I-0.675 J0.0
G1 F5.0 Z-4.2
G2 F250.0 X24.1725 Y184.4154 I-0.6737 J0.042
G2 Y185.5846 I0.3375 J0.5846
G2 X25.185 Y185.0 I0.3375 J-0.5846
G2 X25.1837 Y184.958 I-0.675 J0.0
G1 F5.0 Z-4.8
G2 F250.0 X24.1725 Y184.4154 I-0.6737 J0.042
G2 Y185.5846 I0.3375 J0.5846
G2 X25.185 Y185.0 I0.3375 J-0.5846
G2 X25.1837 Y184.958 I-0.675 J0.0
G1 F5.0 Z-5.4
G2 F250.0 X24.1725 Y184.4154 I-0.6737 J0.042
G2 Y185.5846 I0.3375 J0.5846
G2 X25.185 Y185.0 I0.3375 J-0.5846
G2 X25.1837 Y184.958 I-0.675 J0.0
G1 F5.0 Z-6.0
G2 F250.0 X24.1725 Y184.4154 I-0.6737 J0.042
G2 Y185.5846 I0.3375 J0.5846
G2 X25.185 Y185.0 I0.3375 J-0.5846
G2 X25.1837 Y184.958 I-0.675 J0.0
G1 F5.0 Z-6.6
G2 F250.0 X24.1725 Y184.4154 I-0.6737 J0.042
G2 Y185.5846 I0.3375 J0.5846
G2 X25.185 Y185.0 I0.3375 J-0.5846
G2 X25.1837 Y184.958 I-0.675 J0.0
G1 F5.0 Z-7.0
G2 F250.0 X24.1725 Y184.4154 I-0.6737 J0.042
G2 Y185.5846 I0.3375 J0.5846
G2 X25.185 Y185.0 I0.3375 J-0.5846
G2 X25.1837 Y184.958 I-0.675 J0.0
G0 Z3.0
G0 X86.725 Y184.9988
G0 Z1.0
G1 F5.0 Z-0.6
G2 F250.0 X87.6125 Y186.5372 I1.775 J0.0012
G2 X90.275 Y185.0 I0.8875 J-1.5372
G2 X87.6125 Y183.4628 I-1.775 J0.0
G2 X86.725 Y184.9988 I0.8875 J1.5372
G1 F5.0 Z-1.2
G2 F250.0 X87.6125 Y186.5372 I1.775 J0.0012
G2 X90.275 Y185.0 I0.8875 J-1.5372
G2 X87.6125 Y183.4628 I-1.775 J0.0
G2 X86.725 Y184.9988 I0.8875 J1.5372
G1 F5.0 Z-1.8
G2 F250.0 X87.6125 Y186.5372 I1.775 J0.0012
G2 X90.275 Y185.0 I0.8875 J-1.5372
G2 X87.6125 Y183.4628 I-1.775 J0.0
G2 X86.725 Y184.9988 I0.8875 J1.5372
G1 F5.0 Z-2.4
G2 F250.0 X87.6125 Y186.5372 I1.775 J0.0012
G2 X90.275 Y185.0 I0.8875 J-1.5372
G2 X87.6125 Y183.4628 I-1.775 J0.0
G2 X86.725 Y184.9988 I0.8875 J1.5372
G1 F5.0 Z-3.0
G2 F250.0 X87.6125 Y186.5372 I1.775 J0.0012
G2 X90.275 Y185.0 I0.8875 J-1.5372
G2 X87.6125 Y183.4628 I-1.775 J0.0
G2 X86.725 Y184.9988 I0.8875 J1.5372
G1 F5.0 Z-3.6
G2 F250.0 X87.6125 Y186.5372 I1.775 J0.0012
G2 X90.275 Y185.0 I0.8875 J-1.5372
G2 X87.6125 Y183.4628 I-1.775 J0.0
G2 X86.725 Y184.9988 I0.8875 J1.5372
G1 F5.0 Z-4.2
G2 F250.0 X87.6125 Y186.5372 I1.775 J0.0012
G2 X90.275 Y185.0 I0.8875 J-1.5372
G2 X87.6125 Y183.4628 I-1.775 J0.0
G2 X86.725 Y184.9988 I0.8875 J1.5372
G1 F5.0 Z-4.8
G2 F250.0 X87.6125 Y186.5372 I1.775 J0.0012
G2 X90.275 Y185.0 I0.8875 J-1.5372
G2 X87.6125 Y183.4628 I-1.775 J0.0
G2 X86.725 Y184.9988 I0.8875 J1.5372
G1 F5.0 Z-5.4
G2 F250.0 X87.6125 Y186.5372 I1.775 J0.0012
G2 X90.275 Y185.0 I0.8875 J-1.5372
G2 X87.6125 Y183.4628 I-1.775 J0.0
G2 X86.725 Y184.9988 I0.8875 J1.5372
G1 F5.0 Z-6.0
G2 F250.0 X87.6125 Y186.5372 I1.775 J0.0012
G2 X90.275 Y185.0 I0.8875 J-1.5372
G2 X87.6125 Y183.4628 I-1.775 J0.0
G2 X86.725 Y184.9988 I0.8875 J1.5372
G1 F5.0 Z-6.6
G2 F250.0 X87.6125 Y186.5372 I1.775 J0.0012
G2 X90.275 Y185.0 I0.8875 J-1.5372
G2 X87.6125 Y183.4628 I-1.775 J0.0
G2 X86.725 Y184.9988 I0.8875 J1.5372
G1 F5.0 Z-7.0
G2 F250.0 X87.6125 Y186.5372 I1.775 J0.0012
G2 X90.275 Y185.0 I0.8875 J-1.5372
G2 X87.6125 Y183.4628 I-1.775 J0.0
G2 X86.725 Y184.9988 I0.8875 J1.5372
G0 Z3.0
G0 X88.4629 Y101.7746
G0 Z1.0
G1 F5.0 Z-0.6
G2 F250.0 X90.275 Y100.0 I0.0371 J-1.7746
G2 X87.6125 Y98.4628 I-1.775 J0.0
G2 Y101.5372 I0.8875 J1.5372
G2 X88.4629 Y101.7746 I0.8875 J-1.5372
G1 F5.0 Z-1.2
G2 F250.0 X90.275 Y100.0 I0.0371 J-1.7746
G2 X87.6125 Y98.4628 I-1.775 J0.0
G2 Y101.5372 I0.8875 J1.5372
G2 X88.4629 Y101.7746 I0.8875 J-1.5372
G1 F5.0 Z-1.8
G2 F250.0 X90.275 Y100.0 I0.0371 J-1.7746
G2 X87.6125 Y98.4628 I-1.775 J0.0
G2 Y101.5372 I0.8875 J1.5372
G2 X88.4629 Y101.7746 I0.8875 J-1.5372
G1 F5.0 Z-2.4
G2 F250.0 X90.275 Y100.0 I0.0371 J-1.7746
G2 X87.6125 Y98.4628 I-1.775 J0.0
G2 Y101.5372 I0.8875 J1.5372
G2 X88.4629 Y101.7746 I0.8875 J-1.5372
G1 F5.0 Z-3.0
G2 F250.0 X90.275 Y100.0 I0.0371 J-1.7746
G2 X87.6125 Y98.4628 I-1.775 J0.0
G2 Y101.5372 I0.8875 J1.5372
G2 X88.4629 Y101.7746 I0.8875 J-1.5372
G1 F5.0 Z-3.6
G2 F250.0 X90.275 Y100.0 I0.0371 J-1.7746
G2 X87.6125 Y98.4628 I-1.775 J0.0
G2 Y101.5372 I0.8875 J1.5372
G2 X88.4629 Y101.7746 I0.8875 J-1.5372
G1 F5.0 Z-4.2
G2 F250.0 X90.275 Y100.0 I0.0371 J-1.7746
G2 X87.6125 Y98.4628 I-1.775 J0.0
G2 Y101.5372 I0.8875 J1.5372
G2 X88.4629 Y101.7746 I0.8875 J-1.5372
G1 F5.0 Z-4.8
G2 F250.0 X90.275 Y100.0 I0.0371 J-1.7746
G2 X87.6125 Y98.4628 I-1.775 J0.0
G2 Y101.5372 I0.8875 J1.5372
G2 X88.4629 Y101.7746 I0.8875 J-1.5372
G1 F5.0 Z-5.4
G2 F250.0 X90.275 Y100.0 I0.0371 J-1.7746
G2 X87.6125 Y98.4628 I-1.775 J0.0
G2 Y101.5372 I0.8875 J1.5372
G2 X88.4629 Y101.7746 I0.8875 J-1.5372
G1 F5.0 Z-6.0
G2 F250.0 X90.275 Y100.0 I0.0371 J-1.7746
G2 X87.6125 Y98.4628 I-1.775 J0.0
G2 Y101.5372 I0.8875 J1.5372
G2 X88.4629 Y101.7746 I0.8875 J-1.5372
G1 F5.0 Z-6.6
G2 F250.0 X90.275 Y100.0 I0.0371 J-1.7746
G2 X87.6125 Y98.4628 I-1.775 J0.0
G2 Y101.5372 I0.8875 J1.5372
G2 X88.4629 Y101.7746 I0.8875 J-1.5372
G1 F5.0 Z-7.0
G2 F250.0 X90.275 Y100.0 I0.0371 J-1.7746
G2 X87.6125 Y98.4628 I-1.775 J0.0
G2 Y101.5372 I0.8875 J1.5372
G2 X88.4629 Y101.7746 I0.8875 J-1.5372
G0 Z3.0
G0 X49.3 Y72.405
G0 Z1.0
G1 F5.0 Z-0.6
G2 F250.0 X49.435 Y72.0 I-0.54 J-0.405
G2 X48.4225 Y71.4154 I-0.675 J0.0
G2 Y72.5846 I0.3375 J0.5846
G2 X49.3 Y72.405 I0.3375 J-0.5846
G1 F5.0 Z-1.2
G2 F250.0 X49.435 Y72.0 I-0.54 J-0.405
G2 X48.4225 Y71.4154 I-0.675 J0.0
G2 Y72.5846 I0.3375 J0.5846
G2 X49.3 Y72.405 I0.3375 J-0.5846
G1 F5.0 Z-1.8
G2 F250.0 X49.435 Y72.0 I-0.54 J-0.405
G2 X48.4225 Y71.4154 I-0.675 J0.0
G2 Y72.5846 I0.3375 J0.5846
G2 X49.3 Y72.405 I0.3375 J-0.5846
G1 F5.0 Z-2.4
G2 F250.0 X49.435 Y72.0 I-0.54 J-0.405
G2 X48.4225 Y71.4154 I-0.675 J0.0
G2 Y72.5846 I0.3375 J0.5846
G2 X49.3 Y72.405 I0.3375 J-0.5846
G1 F5.0 Z-3.0
G2 F250.0 X49.435 Y72.0 I-0.54 J-0.405
G2 X48.4225 Y71.4154 I-0.675 J0.0
G2 Y72.5846 I0.3375 J0.5846
G2 X49.3 Y72.405 I0.3375 J-0.5846
G1 F5.0 Z-3.6
G2 F250.0 X49.435 Y72.0 I-0.54 J-0.405
G2 X48.4225 Y71.4154 I-0.675 J0.0
G2 Y72.5846 I0.3375 J0.5846
G2 X49.3 Y72.405 I0.3375 J-0.5846
G1 F5.0 Z-4.2
G2 F250.0 X49.435 Y72.0 I-0.54 J-0.405
G2 X48.4225 Y71.4154 I-0.675 J0.0
G2 Y72.5846 I0.3375 J0.5846
G2 X49.3 Y72.405 I0.3375 J-0.5846
G1 F5.0 Z-4.8
G2 F250.0 X49.435 Y72.0 I-0.54 J-0.405
G2 X48.4225 Y71.4154 I-0.675 J0.0
G2 Y72.5846 I0.3375 J0.5846
G2 X49.3 Y72.405 I0.3375 J-0.5846
G1 F5.0 Z-5.4
G2 F250.0 X49.435 Y72.0 I-0.54 J-0.405
G2 X48.4225 Y71.4154 I-0.675 J0.0
G2 Y72.5846 I0.3375 J0.5846
G2 X49.3 Y72.405 I0.3375 J-0.5846
G1 F5.0 Z-6.0
G2 F250.0 X49.435 Y72.0 I-0.54 J-0.405
G2 X48.4225 Y71.4154 I-0.675 J0.0
G2 Y72.5846 I0.3375 J0.5846
G2 X49.3 Y72.405 I0.3375 J-0.5846
G1 F5.0 Z-6.6
G2 F250.0 X49.435 Y72.0 I-0.54 J-0.405
G2 X48.4225 Y71.4154 I-0.675 J0.0
G2 Y72.5846 I0.3375 J0.5846
G2 X49.3 Y72.405 I0.3375 J-0.5846
G1 F5.0 Z-7.0
G2 F250.0 X49.435 Y72.0 I-0.54 J-0.405
G2 X48.4225 Y71.4154 I-0.675 J0.0
G2 Y72.5846 I0.3375 J0.5846
G2 X49.3 Y72.405 I0.3375 J-0.5846
G0 Z3.0
G0 X29.4349 Y72.0133
G0 Z1.0
G1 F5.0 Z-0.6
G2 F250.0 X29.435 Y72.0 I-0.6749 J-0.0133
G2 X28.4225 Y71.4154 I-0.675 J0.0
G2 Y72.5846 I0.3375 J0.5846
G2 X29.4349 Y72.0133 I0.3375 J-0.5846
G1 F5.0 Z-1.2
G2 F250.0 X29.435 Y72.0 I-0.6749 J-0.0133
G2 X28.4225 Y71.4154 I-0.675 J0.0
G2 Y72.5846 I0.3375 J0.5846
G2 X29.4349 Y72.0133 I0.3375 J-0.5846
G1 F5.0 Z-1.8
G2 F250.0 X29.435 Y72.0 I-0.6749 J-0.0133
G2 X28.4225 Y71.4154 I-0.675 J0.0
G2 Y72.5846 I0.3375 J0.5846
G2 X29.4349 Y72.0133 I0.3375 J-0.5846
G1 F5.0 Z-2.4
G2 F250.0 X29.435 Y72.0 I-0.6749 J-0.0133
G2 X28.4225 Y71.4154 I-0.675 J0.0
G2 Y72.5846 I0.3375 J0.5846
G2 X29.4349 Y72.0133 I0.3375 J-0.5846
G1 F5.0 Z-3.0
G2 F250.0 X29.435 Y72.0 I-0.6749 J-0.0133
G2 X28.4225 Y71.4154 I-0.675 J0.0
G2 Y72.5846 I0.3375 J0.5846
G2 X29.4349 Y72.0133 I0.3375 J-0.5846
G1 F5.0 Z-3.6
G2 F250.0 X29.435 Y72.0 I-0.6749 J-0.0133
G2 X28.4225 Y71.4154 I-0.675 J0.0
G2 Y72.5846 I0.3375 J0.5846
G2 X29.4349 Y72.0133 I0.3375 J-0.5846
G1 F5.0 Z-4.2
G2 F250.0 X29.435 Y72.0 I-0.6749 J-0.0133
G2 X28.4225 Y71.4154 I-0.675 J0.0
G2 Y72.5846 I0.3375 J0.5846
G2 X29.4349 Y72.0133 I0.3375 J-0.5846
G1 F5.0 Z-4.8
G2 F250.0 X29.435 Y72.0 I-0.6749 J-0.0133
G2 X28.4225 Y71.4154 I-0.675 J0.0
G2 Y72.5846 I0.3375 J0.5846
G2 X29.4349 Y72.0133 I0.3375 J-0.5846
G1 F5.0 Z-5.4
G2 F250.0 X29.435 Y72.0 I-0.6749 J-0.0133
G2 X28.4225 Y71.4154 I-0.675 J0.0
G2 Y72.5846 I0.3375 J0.5846
G2 X29.4349 Y72.0133 I0.3375 J-0.5846
G1 F5.0 Z-6.0
G2 F250.0 X29.435 Y72.0 I-0.6749 J-0.0133
G2 X28.4225 Y71.4154 I-0.675 J0.0
G2 Y72.5846 I0.3375 J0.5846
G2 X29.4349 Y72.0133 I0.3375 J-0.5846
G1 F5.0 Z-6.6
G2 F250.0 X29.435 Y72.0 I-0.6749 J-0.0133
G2 X28.4225 Y71.4154 I-0.675 J0.0
G2 Y72.5846 I0.3375 J0.5846
G2 X29.4349 Y72.0133 I0.3375 J-0.5846
G1 F5.0 Z-7.0
G2 F250.0 X29.435 Y72.0 I-0.6749 J-0.0133
G2 X28.4225 Y71.4154 I-0.675 J0.0
G2 Y72.5846 I0.3375 J0.5846
G2 X29.4349 Y72.0133 I0.3375 J-0.5846
G0 Z3.0
G0 X24.6311 Y45.6641
G0 Z1.0
G1 F5.0 Z-0.6
G2 F250.0 X25.185 Y45.0 I-0.1211 J-0.6641
G2 X24.1725 Y44.4154 I-0.675 J0.0
G2 Y45.5846 I0.3375 J0.5846
G2 X24.6311 Y45.6641 I0.3375 J-0.5846
G1 F5.0 Z-1.2
G2 F250.0 X25.185 Y45.0 I-0.1211 J-0.6641
G2 X24.1725 Y44.4154 I-0.675 J0.0
G2 Y45.5846 I0.3375 J0.5846
G2 X24.6311 Y45.6641 I0.3375 J-0.5846
G1 F5.0 Z-1.8
G2 F250.0 X25.185 Y45.0 I-0.1211 J-0.6641
G2 X24.1725 Y44.4154 I-0.675 J0.0
G2 Y45.5846 I0.3375 J0.5846
G2 X24.6311 Y45.6641 I0.3375 J-0.5846
G1 F5.0 Z-2.4
G2 F250.0 X25.185 Y45.0 I-0.1211 J-0.6641
G2 X24.1725 Y44.4154 I-0.675 J0.0
G2 Y45.5846 I0.3375 J0.5846
G2 X24.6311 Y45.6641 I0.3375 J-0.5846
G1 F5.0 Z-3.0
G2 F250.0 X25.185 Y45.0 I-0.1211 J-0.6641
G2 X24.1725 Y44.4154 I-0.675 J0.0
G2 Y45.5846 I0.3375 J0.5846
G2 X24.6311 Y45.6641 I0.3375 J-0.5846
G1 F5.0 Z-3.6
G2 F250.0 X25.185 Y45.0 I-0.1211 J-0.6641
G2 X24.1725 Y44.4154 I-0.675 J0.0
G2 Y45.5846 I0.3375 J0.5846
G2 X24.6311 Y45.6641 I0.3375 J-0.5846
G1 F5.0 Z-4.2
G2 F250.0 X25.185 Y45.0 I-0.1211 J-0.6641
G2 X24.1725 Y44.4154 I-0.675 J0.0
G2 Y45.5846 I0.3375 J0.5846
G2 X24.6311 Y45.6641 I0.3375 J-0.5846
G1 F5.0 Z-4.8
G2 F250.0 X25.185 Y45.0 I-0.1211 J-0.6641
G2 X24.1725 Y44.4154 I-0.675 J0.0
G2 Y45.5846 I0.3375 J0.5846
G2 X24.6311 Y45.6641 I0.3375 J-0.5846
G1 F5.0 Z-5.4
G2 F250.0 X25.185 Y45.0 I-0.1211 J-0.6641
G2 X24.1725 Y44.4154 I-0.675 J0.0
G2 Y45.5846 I0.3375 J0.5846
G2 X24.6311 Y45.6641 I0.3375 J-0.5846
G1 F5.0 Z-6.0
G2 F250.0 X25.185 Y45.0 I-0.1211 J-0.6641
G2 X24.1725 Y44.4154 I-0.675 J0.0
G2 Y45.5846 I0.3375 J0.5846
G2 X24.6311 Y45.6641 I0.3375 J-0.5846
G1 F5.0 Z-6.6
G2 F250.0 X25.185 Y45.0 I-0.1211 J-0.6641
G2 X24.1725 Y44.4154 I-0.675 J0.0
G2 Y45.5846 I0.3375 J0.5846
G2 X24.6311 Y45.6641 I0.3375 J-0.5846
G1 F5.0 Z-7.0
G2 F250.0 X25.185 Y45.0 I-0.1211 J-0.6641
G2 X24.1725 Y44.4154 I-0.675 J0.0
G2 Y45.5846 I0.3375 J0.5846
G2 X24.6311 Y45.6641 I0.3375 J-0.5846
G0 Z3.0
G0 X51.2355 Y45.0415
G0 Z1.0
G1 F5.0 Z-0.6
G2 F250.0 X52.1225 Y46.5372 I1.7745 J-0.0415
G2 X54.785 Y45.0 I0.8875 J-1.5372
G2 X52.1225 Y43.4628 I-1.775 J0.0
G2 X51.2355 Y45.0415 I0.8875 J1.5372
G1 F5.0 Z-1.2
G2 F250.0 X52.1225 Y46.5372 I1.7745 J-0.0415
G2 X54.785 Y45.0 I0.8875 J-1.5372
G2 X52.1225 Y43.4628 I-1.775 J0.0
G2 X51.2355 Y45.0415 I0.8875 J1.5372
G1 F5.0 Z-1.8
G2 F250.0 X52.1225 Y46.5372 I1.7745 J-0.0415
G2 X54.785 Y45.0 I0.8875 J-1.5372
G2 X52.1225 Y43.4628 I-1.775 J0.0
G2 X51.2355 Y45.0415 I0.8875 J1.5372
G1 F5.0 Z-2.4
G2 F250.0 X52.1225 Y46.5372 I1.7745 J-0.0415
G2 X54.785 Y45.0 I0.8875 J-1.5372
G2 X52.1225 Y43.4628 I-1.775 J0.0
G2 X51.2355 Y45.0415 I0.8875 J1.5372
G1 F5.0 Z-3.0
G2 F250.0 X52.1225 Y46.5372 I1.7745 J-0.0415
G2 X54.785 Y45.0 I0.8875 J-1.5372
G2 X52.1225 Y43.4628 I-1.775 J0.0
G2 X51.2355 Y45.0415 I0.8875 J1.5372
G1 F5.0 Z-3.6
G2 F250.0 X52.1225 Y46.5372 I1.7745 J-0.0415
G2 X54.785 Y45.0 I0.8875 J-1.5372
G2 X52.1225 Y43.4628 I-1.775 J0.0
G2 X51.2355 Y45.0415 I0.8875 J1.5372
G1 F5.0 Z-4.2
G2 F250.0 X52.1225 Y46.5372 I1.7745 J-0.0415
G2 X54.785 Y45.0 I0.8875 J-1.5372
G2 X52.1225 Y43.4628 I-1.775 J0.0
G2 X51.2355 Y45.0415 I0.8875 J1.5372
G1 F5.0 Z-4.8
G2 F250.0 X52.1225 Y46.5372 I1.7745 J-0.0415
G2 X54.785 Y45.0 I0.8875 J-1.5372
G2 X52.1225 Y43.4628 I-1.775 J0.0
G2 X51.2355 Y45.0415 I0.8875 J1.5372
G1 F5.0 Z-5.4
G2 F250.0 X52.1225 Y46.5372 I1.7745 J-0.0415
G2 X54.785 Y45.0 I0.8875 J-1.5372
G2 X52.1225 Y43.4628 I-1.775 J0.0
G2 X51.2355 Y45.0415 I0.8875 J1.5372
G1 F5.0 Z-6.0
G2 F250.0 X52.1225 Y46.5372 I1.7745 J-0.0415
G2 X54.785 Y45.0 I0.8875 J-1.5372
G2 X52.1225 Y43.4628 I-1.775 J0.0
G2 X51.2355 Y45.0415 I0.8875 J1.5372
G1 F5.0 Z-6.6
G2 F250.0 X52.1225 Y46.5372 I1.7745 J-0.0415
G2 X54.785 Y45.0 I0.8875 J-1.5372
G2 X52.1225 Y43.4628 I-1.775 J0.0
G2 X51.2355 Y45.0415 I0.8875 J1.5372
G1 F5.0 Z-7.0
G2 F250.0 X52.1225 Y46.5372 I1.7745 J-0.0415
G2 X54.785 Y45.0 I0.8875 J-1.5372
G2 X52.1225 Y43.4628 I-1.775 J0.0
G2 X51.2355 Y45.0415 I0.8875 J1.5372
G0 Z3.0
G0 X52.9053 Y16.7719
G0 Z1.0
G1 F5.0 Z-0.6
G2 F250.0 X54.785 Y15.0 I0.1047 J-1.7719
G2 X52.1225 Y13.4628 I-1.775 J0.0
G2 Y16.5372 I0.8875 J1.5372
G2 X52.9053 Y16.7719 I0.8875 J-1.5372
G1 F5.0 Z-1.2
G2 F250.0 X54.785 Y15.0 I0.1047 J-1.7719
G2 X52.1225 Y13.4628 I-1.775 J0.0
G2 Y16.5372 I0.8875 J1.5372
G2 X52.9053 Y16.7719 I0.8875 J-1.5372
G1 F5.0 Z-1.8
G2 F250.0 X54.785 Y15.0 I0.1047 J-1.7719
G2 X52.1225 Y13.4628 I-1.775 J0.0
G2 Y16.5372 I0.8875 J1.5372
G2 X52.9053 Y16.7719 I0.8875 J-1.5372
G1 F5.0 Z-2.4
G2 F250.0 X54.785 Y15.0 I0.1047 J-1.7719
G2 X52.1225 Y13.4628 I-1.775 J0.0
G2 Y16.5372 I0.8875 J1.5372
G2 X52.9053 Y16.7719 I0.8875 J-1.5372
G1 F5.0 Z-3.0
G2 F250.0 X54.785 Y15.0 I0.1047 J-1.7719
G2 X52.1225 Y13.4628 I-1.775 J0.0
G2 Y16.5372 I0.8875 J1.5372
G2 X52.9053 Y16.7719 I0.8875 J-1.5372
G1 F5.0 Z-3.6
G2 F250.0 X54.785 Y15.0 I0.1047 J-1.7719
G2 X52.1225 Y13.4628 I-1.775 J0.0
G2 Y16.5372 I0.8875 J1.5372
G2 X52.9053 Y16.7719 I0.8875 J-1.5372
G1 F5.0 Z-4.2
G2 F250.0 X54.785 Y15.0 I0.1047 J-1.7719
G2 X52.1225 Y13.4628 I-1.775 J0.0
G2 Y16.5372 I0.8875 J1.5372
G2 X52.9053 Y16.7719 I0.8875 J-1.5372
G1 F5.0 Z-4.8
G2 F250.0 X54.785 Y15.0 I0.1047 J-1.7719
G2 X52.1225 Y13.4628 I-1.775 J0.0
G2 Y16.5372 I0.8875 J1.5372
G2 X52.9053 Y16.7719 I0.8875 J-1.5372
G1 F5.0 Z-5.4
G2 F250.0 X54.785 Y15.0 I0.1047 J-1.7719
G2 X52.1225 Y13.4628 I-1.775 J0.0
G2 Y16.5372 I0.8875 J1.5372
G2 X52.9053 Y16.7719 I0.8875 J-1.5372
G1 F5.0 Z-6.0
G2 F250.0 X54.785 Y15.0 I0.1047 J-1.7719
G2 X52.1225 Y13.4628 I-1.775 J0.0
G2 Y16.5372 I0.8875 J1.5372
G2 X52.9053 Y16.7719 I0.8875 J-1.5372
G1 F5.0 Z-6.6
G2 F250.0 X54.785 Y15.0 I0.1047 J-1.7719
G2 X52.1225 Y13.4628 I-1.775 J0.0
G2 Y16.5372 I0.8875 J1.5372
G2 X52.9053 Y16.7719 I0.8875 J-1.5372
G1 F5.0 Z-7.0
G2 F250.0 X54.785 Y15.0 I0.1047 J-1.7719
G2 X52.1225 Y13.4628 I-1.775 J0.0
G2 Y16.5372 I0.8875 J1.5372
G2 X52.9053 Y16.7719 I0.8875 J-1.5372
G0 Z3.0
G0 X25.1837 Y15.042
G0 Z1.0
G1 F5.0 Z-0.6
G2 F250.0 X25.185 Y15.0 I-0.6737 J-0.042
G2 X24.1725 Y14.4154 I-0.675 J0.0
G2 Y15.5846 I0.3375 J0.5846
G2 X25.1837 Y15.042 I0.3375 J-0.5846
G1 F5.0 Z-1.2
G2 F250.0 X25.185 Y15.0 I-0.6737 J-0.042
G2 X24.1725 Y14.4154 I-0.675 J0.0
G2 Y15.5846 I0.3375 J0.5846
G2 X25.1837 Y15.042 I0.3375 J-0.5846
G1 F5.0 Z-1.8
G2 F250.0 X25.185 Y15.0 I-0.6737 J-0.042
G2 X24.1725 Y14.4154 I-0.675 J0.0
G2 Y15.5846 I0.3375 J0.5846
G2 X25.1837 Y15.042 I0.3375 J-0.5846
G1 F5.0 Z-2.4
G2 F250.0 X25.185 Y15.0 I-0.6737 J-0.042
G2 X24.1725 Y14.4154 I-0.675 J0.0
G2 Y15.5846 I0.3375 J0.5846
G2 X25.1837 Y15.042 I0.3375 J-0.5846
G1 F5.0 Z-3.0
G2 F250.0 X25.185 Y15.0 I-0.6737 J-0.042
G2 X24.1725 Y14.4154 I-0.675 J0.0
G2 Y15.5846 I0.3375 J0.5846
G2 X25.1837 Y15.042 I0.3375 J-0.5846
G1 F5.0 Z-3.6
G2 F250.0 X25.185 Y15.0 I-0.6737 J-0.042
G2 X24.1725 Y14.4154 I-0.675 J0.0
G2 Y15.5846 I0.3375 J0.5846
G2 X25.1837 Y15.042 I0.3375 J-0.5846
G1 F5.0 Z-4.2
G2 F250.0 X25.185 Y15.0 I-0.6737 J-0.042
G2 X24.1725 Y14.4154 I-0.675 J0.0
G2 Y15.5846 I0.3375 J0.5846
G2 X25.1837 Y15.042 I0.3375 J-0.5846
G1 F5.0 Z-4.8
G2 F250.0 X25.185 Y15.0 I-0.6737 J-0.042
G2 X24.1725 Y14.4154 I-0.675 J0.0
G2 Y15.5846 I0.3375 J0.5846
G2 X25.1837 Y15.042 I0.3375 J-0.5846
G1 F5.0 Z-5.4
G2 F250.0 X25.185 Y15.0 I-0.6737 J-0.042
G2 X24.1725 Y14.4154 I-0.675 J0.0
G2 Y15.5846 I0.3375 J0.5846
G2 X25.1837 Y15.042 I0.3375 J-0.5846
G1 F5.0 Z-6.0
G2 F250.0 X25.185 Y15.0 I-0.6737 J-0.042
G2 X24.1725 Y14.4154 I-0.675 J0.0
G2 Y15.5846 I0.3375 J0.5846
G2 X25.1837 Y15.042 I0.3375 J-0.5846
G1 F5.0 Z-6.6
G2 F250.0 X25.185 Y15.0 I-0.6737 J-0.042
G2 X24.1725 Y14.4154 I-0.675 J0.0
G2 Y15.5846 I0.3375 J0.5846
G2 X25.1837 Y15.042 I0.3375 J-0.5846
G1 F5.0 Z-7.0
G2 F250.0 X25.185 Y15.0 I-0.6737 J-0.042
G2 X24.1725 Y14.4154 I-0.675 J0.0
G2 Y15.5846 I0.3375 J0.5846
G2 X25.1837 Y15.042 I0.3375 J-0.5846
G0 Z3.0
G0 X86.725 Y15.0012
G0 Z1.0
G1 F5.0 Z-0.6
G2 F250.0 X87.6125 Y16.5372 I1.775 J-0.0012
G2 X90.275 Y15.0 I0.8875 J-1.5372
G2 X87.6125 Y13.4628 I-1.775 J0.0
G2 X86.725 Y15.0012 I0.8875 J1.5372
G1 F5.0 Z-1.2
G2 F250.0 X87.6125 Y16.5372 I1.775 J-0.0012
G2 X90.275 Y15.0 I0.8875 J-1.5372
G2 X87.6125 Y13.4628 I-1.775 J0.0
G2 X86.725 Y15.0012 I0.8875 J1.5372
G1 F5.0 Z-1.8
G2 F250.0 X87.6125 Y16.5372 I1.775 J-0.0012
G2 X90.275 Y15.0 I0.8875 J-1.5372
G2 X87.6125 Y13.4628 I-1.775 J0.0
G2 X86.725 Y15.0012 I0.8875 J1.5372
G1 F5.0 Z-2.4
G2 F250.0 X87.6125 Y16.5372 I1.775 J-0.0012
G2 X90.275 Y15.0 I0.8875 J-1.5372
G2 X87.6125 Y13.4628 I-1.775 J0.0
G2 X86.725 Y15.0012 I0.8875 J1.5372
G1 F5.0 Z-3.0
G2 F250.0 X87.6125 Y16.5372 I1.775 J-0.0012
G2 X90.275 Y15.0 I0.8875 J-1.5372
G2 X87.6125 Y13.4628 I-1.775 J0.0
G2 X86.725 Y15.0012 I0.8875 J1.5372
G1 F5.0 Z-3.6
G2 F250.0 X87.6125 Y16.5372 I1.775 J-0.0012
G2 X90.275 Y15.0 I0.8875 J-1.5372
G2 X87.6125 Y13.4628 I-1.775 J0.0
G2 X86.725 Y15.0012 I0.8875 J1.5372
G1 F5.0 Z-4.2
G2 F250.0 X87.6125 Y16.5372 I1.775 J-0.0012
G2 X90.275 Y15.0 I0.8875 J-1.5372
G2 X87.6125 Y13.4628 I-1.775 J0.0
G2 X86.725 Y15.0012 I0.8875 J1.5372
G1 F5.0 Z-4.8
G2 F250.0 X87.6125 Y16.5372 I1.775 J-0.0012
G2 X90.275 Y15.0 I0.8875 J-1.5372
G2 X87.6125 Y13.4628 I-1.775 J0.0
G2 X86.725 Y15.0012 I0.8875 J1.5372
G1 F5.0 Z-5.4
G2 F250.0 X87.6125 Y16.5372 I1.775 J-0.0012
G2 X90.275 Y15.0 I0.8875 J-1.5372
G2 X87.6125 Y13.4628 I-1.775 J0.0
G2 X86.725 Y15.0012 I0.8875 J1.5372
G1 F5.0 Z-6.0
G2 F250.0 X87.6125 Y16.5372 I1.775 J-0.0012
G2 X90.275 Y15.0 I0.8875 J-1.5372
G2 X87.6125 Y13.4628 I-1.775 J0.0
G2 X86.725 Y15.0012 I0.8875 J1.5372
G1 F5.0 Z-6.6
G2 F250.0 X87.6125 Y16.5372 I1.775 J-0.0012
G2 X90.275 Y15.0 I0.8875 J-1.5372
G2 X87.6125 Y13.4628 I-1.775 J0.0
G2 X86.725 Y15.0012 I0.8875 J1.5372
G1 F5.0 Z-7.0
G2 F250.0 X87.6125 Y16.5372 I1.775 J-0.0012
G2 X90.275 Y15.0 I0.8875 J-1.5372
G2 X87.6125 Y13.4628 I-1.775 J0.0
G2 X86.725 Y15.0012 I0.8875 J1.5372
G0 Z3.0
G0 X179.326 Y10.0361
G0 Z1.0
G1 F5.0 Z-0.6
G2 F250.0 X179.6625 Y10.5846 I0.674 J-0.0361
G2 X180.675 Y10.0 I0.3375 J-0.5846
G2 X179.6625 Y9.4154 I-0.675 J0.0
G2 X179.326 Y10.0361 I0.3375 J0.5846
G1 F5.0 Z-1.2
G2 F250.0 X179.6625 Y10.5846 I0.674 J-0.0361
G2 X180.675 Y10.0 I0.3375 J-0.5846
G2 X179.6625 Y9.4154 I-0.675 J0.0
G2 X179.326 Y10.0361 I0.3375 J0.5846
G1 F5.0 Z-1.8
G2 F250.0 X179.6625 Y10.5846 I0.674 J-0.0361
G2 X180.675 Y10.0 I0.3375 J-0.5846
G2 X179.6625 Y9.4154 I-0.675 J0.0
G2 X179.326 Y10.0361 I0.3375 J0.5846
G1 F5.0 Z-2.4
G2 F250.0 X179.6625 Y10.5846 I0.674 J-0.0361
G2 X180.675 Y10.0 I0.3375 J-0.5846
G2 X179.6625 Y9.4154 I-0.675 J0.0
G2 X179.326 Y10.0361 I0.3375 J0.5846
G1 F5.0 Z-3.0
G2 F250.0 X179.6625 Y10.5846 I0.674 J-0.0361
G2 X180.675 Y10.0 I0.3375 J-0.5846
G2 X179.6625 Y9.4154 I-0.675 J0.0
G2 X179.326 Y10.0361 I0.3375 J0.5846
G1 F5.0 Z-3.6
G2 F250.0 X179.6625 Y10.5846 I0.674 J-0.0361
G2 X180.675 Y10.0 I0.3375 J-0.5846
G2 X179.6625 Y9.4154 I-0.675 J0.0
G2 X179.326 Y10.0361 I0.3375 J0.5846
G1 F5.0 Z-4.2
G2 F250.0 X179.6625 Y10.5846 I0.674 J-0.0361
G2 X180.675 Y10.0 I0.3375 J-0.5846
G2 X179.6625 Y9.4154 I-0.675 J0.0
G2 X179.326 Y10.0361 I0.3375 J0.5846
G1 F5.0 Z-4.8
G2 F250.0 X179.6625 Y10.5846 I0.674 J-0.0361
G2 X180.675 Y10.0 I0.3375 J-0.5846
G2 X179.6625 Y9.4154 I-0.675 J0.0
G2 X179.326 Y10.0361 I0.3375 J0.5846
G1 F5.0 Z-5.4
G2 F250.0 X179.6625 Y10.5846 I0.674 J-0.0361
G2 X180.675 Y10.0 I0.3375 J-0.5846
G2 X179.6625 Y9.4154 I-0.675 J0.0
G2 X179.326 Y10.0361 I0.3375 J0.5846
G1 F5.0 Z-6.0
G2 F250.0 X179.6625 Y10.5846 I0.674 J-0.0361
G2 X180.675 Y10.0 I0.3375 J-0.5846
G2 X179.6625 Y9.4154 I-0.675 J0.0
G2 X179.326 Y10.0361 I0.3375 J0.5846
G1 F5.0 Z-6.6
G2 F250.0 X179.6625 Y10.5846 I0.674 J-0.0361
G2 X180.675 Y10.0 I0.3375 J-0.5846
G2 X179.6625 Y9.4154 I-0.675 J0.0
G2 X179.326 Y10.0361 I0.3375 J0.5846
G1 F5.0 Z-7.0
G2 F250.0 X179.6625 Y10.5846 I0.674 J-0.0361
G2 X180.675 Y10.0 I0.3375 J-0.5846
G2 X179.6625 Y9.4154 I-0.675 J0.0
G2 X179.326 Y10.0361 I0.3375 J0.5846
G0 Z3.0
G0 X199.325 Y10.0012
G0 Z1.0
G1 F5.0 Z-0.6
G2 F250.0 X199.6625 Y10.5846 I0.675 J-0.0012
G2 X200.675 Y10.0 I0.3375 J-0.5846
G2 X199.6625 Y9.4154 I-0.675 J0.0
G2 X199.325 Y10.0012 I0.3375 J0.5846
G1 F5.0 Z-1.2
G2 F250.0 X199.6625 Y10.5846 I0.675 J-0.0012
G2 X200.675 Y10.0 I0.3375 J-0.5846
G2 X199.6625 Y9.4154 I-0.675 J0.0
G2 X199.325 Y10.0012 I0.3375 J0.5846
G1 F5.0 Z-1.8
G2 F250.0 X199.6625 Y10.5846 I0.675 J-0.0012
G2 X200.675 Y10.0 I0.3375 J-0.5846
G2 X199.6625 Y9.4154 I-0.675 J0.0
G2 X199.325 Y10.0012 I0.3375 J0.5846
G1 F5.0 Z-2.4
G2 F250.0 X199.6625 Y10.5846 I0.675 J-0.0012
G2 X200.675 Y10.0 I0.3375 J-0.5846
G2 X199.6625 Y9.4154 I-0.675 J0.0
G2 X199.325 Y10.0012 I0.3375 J0.5846
G1 F5.0 Z-3.0
G2 F250.0 X199.6625 Y10.5846 I0.675 J-0.0012
G2 X200.675 Y10.0 I0.3375 J-0.5846
G2 X199.6625 Y9.4154 I-0.675 J0.0
G2 X199.325 Y10.0012 I0.3375 J0.5846
G1 F5.0 Z-3.6
G2 F250.0 X199.6625 Y10.5846 I0.675 J-0.0012
G2 X200.675 Y10.0 I0.3375 J-0.5846
G2 X199.6625 Y9.4154 I-0.675 J0.0
G2 X199.325 Y10.0012 I0.3375 J0.5846
G1 F5.0 Z-4.2
G2 F250.0 X199.6625 Y10.5846 I0.675 J-0.0012
G2 X200.675 Y10.0 I0.3375 J-0.5846
G2 X199.6625 Y9.4154 I-0.675 J0.0
G2 X199.325 Y10.0012 I0.3375 J0.5846
G1 F5.0 Z-4.8
G2 F250.0 X199.6625 Y10.5846 I0.675 J-0.0012
G2 X200.675 Y10.0 I0.3375 J-0.5846
G2 X199.6625 Y9.4154 I-0.675 J0.0
G2 X199.325 Y10.0012 I0.3375 J0.5846
G1 F5.0 Z-5.4
G2 F250.0 X199.6625 Y10.5846 I0.675 J-0.0012
G2 X200.675 Y10.0 I0.3375 J-0.5846
G2 X199.6625 Y9.4154 I-0.675 J0.0
G2 X199.325 Y10.0012 I0.3375 J0.5846
G1 F5.0 Z-6.0
G2 F250.0 X199.6625 Y10.5846 I0.675 J-0.0012
G2 X200.675 Y10.0 I0.3375 J-0.5846
G2 X199.6625 Y9.4154 I-0.675 J0.0
G2 X199.325 Y10.0012 I0.3375 J0.5846
G1 F5.0 Z-6.6
G2 F250.0 X199.6625 Y10.5846 I0.675 J-0.0012
G2 X200.675 Y10.0 I0.3375 J-0.5846
G2 X199.6625 Y9.4154 I-0.675 J0.0
G2 X199.325 Y10.0012 I0.3375 J0.5846
G1 F5.0 Z-7.0
G2 F250.0 X199.6625 Y10.5846 I0.675 J-0.0012
G2 X200.675 Y10.0 I0.3375 J-0.5846
G2 X199.6625 Y9.4154 I-0.675 J0.0
G2 X199.325 Y10.0012 I0.3375 J0.5846
G0 Z3.0
G0 X219.325 Y10.0
G0 Z1.0
G1 F5.0 Z-0.6
G2 F250.0 X219.6625 Y10.5846 I0.675 J0.0
G2 X220.675 Y10.0 I0.3375 J-0.5846
G2 X219.6625 Y9.4154 I-0.675 J0.0
G2 X219.325 Y10.0 I0.3375 J0.5846
G1 F5.0 Z-1.2
G2 F250.0 X219.6625 Y10.5846 I0.675 J0.0
G2 X220.675 Y10.0 I0.3375 J-0.5846
G2 X219.6625 Y9.4154 I-0.675 J0.0
G2 X219.325 Y10.0 I0.3375 J0.5846
G1 F5.0 Z-1.8
G2 F250.0 X219.6625 Y10.5846 I0.675 J0.0
G2 X220.675 Y10.0 I0.3375 J-0.5846
G2 X219.6625 Y9.4154 I-0.675 J0.0
G2 X219.325 Y10.0 I0.3375 J0.5846
G1 F5.0 Z-2.4
G2 F250.0 X219.6625 Y10.5846 I0.675 J0.0
G2 X220.675 Y10.0 I0.3375 J-0.5846
G2 X219.6625 Y9.4154 I-0.675 J0.0
G2 X219.325 Y10.0 I0.3375 J0.5846
G1 F5.0 Z-3.0
G2 F250.0 X219.6625 Y10.5846 I0.675 J0.0
G2 X220.675 Y10.0 I0.3375 J-0.5846
G2 X219.6625 Y9.4154 I-0.675 J0.0
G2 X219.325 Y10.0 I0.3375 J0.5846
G1 F5.0 Z-3.6
G2 F250.0 X219.6625 Y10.5846 I0.675 J0.0
G2 X220.675 Y10.0 I0.3375 J-0.5846
G2 X219.6625 Y9.4154 I-0.675 J0.0
G2 X219.325 Y10.0 I0.3375 J0.5846
G1 F5.0 Z-4.2
G2 F250.0 X219.6625 Y10.5846 I0.675 J0.0
G2 X220.675 Y10.0 I0.3375 J-0.5846
G2 X219.6625 Y9.4154 I-0.675 J0.0
G2 X219.325 Y10.0 I0.3375 J0.5846
G1 F5.0 Z-4.8
G2 F250.0 X219.6625 Y10.5846 I0.675 J0.0
G2 X220.675 Y10.0 I0.3375 J-0.5846
G2 X219.6625 Y9.4154 I-0.675 J0.0
G2 X219.325 Y10.0 I0.3375 J0.5846
G1 F5.0 Z-5.4
G2 F250.0 X219.6625 Y10.5846 I0.675 J0.0
G2 X220.675 Y10.0 I0.3375 J-0.5846
G2 X219.6625 Y9.4154 I-0.675 J0.0
G2 X219.325 Y10.0 I0.3375 J0.5846
G1 F5.0 Z-6.0
G2 F250.0 X219.6625 Y10.5846 I0.675 J0.0
G2 X220.675 Y10.0 I0.3375 J-0.5846
G2 X219.6625 Y9.4154 I-0.675 J0.0
G2 X219.325 Y10.0 I0.3375 J0.5846
G1 F5.0 Z-6.6
G2 F250.0 X219.6625 Y10.5846 I0.675 J0.0
G2 X220.675 Y10.0 I0.3375 J-0.5846
G2 X219.6625 Y9.4154 I-0.675 J0.0
G2 X219.325 Y10.0 I0.3375 J0.5846
G1 F5.0 Z-7.0
G2 F250.0 X219.6625 Y10.5846 I0.675 J0.0
G2 X220.675 Y10.0 I0.3375 J-0.5846
G2 X219.6625 Y9.4154 I-0.675 J0.0
G2 X219.325 Y10.0 I0.3375 J0.5846
G0 Z3.0
G0 X239.325
G0 Z1.0
G1 F5.0 Z-0.6
G2 F250.0 X239.6625 Y10.5846 I0.675 J0.0
G2 X240.675 Y10.0 I0.3375 J-0.5846
G2 X239.6625 Y9.4154 I-0.675 J0.0
G2 X239.325 Y10.0 I0.3375 J0.5846
G1 F5.0 Z-1.2
G2 F250.0 X239.6625 Y10.5846 I0.675 J0.0
G2 X240.675 Y10.0 I0.3375 J-0.5846
G2 X239.6625 Y9.4154 I-0.675 J0.0
G2 X239.325 Y10.0 I0.3375 J0.5846
G1 F5.0 Z-1.8
G2 F250.0 X239.6625 Y10.5846 I0.675 J0.0
G2 X240.675 Y10.0 I0.3375 J-0.5846
G2 X239.6625 Y9.4154 I-0.675 J0.0
G2 X239.325 Y10.0 I0.3375 J0.5846
G1 F5.0 Z-2.4
G2 F250.0 X239.6625 Y10.5846 I0.675 J0.0
G2 X240.675 Y10.0 I0.3375 J-0.5846
G2 X239.6625 Y9.4154 I-0.675 J0.0
G2 X239.325 Y10.0 I0.3375 J0.5846
G1 F5.0 Z-3.0
G2 F250.0 X239.6625 Y10.5846 I0.675 J0.0
G2 X240.675 Y10.0 I0.3375 J-0.5846
G2 X239.6625 Y9.4154 I-0.675 J0.0
G2 X239.325 Y10.0 I0.3375 J0.5846
G1 F5.0 Z-3.6
G2 F250.0 X239.6625 Y10.5846 I0.675 J0.0
G2 X240.675 Y10.0 I0.3375 J-0.5846
G2 X239.6625 Y9.4154 I-0.675 J0.0
G2 X239.325 Y10.0 I0.3375 J0.5846
G1 F5.0 Z-4.2
G2 F250.0 X239.6625 Y10.5846 I0.675 J0.0
G2 X240.675 Y10.0 I0.3375 J-0.5846
G2 X239.6625 Y9.4154 I-0.675 J0.0
G2 X239.325 Y10.0 I0.3375 J0.5846
G1 F5.0 Z-4.8
G2 F250.0 X239.6625 Y10.5846 I0.675 J0.0
G2 X240.675 Y10.0 I0.3375 J-0.5846
G2 X239.6625 Y9.4154 I-0.675 J0.0
G2 X239.325 Y10.0 I0.3375 J0.5846
G1 F5.0 Z-5.4
G2 F250.0 X239.6625 Y10.5846 I0.675 J0.0
G2 X240.675 Y10.0 I0.3375 J-0.5846
G2 X239.6625 Y9.4154 I-0.675 J0.0
G2 X239.325 Y10.0 I0.3375 J0.5846
G1 F5.0 Z-6.0
G2 F250.0 X239.6625 Y10.5846 I0.675 J0.0
G2 X240.675 Y10.0 I0.3375 J-0.5846
G2 X239.6625 Y9.4154 I-0.675 J0.0
G2 X239.325 Y10.0 I0.3375 J0.5846
G1 F5.0 Z-6.6
G2 F250.0 X239.6625 Y10.5846 I0.675 J0.0
G2 X240.675 Y10.0 I0.3375 J-0.5846
G2 X239.6625 Y9.4154 I-0.675 J0.0
G2 X239.325 Y10.0 I0.3375 J0.5846
G1 F5.0 Z-7.0
G2 F250.0 X239.6625 Y10.5846 I0.675 J0.0
G2 X240.675 Y10.0 I0.3375 J-0.5846
G2 X239.6625 Y9.4154 I-0.675 J0.0
G2 X239.325 Y10.0 I0.3375 J0.5846
G0 Z3.0
G0 X239.9893 Y51.7251
G0 Z1.0
G1 F5.0 Z-0.6
G2 F250.0 X239.6625 Y51.8154 I0.0107 J0.6749
G2 Y52.9846 I0.3375 J0.5846
G2 X240.675 Y52.4 I0.3375 J-0.5846
G2 X239.9893 Y51.7251 I-0.675 J0.0
G1 F5.0 Z-1.2
G2 F250.0 X239.6625 Y51.8154 I0.0107 J0.6749
G2 Y52.9846 I0.3375 J0.5846
G2 X240.675 Y52.4 I0.3375 J-0.5846
G2 X239.9893 Y51.7251 I-0.675 J0.0
G1 F5.0 Z-1.8
G2 F250.0 X239.6625 Y51.8154 I0.0107 J0.6749
G2 Y52.9846 I0.3375 J0.5846
G2 X240.675 Y52.4 I0.3375 J-0.5846
G2 X239.9893 Y51.7251 I-0.675 J0.0
G1 F5.0 Z-2.4
G2 F250.0 X239.6625 Y51.8154 I0.0107 J0.6749
G2 Y52.9846 I0.3375 J0.5846
G2 X240.675 Y52.4 I0.3375 J-0.5846
G2 X239.9893 Y51.7251 I-0.675 J0.0
G1 F5.0 Z-3.0
G2 F250.0 X239.6625 Y51.8154 I0.0107 J0.6749
G2 Y52.9846 I0.3375 J0.5846
G2 X240.675 Y52.4 I0.3375 J-0.5846
G2 X239.9893 Y51.7251 I-0.675 J0.0
G1 F5.0 Z-3.6
G2 F250.0 X239.6625 Y51.8154 I0.0107 J0.6749
G2 Y52.9846 I0.3375 J0.5846
G2 X240.675 Y52.4 I0.3375 J-0.5846
G2 X239.9893 Y51.7251 I-0.675 J0.0
G1 F5.0 Z-4.2
G2 F250.0 X239.6625 Y51.8154 I0.0107 J0.6749
G2 Y52.9846 I0.3375 J0.5846
G2 X240.675 Y52.4 I0.3375 J-0.5846
G2 X239.9893 Y51.7251 I-0.675 J0.0
G1 F5.0 Z-4.8
G2 F250.0 X239.6625 Y51.8154 I0.0107 J0.6749
G2 Y52.9846 I0.3375 J0.5846
G2 X240.675 Y52.4 I0.3375 J-0.5846
G2 X239.9893 Y51.7251 I-0.675 J0.0
G1 F5.0 Z-5.4
G2 F250.0 X239.6625 Y51.8154 I0.0107 J0.6749
G2 Y52.9846 I0.3375 J0.5846
G2 X240.675 Y52.4 I0.3375 J-0.5846
G2 X239.9893 Y51.7251 I-0.675 J0.0
G1 F5.0 Z-6.0
G2 F250.0 X239.6625 Y51.8154 I0.0107 J0.6749
G2 Y52.9846 I0.3375 J0.5846
G2 X240.675 Y52.4 I0.3375 J-0.5846
G2 X239.9893 Y51.7251 I-0.675 J0.0
G1 F5.0 Z-6.6
G2 F250.0 X239.6625 Y51.8154 I0.0107 J0.6749
G2 Y52.9846 I0.3375 J0.5846
G2 X240.675 Y52.4 I0.3375 J-0.5846
G2 X239.9893 Y51.7251 I-0.675 J0.0
G1 F5.0 Z-7.0
G2 F250.0 X239.6625 Y51.8154 I0.0107 J0.6749
G2 Y52.9846 I0.3375 J0.5846
G2 X240.675 Y52.4 I0.3375 J-0.5846
G2 X239.9893 Y51.7251 I-0.675 J0.0
G0 Z3.0
G0 X233.6863 Y73.1742
G0 Z1.0
G1 F5.0 Z-0.6
G2 F250.0 X233.3638 Y73.2128 I-0.1163 J0.3958
G2 Y73.9272 I0.2063 J0.3572
G2 X233.9825 Y73.57 I0.2063 J-0.3572
G2 X233.6863 Y73.1742 I-0.4125 J0.0
G1 F5.0 Z-1.2
G2 F250.0 X233.3638 Y73.2128 I-0.1163 J0.3958
G2 Y73.9272 I0.2063 J0.3572
G2 X233.9825 Y73.57 I0.2063 J-0.3572
G2 X233.6863 Y73.1742 I-0.4125 J0.0
G1 F5.0 Z-1.8
G2 F250.0 X233.3638 Y73.2128 I-0.1163 J0.3958
G2 Y73.9272 I0.2063 J0.3572
G2 X233.9825 Y73.57 I0.2063 J-0.3572
G2 X233.6863 Y73.1742 I-0.4125 J0.0
G1 F5.0 Z-2.4
G2 F250.0 X233.3638 Y73.2128 I-0.1163 J0.3958
G2 Y73.9272 I0.2063 J0.3572
G2 X233.9825 Y73.57 I0.2063 J-0.3572
G2 X233.6863 Y73.1742 I-0.4125 J0.0
G1 F5.0 Z-3.0
G2 F250.0 X233.3638 Y73.2128 I-0.1163 J0.3958
G2 Y73.9272 I0.2063 J0.3572
G2 X233.9825 Y73.57 I0.2063 J-0.3572
G2 X233.6863 Y73.1742 I-0.4125 J0.0
G1 F5.0 Z-3.6
G2 F250.0 X233.3638 Y73.2128 I-0.1163 J0.3958
G2 Y73.9272 I0.2063 J0.3572
G2 X233.9825 Y73.57 I0.2063 J-0.3572
G2 X233.6863 Y73.1742 I-0.4125 J0.0
G1 F5.0 Z-4.2
G2 F250.0 X233.3638 Y73.2128 I-0.1163 J0.3958
G2 Y73.9272 I0.2063 J0.3572
G2 X233.9825 Y73.57 I0.2063 J-0.3572
G2 X233.6863 Y73.1742 I-0.4125 J0.0
G1 F5.0 Z-4.8
G2 F250.0 X233.3638 Y73.2128 I-0.1163 J0.3958
G2 Y73.9272 I0.2063 J0.3572
G2 X233.9825 Y73.57 I0.2063 J-0.3572
G2 X233.6863 Y73.1742 I-0.4125 J0.0
G1 F5.0 Z-5.4
G2 F250.0 X233.3638 Y73.2128 I-0.1163 J0.3958
G2 Y73.9272 I0.2063 J0.3572
G2 X233.9825 Y73.57 I0.2063 J-0.3572
G2 X233.6863 Y73.1742 I-0.4125 J0.0
G1 F5.0 Z-6.0
G2 F250.0 X233.3638 Y73.2128 I-0.1163 J0.3958
G2 Y73.9272 I0.2063 J0.3572
G2 X233.9825 Y73.57 I0.2063 J-0.3572
G2 X233.6863 Y73.1742 I-0.4125 J0.0
G1 F5.0 Z-6.6
G2 F250.0 X233.3638 Y73.2128 I-0.1163 J0.3958
G2 Y73.9272 I0.2063 J0.3572
G2 X233.9825 Y73.57 I0.2063 J-0.3572
G2 X233.6863 Y73.1742 I-0.4125 J0.0
G1 F5.0 Z-7.0
G2 F250.0 X233.3638 Y73.2128 I-0.1163 J0.3958
G2 Y73.9272 I0.2063 J0.3572
G2 X233.9825 Y73.57 I0.2063 J-0.3572
G2 X233.6863 Y73.1742 I-0.4125 J0.0
G0 Z3.0
G0 X220.6739 Y72.4381
G0 Z1.0
G1 F5.0 Z-0.6
G2 F250.0 X220.675 Y72.4 I-0.6739 J-0.0381
G2 X219.6625 Y71.8154 I-0.675 J0.0
G2 Y72.9846 I0.3375 J0.5846
G2 X220.6739 Y72.4381 I0.3375 J-0.5846
G1 F5.0 Z-1.2
G2 F250.0 X220.675 Y72.4 I-0.6739 J-0.0381
G2 X219.6625 Y71.8154 I-0.675 J0.0
G2 Y72.9846 I0.3375 J0.5846
G2 X220.6739 Y72.4381 I0.3375 J-0.5846
G1 F5.0 Z-1.8
G2 F250.0 X220.675 Y72.4 I-0.6739 J-0.0381
G2 X219.6625 Y71.8154 I-0.675 J0.0
G2 Y72.9846 I0.3375 J0.5846
G2 X220.6739 Y72.4381 I0.3375 J-0.5846
G1 F5.0 Z-2.4
G2 F250.0 X220.675 Y72.4 I-0.6739 J-0.0381
G2 X219.6625 Y71.8154 I-0.675 J0.0
G2 Y72.9846 I0.3375 J0.5846
G2 X220.6739 Y72.4381 I0.3375 J-0.5846
G1 F5.0 Z-3.0
G2 F250.0 X220.675 Y72.4 I-0.6739 J-0.0381
G2 X219.6625 Y71.8154 I-0.675 J0.0
G2 Y72.9846 I0.3375 J0.5846
G2 X220.6739 Y72.4381 I0.3375 J-0.5846
G1 F5.0 Z-3.6
G2 F250.0 X220.675 Y72.4 I-0.6739 J-0.0381
G2 X219.6625 Y71.8154 I-0.675 J0.0
G2 Y72.9846 I0.3375 J0.5846
G2 X220.6739 Y72.4381 I0.3375 J-0.5846
G1 F5.0 Z-4.2
G2 F250.0 X220.675 Y72.4 I-0.6739 J-0.0381
G2 X219.6625 Y71.8154 I-0.675 J0.0
G2 Y72.9846 I0.3375 J0.5846
G2 X220.6739 Y72.4381 I0.3375 J-0.5846
G1 F5.0 Z-4.8
G2 F250.0 X220.675 Y72.4 I-0.6739 J-0.0381
G2 X219.6625 Y71.8154 I-0.675 J0.0
G2 Y72.9846 I0.3375 J0.5846
G2 X220.6739 Y72.4381 I0.3375 J-0.5846
G1 F5.0 Z-5.4
G2 F250.0 X220.675 Y72.4 I-0.6739 J-0.0381
G2 X219.6625 Y71.8154 I-0.675 J0.0
G2 Y72.9846 I0.3375 J0.5846
G2 X220.6739 Y72.4381 I0.3375 J-0.5846
G1 F5.0 Z-6.0
G2 F250.0 X220.675 Y72.4 I-0.6739 J-0.0381
G2 X219.6625 Y71.8154 I-0.675 J0.0
G2 Y72.9846 I0.3375 J0.5846
G2 X220.6739 Y72.4381 I0.3375 J-0.5846
G1 F5.0 Z-6.6
G2 F250.0 X220.675 Y72.4 I-0.6739 J-0.0381
G2 X219.6625 Y71.8154 I-0.675 J0.0
G2 Y72.9846 I0.3375 J0.5846
G2 X220.6739 Y72.4381 I0.3375 J-0.5846
G1 F5.0 Z-7.0
G2 F250.0 X220.675 Y72.4 I-0.6739 J-0.0381
G2 X219.6625 Y71.8154 I-0.675 J0.0
G2 Y72.9846 I0.3375 J0.5846
G2 X220.6739 Y72.4381 I0.3375 J-0.5846
G0 Z3.0
G0 X200.675 Y72.4012
G0 Z1.0
G1 F5.0 Z-0.6
G2 F250.0 Y72.4 I-0.675 J-0.0012
G2 X199.6625 Y71.8154 I-0.675 J0.0
G2 Y72.9846 I0.3375 J0.5846
G2 X200.675 Y72.4012 I0.3375 J-0.5846
G1 F5.0 Z-1.2
G2 F250.0 Y72.4 I-0.675 J-0.0012
G2 X199.6625 Y71.8154 I-0.675 J0.0
G2 Y72.9846 I0.3375 J0.5846
G2 X200.675 Y72.4012 I0.3375 J-0.5846
G1 F5.0 Z-1.8
G2 F250.0 Y72.4 I-0.675 J-0.0012
G2 X199.6625 Y71.8154 I-0.675 J0.0
G2 Y72.9846 I0.3375 J0.5846
G2 X200.675 Y72.4012 I0.3375 J-0.5846
G1 F5.0 Z-2.4
G2 F250.0 Y72.4 I-0.675 J-0.0012
G2 X199.6625 Y71.8154 I-0.675 J0.0
G2 Y72.9846 I0.3375 J0.5846
G2 X200.675 Y72.4012 I0.3375 J-0.5846
G1 F5.0 Z-3.0
G2 F250.0 Y72.4 I-0.675 J-0.0012
G2 X199.6625 Y71.8154 I-0.675 J0.0
G2 Y72.9846 I0.3375 J0.5846
G2 X200.675 Y72.4012 I0.3375 J-0.5846
G1 F5.0 Z-3.6
G2 F250.0 Y72.4 I-0.675 J-0.0012
G2 X199.6625 Y71.8154 I-0.675 J0.0
G2 Y72.9846 I0.3375 J0.5846
G2 X200.675 Y72.4012 I0.3375 J-0.5846
G1 F5.0 Z-4.2
G2 F250.0 Y72.4 I-0.675 J-0.0012
G2 X199.6625 Y71.8154 I-0.675 J0.0
G2 Y72.9846 I0.3375 J0.5846
G2 X200.675 Y72.4012 I0.3375 J-0.5846
G1 F5.0 Z-4.8
G2 F250.0 Y72.4 I-0.675 J-0.0012
G2 X199.6625 Y71.8154 I-0.675 J0.0
G2 Y72.9846 I0.3375 J0.5846
G2 X200.675 Y72.4012 I0.3375 J-0.5846
G1 F5.0 Z-5.4
G2 F250.0 Y72.4 I-0.675 J-0.0012
G2 X199.6625 Y71.8154 I-0.675 J0.0
G2 Y72.9846 I0.3375 J0.5846
G2 X200.675 Y72.4012 I0.3375 J-0.5846
G1 F5.0 Z-6.0
G2 F250.0 Y72.4 I-0.675 J-0.0012
G2 X199.6625 Y71.8154 I-0.675 J0.0
G2 Y72.9846 I0.3375 J0.5846
G2 X200.675 Y72.4012 I0.3375 J-0.5846
G1 F5.0 Z-6.6
G2 F250.0 Y72.4 I-0.675 J-0.0012
G2 X199.6625 Y71.8154 I-0.675 J0.0
G2 Y72.9846 I0.3375 J0.5846
G2 X200.675 Y72.4012 I0.3375 J-0.5846
G1 F5.0 Z-7.0
G2 F250.0 Y72.4 I-0.675 J-0.0012
G2 X199.6625 Y71.8154 I-0.675 J0.0
G2 Y72.9846 I0.3375 J0.5846
G2 X200.675 Y72.4012 I0.3375 J-0.5846
G0 Z3.0
G0 X186.8411 Y73.5363
G0 Z1.0
G1 F5.0 Z-0.6
G2 F250.0 X186.2238 Y73.2128 I-0.4111 J0.0337
G2 Y73.9272 I0.2063 J0.3572
G2 X186.8425 Y73.57 I0.2063 J-0.3572
G2 X186.8411 Y73.5363 I-0.4125 J0.0
G1 F5.0 Z-1.2
G2 F250.0 X186.2238 Y73.2128 I-0.4111 J0.0337
G2 Y73.9272 I0.2063 J0.3572
G2 X186.8425 Y73.57 I0.2063 J-0.3572
G2 X186.8411 Y73.5363 I-0.4125 J0.0
G1 F5.0 Z-1.8
G2 F250.0 X186.2238 Y73.2128 I-0.4111 J0.0337
G2 Y73.9272 I0.2063 J0.3572
G2 X186.8425 Y73.57 I0.2063 J-0.3572
G2 X186.8411 Y73.5363 I-0.4125 J0.0
G1 F5.0 Z-2.4
G2 F250.0 X186.2238 Y73.2128 I-0.4111 J0.0337
G2 Y73.9272 I0.2063 J0.3572
G2 X186.8425 Y73.57 I0.2063 J-0.3572
G2 X186.8411 Y73.5363 I-0.4125 J0.0
G1 F5.0 Z-3.0
G2 F250.0 X186.2238 Y73.2128 I-0.4111 J0.0337
G2 Y73.9272 I0.2063 J0.3572
G2 X186.8425 Y73.57 I0.2063 J-0.3572
G2 X186.8411 Y73.5363 I-0.4125 J0.0
G1 F5.0 Z-3.6
G2 F250.0 X186.2238 Y73.2128 I-0.4111 J0.0337
G2 Y73.9272 I0.2063 J0.3572
G2 X186.8425 Y73.57 I0.2063 J-0.3572
G2 X186.8411 Y73.5363 I-0.4125 J0.0
G1 F5.0 Z-4.2
G2 F250.0 X186.2238 Y73.2128 I-0.4111 J0.0337
G2 Y73.9272 I0.2063 J0.3572
G2 X186.8425 Y73.57 I0.2063 J-0.3572
G2 X186.8411 Y73.5363 I-0.4125 J0.0
G1 F5.0 Z-4.8
G2 F250.0 X186.2238 Y73.2128 I-0.4111 J0.0337
G2 Y73.9272 I0.2063 J0.3572
G2 X186.8425 Y73.57 I0.2063 J-0.3572
G2 X186.8411 Y73.5363 I-0.4125 J0.0
G1 F5.0 Z-5.4
G2 F250.0 X186.2238 Y73.2128 I-0.4111 J0.0337
G2 Y73.9272 I0.2063 J0.3572
G2 X186.8425 Y73.57 I0.2063 J-0.3572
G2 X186.8411 Y73.5363 I-0.4125 J0.0
G1 F5.0 Z-6.0
G2 F250.0 X186.2238 Y73.2128 I-0.4111 J0.0337
G2 Y73.9272 I0.2063 J0.3572
G2 X186.8425 Y73.57 I0.2063 J-0.3572
G2 X186.8411 Y73.5363 I-0.4125 J0.0
G1 F5.0 Z-6.6
G2 F250.0 X186.2238 Y73.2128 I-0.4111 J0.0337
G2 Y73.9272 I0.2063 J0.3572
G2 X186.8425 Y73.57 I0.2063 J-0.3572
G2 X186.8411 Y73.5363 I-0.4125 J0.0
G1 F5.0 Z-7.0
G2 F250.0 X186.2238 Y73.2128 I-0.4111 J0.0337
G2 Y73.9272 I0.2063 J0.3572
G2 X186.8425 Y73.57 I0.2063 J-0.3572
G2 X186.8411 Y73.5363 I-0.4125 J0.0
G0 Z3.0
G0 X180.2079 Y53.0422
G0 Z1.0
G1 F5.0 Z-0.6
G2 F250.0 X180.675 Y52.4 I-0.2079 J-0.6422
G2 X179.6625 Y51.8154 I-0.675 J0.0
G2 Y52.9846 I0.3375 J0.5846
G2 X180.2079 Y53.0422 I0.3375 J-0.5846
G1 F5.0 Z-1.2
G2 F250.0 X180.675 Y52.4 I-0.2079 J-0.6422
G2 X179.6625 Y51.8154 I-0.675 J0.0
G2 Y52.9846 I0.3375 J0.5846
G2 X180.2079 Y53.0422 I0.3375 J-0.5846
G1 F5.0 Z-1.8
G2 F250.0 X180.675 Y52.4 I-0.2079 J-0.6422
G2 X179.6625 Y51.8154 I-0.675 J0.0
G2 Y52.9846 I0.3375 J0.5846
G2 X180.2079 Y53.0422 I0.3375 J-0.5846
G1 F5.0 Z-2.4
G2 F250.0 X180.675 Y52.4 I-0.2079 J-0.6422
G2 X179.6625 Y51.8154 I-0.675 J0.0
G2 Y52.9846 I0.3375 J0.5846
G2 X180.2079 Y53.0422 I0.3375 J-0.5846
G1 F5.0 Z-3.0
G2 F250.0 X180.675 Y52.4 I-0.2079 J-0.6422
G2 X179.6625 Y51.8154 I-0.675 J0.0
G2 Y52.9846 I0.3375 J0.5846
G2 X180.2079 Y53.0422 I0.3375 J-0.5846
G1 F5.0 Z-3.6
G2 F250.0 X180.675 Y52.4 I-0.2079 J-0.6422
G2 X179.6625 Y51.8154 I-0.675 J0.0
G2 Y52.9846 I0.3375 J0.5846
G2 X180.2079 Y53.0422 I0.3375 J-0.5846
G1 F5.0 Z-4.2
G2 F250.0 X180.675 Y52.4 I-0.2079 J-0.6422
G2 X179.6625 Y51.8154 I-0.675 J0.0
G2 Y52.9846 I0.3375 J0.5846
G2 X180.2079 Y53.0422 I0.3375 J-0.5846
G1 F5.0 Z-4.8
G2 F250.0 X180.675 Y52.4 I-0.2079 J-0.6422
G2 X179.6625 Y51.8154 I-0.675 J0.0
G2 Y52.9846 I0.3375 J0.5846
G2 X180.2079 Y53.0422 I0.3375 J-0.5846
G1 F5.0 Z-5.4
G2 F250.0 X180.675 Y52.4 I-0.2079 J-0.6422
G2 X179.6625 Y51.8154 I-0.675 J0.0
G2 Y52.9846 I0.3375 J0.5846
G2 X180.2079 Y53.0422 I0.3375 J-0.5846
G1 F5.0 Z-6.0
G2 F250.0 X180.675 Y52.4 I-0.2079 J-0.6422
G2 X179.6625 Y51.8154 I-0.675 J0.0
G2 Y52.9846 I0.3375 J0.5846
G2 X180.2079 Y53.0422 I0.3375 J-0.5846
G1 F5.0 Z-6.6
G2 F250.0 X180.675 Y52.4 I-0.2079 J-0.6422
G2 X179.6625 Y51.8154 I-0.675 J0.0
G2 Y52.9846 I0.3375 J0.5846
G2 X180.2079 Y53.0422 I0.3375 J-0.5846
G1 F5.0 Z-7.0
G2 F250.0 X180.675 Y52.4 I-0.2079 J-0.6422
G2 X179.6625 Y51.8154 I-0.675 J0.0
G2 Y52.9846 I0.3375 J0.5846
G2 X180.2079 Y53.0422 I0.3375 J-0.5846
( Leadscrew Hole )
S1000
G0 Z3.0
G0 X210.025 Y50.0
G0 Z1.0
G1 F5.0 Z-0.6
G2 F250.0 X209.9875 Y49.9783 I-0.025 J0.0
G2 Y50.0217 I0.0125 J0.0217
G2 X210.025 Y50.0 I0.0125 J-0.0217
G1 F5.0 X210.755
G2 F250.0 X209.6225 Y49.3462 I-0.755 J0.0
G2 Y50.6538 I0.3775 J0.6538
G2 X210.755 Y50.0 I0.3775 J-0.6538
G1 F5.0 X212.215
G2 F250.0 X208.8925 Y48.0818 I-2.215 J0.0
G2 Y51.9182 I1.1075 J1.9182
G2 X212.215 Y50.0 I1.1075 J-1.9182
G1 F5.0 X213.675
G2 F250.0 X208.1625 Y46.8174 I-3.675 J0.0
G2 Y53.1826 I1.8375 J3.1826
G2 X213.675 Y50.0 I1.8375 J-3.1826
G0 Z3.0
G0 X210.025
G0 Z0.4
G1 F5.0 Z-1.2
G2 F250.0 X209.9875 Y49.9783 I-0.025 J0.0
G2 Y50.0217 I0.0125 J0.0217
G2 X210.025 Y50.0 I0.0125 J-0.0217
G1 F5.0 X210.755
G2 F250.0 X209.6225 Y49.3462 I-0.755 J0.0
G2 Y50.6538 I0.3775 J0.6538
G2 X210.755 Y50.0 I0.3775 J-0.6538
G1 F5.0 X212.215
G2 F250.0 X208.8925 Y48.0818 I-2.215 J0.0
G2 Y51.9182 I1.1075 J1.9182
G2 X212.215 Y50.0 I1.1075 J-1.9182
G1 F5.0 X213.675
G2 F250.0 X208.1625 Y46.8174 I-3.675 J0.0
G2 Y53.1826 I1.8375 J3.1826
G2 X213.675 Y50.0 I1.8375 J-3.1826
G0 Z3.0
G0 X210.025
G0 Z-0.2
G1 F5.0 Z-1.8
G2 F250.0 X209.9875 Y49.9783 I-0.025 J0.0
G2 Y50.0217 I0.0125 J0.0217
G2 X210.025 Y50.0 I0.0125 J-0.0217
G1 F5.0 X210.755
G2 F250.0 X209.6225 Y49.3462 I-0.755 J0.0
G2 Y50.6538 I0.3775 J0.6538
G2 X210.755 Y50.0 I0.3775 J-0.6538
G1 F5.0 X212.215
G2 F250.0 X208.8925 Y48.0818 I-2.215 J0.0
G2 Y51.9182 I1.1075 J1.9182
G2 X212.215 Y50.0 I1.1075 J-1.9182
G1 F5.0 X213.675
G2 F250.0 X208.1625 Y46.8174 I-3.675 J0.0
G2 Y53.1826 I1.8375 J3.1826
G2 X213.675 Y50.0 I1.8375 J-3.1826
G0 Z3.0
G0 X210.025
G0 Z-0.8
G1 F5.0 Z-2.4
G2 F250.0 X209.9875 Y49.9783 I-0.025 J0.0
G2 Y50.0217 I0.0125 J0.0217
G2 X210.025 Y50.0 I0.0125 J-0.0217
G1 F5.0 X210.755
G2 F250.0 X209.6225 Y49.3462 I-0.755 J0.0
G2 Y50.6538 I0.3775 J0.6538
G2 X210.755 Y50.0 I0.3775 J-0.6538
G1 F5.0 X212.215
G2 F250.0 X208.8925 Y48.0818 I-2.215 J0.0
G2 Y51.9182 I1.1075 J1.9182
G2 X212.215 Y50.0 I1.1075 J-1.9182
G1 F5.0 X213.675
G2 F250.0 X208.1625 Y46.8174 I-3.675 J0.0
G2 Y53.1826 I1.8375 J3.1826
G2 X213.675 Y50.0 I1.8375 J-3.1826
G0 Z3.0
G0 X210.025
G0 Z-1.4
G1 F5.0 Z-3.0
G2 F250.0 X209.9875 Y49.9783 I-0.025 J0.0
G2 Y50.0217 I0.0125 J0.0217
G2 X210.025 Y50.0 I0.0125 J-0.0217
G1 F5.0 X210.755
G2 F250.0 X209.6225 Y49.3462 I-0.755 J0.0
G2 Y50.6538 I0.3775 J0.6538
G2 X210.755 Y50.0 I0.3775 J-0.6538
G1 F5.0 X212.215
G2 F250.0 X208.8925 Y48.0818 I-2.215 J0.0
G2 Y51.9182 I1.1075 J1.9182
G2 X212.215 Y50.0 I1.1075 J-1.9182
G1 F5.0 X213.675
G2 F250.0 X208.1625 Y46.8174 I-3.675 J0.0
G2 Y53.1826 I1.8375 J3.1826
G2 X213.675 Y50.0 I1.8375 J-3.1826
G0 Z3.0
G0 X210.025
G0 Z-2.0
G1 F5.0 Z-3.6
G2 F250.0 X209.9875 Y49.9783 I-0.025 J0.0
G2 Y50.0217 I0.0125 J0.0217
G2 X210.025 Y50.0 I0.0125 J-0.0217
G1 F5.0 X210.755
G2 F250.0 X209.6225 Y49.3462 I-0.755 J0.0
G2 Y50.6538 I0.3775 J0.6538
G2 X210.755 Y50.0 I0.3775 J-0.6538
G1 F5.0 X212.215
G2 F250.0 X208.8925 Y48.0818 I-2.215 J0.0
G2 Y51.9182 I1.1075 J1.9182
G2 X212.215 Y50.0 I1.1075 J-1.9182
G1 F5.0 X213.675
G2 F250.0 X208.1625 Y46.8174 I-3.675 J0.0
G2 Y53.1826 I1.8375 J3.1826
G2 X213.675 Y50.0 I1.8375 J-3.1826
G0 Z3.0
G0 X210.025
G0 Z-2.6
G1 F5.0 Z-4.2
G2 F250.0 X209.9875 Y49.9783 I-0.025 J0.0
G2 Y50.0217 I0.0125 J0.0217
G2 X210.025 Y50.0 I0.0125 J-0.0217
G1 F5.0 X210.755
G2 F250.0 X209.6225 Y49.3462 I-0.755 J0.0
G2 Y50.6538 I0.3775 J0.6538
G2 X210.755 Y50.0 I0.3775 J-0.6538
G1 F5.0 X212.215
G2 F250.0 X208.8925 Y48.0818 I-2.215 J0.0
G2 Y51.9182 I1.1075 J1.9182
G2 X212.215 Y50.0 I1.1075 J-1.9182
G1 F5.0 X213.675
G2 F250.0 X208.1625 Y46.8174 I-3.675 J0.0
G2 Y53.1826 I1.8375 J3.1826
G2 X213.675 Y50.0 I1.8375 J-3.1826
G0 Z3.0
G0 X210.025
G0 Z-3.2
G1 F5.0 Z-4.8
G2 F250.0 X209.9875 Y49.9783 I-0.025 J0.0
G2 Y50.0217 I0.0125 J0.0217
G2 X210.025 Y50.0 I0.0125 J-0.0217
G1 F5.0 X210.755
G2 F250.0 X209.6225 Y49.3462 I-0.755 J0.0
G2 Y50.6538 I0.3775 J0.6538
G2 X210.755 Y50.0 I0.3775 J-0.6538
G1 F5.0 X212.215
G2 F250.0 X208.8925 Y48.0818 I-2.215 J0.0
G2 Y51.9182 I1.1075 J1.9182
G2 X212.215 Y50.0 I1.1075 J-1.9182
G1 F5.0 X213.675
G2 F250.0 X208.1625 Y46.8174 I-3.675 J0.0
G2 Y53.1826 I1.8375 J3.1826
G2 X213.675 Y50.0 I1.8375 J-3.1826
G0 Z3.0
G0 X210.025
G0 Z-3.8
G1 F5.0 Z-5.4
G2 F250.0 X209.9875 Y49.9783 I-0.025 J0.0
G2 Y50.0217 I0.0125 J0.0217
G2 X210.025 Y50.0 I0.0125 J-0.0217
G1 F5.0 X210.755
G2 F250.0 X209.6225 Y49.3462 I-0.755 J0.0
G2 Y50.6538 I0.3775 J0.6538
G2 X210.755 Y50.0 I0.3775 J-0.6538
G1 F5.0 X212.215
G2 F250.0 X208.8925 Y48.0818 I-2.215 J0.0
G2 Y51.9182 I1.1075 J1.9182
G2 X212.215 Y50.0 I1.1075 J-1.9182
G1 F5.0 X213.675
G2 F250.0 X208.1625 Y46.8174 I-3.675 J0.0
G2 Y53.1826 I1.8375 J3.1826
G2 X213.675 Y50.0 I1.8375 J-3.1826
G0 Z3.0
G0 X210.025
G0 Z-4.4
G1 F5.0 Z-6.0
G2 F250.0 X209.9875 Y49.9783 I-0.025 J0.0
G2 Y50.0217 I0.0125 J0.0217
G2 X210.025 Y50.0 I0.0125 J-0.0217
G1 F5.0 X210.755
G2 F250.0 X209.6225 Y49.3462 I-0.755 J0.0
G2 Y50.6538 I0.3775 J0.6538
G2 X210.755 Y50.0 I0.3775 J-0.6538
G1 F5.0 X212.215
G2 F250.0 X208.8925 Y48.0818 I-2.215 J0.0
G2 Y51.9182 I1.1075 J1.9182
G2 X212.215 Y50.0 I1.1075 J-1.9182
G1 F5.0 X213.675
G2 F250.0 X208.1625 Y46.8174 I-3.675 J0.0
G2 Y53.1826 I1.8375 J3.1826
G2 X213.675 Y50.0 I1.8375 J-3.1826
G0 Z3.0
G0 X210.025
G0 Z-5.0
G1 F5.0 Z-6.6
G2 F250.0 X209.9875 Y49.9783 I-0.025 J0.0
G2 Y50.0217 I0.0125 J0.0217
G2 X210.025 Y50.0 I0.0125 J-0.0217
G1 F5.0 X210.755
G2 F250.0 X209.6225 Y49.3462 I-0.755 J0.0
G2 Y50.6538 I0.3775 J0.6538
G2 X210.755 Y50.0 I0.3775 J-0.6538
G1 F5.0 X212.215
G2 F250.0 X208.8925 Y48.0818 I-2.215 J0.0
G2 Y51.9182 I1.1075 J1.9182
G2 X212.215 Y50.0 I1.1075 J-1.9182
G1 F5.0 X213.675
G2 F250.0 X208.1625 Y46.8174 I-3.675 J0.0
G2 Y53.1826 I1.8375 J3.1826
G2 X213.675 Y50.0 I1.8375 J-3.1826
G0 Z3.0
G0 X210.025
G0 Z-5.6
G1 F5.0 Z-7.0
G2 F250.0 X209.9875 Y49.9783 I-0.025 J0.0
G2 Y50.0217 I0.0125 J0.0217
G2 X210.025 Y50.0 I0.0125 J-0.0217
G1 F5.0 X210.755
G2 F250.0 X209.6225 Y49.3462 I-0.755 J0.0
G2 Y50.6538 I0.3775 J0.6538
G2 X210.755 Y50.0 I0.3775 J-0.6538
G1 F5.0 X212.215
G2 F250.0 X208.8925 Y48.0818 I-2.215 J0.0
G2 Y51.9182 I1.1075 J1.9182
G2 X212.215 Y50.0 I1.1075 J-1.9182
G1 F5.0 X213.675
G2 F250.0 X208.1625 Y46.8174 I-3.675 J0.0
G2 Y53.1826 I1.8375 J3.1826
G2 X213.675 Y50.0 I1.8375 J-3.1826
( Bearing Pocket )
S1000
G0 Z0.0
G1 F5.0 X216.175
G2 F250.0 X206.9125 Y44.6523 Z-0.2 I-6.175 J0.0
G2 Y55.3477 Z-0.4 I3.0875 J5.3477
G2 X216.175 Y50.0 Z-0.6 I3.0875 J-5.3477
G2 X206.9125 Y44.6523 Z-0.8 I-6.175 J0.0
G2 Y55.3477 Z-1.0 I3.0875 J5.3477
G2 X216.175 Y50.0 Z-1.2 I3.0875 J-5.3477
G2 X206.9125 Y44.6523 Z-1.4 I-6.175 J0.0
G2 Y55.3477 Z-1.6 I3.0875 J5.3477
G2 X216.175 Y50.0 Z-1.8 I3.0875 J-5.3477
G2 X206.9125 Y44.6523 Z-2.0 I-6.175 J0.0
G2 Y55.3477 Z-2.2 I3.0875 J5.3477
G2 X216.175 Y50.0 Z-2.4 I3.0875 J-5.3477
G2 X206.9125 Y44.6523 Z-2.6 I-6.175 J0.0
G2 Y55.3477 Z-2.8 I3.0875 J5.3477
G2 X216.175 Y50.0 Z-3.0 I3.0875 J-5.3477
G2 X206.9125 Y44.6523 Z-3.1167 I-6.175 J0.0
G2 Y55.3477 Z-3.2333 I3.0875 J5.3477
G2 X216.175 Y50.0 Z-3.35 I3.0875 J-5.3477
G2 X206.9125 Y44.6523 I-6.175 J0.0
G2 Y55.3477 I3.0875 J5.3477
G2 X216.175 Y50.0 I3.0875 J-5.3477
( Large Wheel Eccentric Pockets )
S1000
G0 Z3.0
G0 X92.675 Y185.0
G0 Z1.0
G1 F5.0 Z0.0
G2 F250.0 X86.4125 Y181.3843 Z-0.1333 I-4.175 J0.0
G2 Y188.6157 Z-0.2667 I2.0875 J3.6157
G2 X92.675 Y185.0 Z-0.4 I2.0875 J-3.6157
G2 X86.4125 Y181.3843 Z-0.5333 I-4.175 J0.0
G2 Y188.6157 Z-0.6667 I2.0875 J3.6157
G2 X92.675 Y185.0 Z-0.8 I2.0875 J-3.6157
G2 X86.4125 Y181.3843 Z-0.8333 I-4.175 J0.0
G2 Y188.6157 Z-0.8667 I2.0875 J3.6157
G2 X92.675 Y185.0 Z-0.9 I2.0875 J-3.6157
G2 X86.4125 Y181.3843 I-4.175 J0.0
G2 Y188.6157 I2.0875 J3.6157
G2 X92.675 Y185.0 I2.0875 J-3.6157
G0 Z3.0
G0 X88.7048 Y104.17
G0 Z1.0
G1 F5.0 Z0.0
G2 F250.0 X92.675 Y100.0 Z-0.0969 I-0.2048 J-4.17
G2 X86.4125 Y96.3843 Z-0.2302 I-4.175 J0.0
G2 Y103.6157 Z-0.3635 I2.0875 J3.6157
G2 X88.7048 Y104.17 Z-0.4 I2.0875 J-3.6157
G2 X92.675 Y100.0 Z-0.4969 I-0.2048 J-4.17
G2 X86.4125 Y96.3843 Z-0.6302 I-4.175 J0.0
G2 Y103.6157 Z-0.7635 I2.0875 J3.6157
G2 X88.7048 Y104.17 Z-0.8 I2.0875 J-3.6157
G2 X92.675 Y100.0 Z-0.8242 I-0.2048 J-4.17
G2 X86.4125 Y96.3843 Z-0.8576 I-4.175 J0.0
G2 Y103.6157 Z-0.8909 I2.0875 J3.6157
G2 X88.7048 Y104.17 Z-0.9 I2.0875 J-3.6157
G2 X92.675 Y100.0 I-0.2048 J-4.17
G2 X86.4125 Y96.3843 I-4.175 J0.0
G2 Y103.6157 I2.0875 J3.6157
G2 X88.7048 Y104.17 I2.0875 J-3.6157
G0 Z3.0
G0 X88.5096 Y19.175
G0 Z1.0
G1 F5.0 Z0.0
G2 F250.0 X92.675 Y15.0 Z-0.0999 I-0.0096 J-4.175
G2 X86.4125 Y11.3843 Z-0.2332 I-4.175 J0.0
G2 Y18.6157 Z-0.3665 I2.0875 J3.6157
G2 X88.5096 Y19.175 Z-0.4 I2.0875 J-3.6157
G2 X92.675 Y15.0 Z-0.4999 I-0.0096 J-4.175
G2 X86.4125 Y11.3843 Z-0.6332 I-4.175 J0.0
G2 Y18.6157 Z-0.7665 I2.0875 J3.6157
G2 X88.5096 Y19.175 Z-0.8 I2.0875 J-3.6157
G2 X92.675 Y15.0 Z-0.825 I-0.0096 J-4.175
G2 X86.4125 Y11.3843 Z-0.8583 I-4.175 J0.0
G2 Y18.6157 Z-0.8916 I2.0875 J3.6157
G2 X88.5096 Y19.175 Z-0.9 I2.0875 J-3.6157
G2 X92.675 Y15.0 I-0.0096 J-4.175
G2 X86.4125 Y11.3843 I-4.175 J0.0
G2 Y18.6157 I2.0875 J3.6157
G2 X88.5096 Y19.175 I2.0875 J-3.6157
( Backlash-Nut Access )
S1000
G0 Z3.0
G0 X64.035 Y112.0
G0 Z1.0
G1 F5.0 Z0.0
G1 F250.0 Y98.0 Z-0.0924
G2 X63.26 Y97.225 Z-0.1005 I-0.775 J0.0
G1 X34.26 Z-0.292
G2 X33.485 Y98.0 Z-0.3 I0.0 J0.775
G1 Y112.0 Z-0.3924
G2 X34.26 Y112.775 Z-0.4005 I0.775 J0.0
G1 X63.26 Z-0.592
G2 X64.035 Y112.0 Z-0.6 I0.0 J-0.775
G1 X64.435
G1 Y98.0
G2 X63.26 Y96.825 I-1.175 J0.0
G1 X34.26
G2 X33.085 Y98.0 I0.0 J1.175
G1 Y112.0
G2 X34.26 Y113.175 I1.175 J0.0
G1 X63.26
G2 X64.435 Y112.0 I0.0 J-1.175
G1 X64.035
G1 Y98.0 Z-0.6924
G2 X63.26 Y97.225 Z-0.7005 I-0.775 J0.0
G1 X34.26 Z-0.892
G2 X33.485 Y98.0 Z-0.9 I0.0 J0.775
G1 Y112.0 Z-0.9924
G2 X34.26 Y112.775 Z-1.0005 I0.775 J0.0
G1 X63.26 Z-1.192
G2 X64.035 Y112.0 Z-1.2 I0.0 J-0.775
G1 X64.435
G1 Y98.0
G2 X63.26 Y96.825 I-1.175 J0.0
G1 X34.26
G2 X33.085 Y98.0 I0.0 J1.175
G1 Y112.0
G2 X34.26 Y113.175 I1.175 J0.0
G1 X63.26
G2 X64.435 Y112.0 I0.0 J-1.175
G1 X64.035
G1 Y98.0 Z-1.2924
G2 X63.26 Y97.225 Z-1.3005 I-0.775 J0.0
G1 X34.26 Z-1.492
G2 X33.485 Y98.0 Z-1.5 I0.0 J0.775
G1 Y112.0 Z-1.5924
G2 X34.26 Y112.775 Z-1.6005 I0.775 J0.0
G1 X63.26 Z-1.792
G2 X64.035 Y112.0 Z-1.8 I0.0 J-0.775
G1 X64.435
G1 Y98.0
G2 X63.26 Y96.825 I-1.175 J0.0
G1 X34.26
G2 X33.085 Y98.0 I0.0 J1.175
G1 Y112.0
G2 X34.26 Y113.175 I1.175 J0.0
G1 X63.26
G2 X64.435 Y112.0 I0.0 J-1.175
G1 X64.035
G1 Y98.0 Z-1.8924
G2 X63.26 Y97.225 Z-1.9005 I-0.775 J0.0
G1 X34.26 Z-2.092
G2 X33.485 Y98.0 Z-2.1 I0.0 J0.775
G1 Y112.0 Z-2.1924
G2 X34.26 Y112.775 Z-2.2005 I0.775 J0.0
G1 X63.26 Z-2.392
G2 X64.035 Y112.0 Z-2.4 I0.0 J-0.775
G1 X64.435
G1 Y98.0
G2 X63.26 Y96.825 I-1.175 J0.0
G1 X34.26
G2 X33.085 Y98.0 I0.0 J1.175
G1 Y112.0
G2 X34.26 Y113.175 I1.175 J0.0
G1 X63.26
G2 X64.435 Y112.0 I0.0 J-1.175
G1 X64.035
G1 Y98.0 Z-2.4924
G2 X63.26 Y97.225 Z-2.5005 I-0.775 J0.0
G1 X34.26 Z-2.692
G2 X33.485 Y98.0 Z-2.7 I0.0 J0.775
G1 Y112.0 Z-2.7924
G2 X34.26 Y112.775 Z-2.8005 I0.775 J0.0
G1 X63.26 Z-2.992
G2 X64.035 Y112.0 Z-3.0 I0.0 J-0.775
G1 X64.435
G1 Y98.0
G2 X63.26 Y96.825 I-1.175 J0.0
G1 X34.26
G2 X33.085 Y98.0 I0.0 J1.175
G1 Y112.0
G2 X34.26 Y113.175 I1.175 J0.0
G1 X63.26
G2 X64.435 Y112.0 I0.0 J-1.175
G1 X64.035
G1 Y98.0 Z-3.0924
G2 X63.26 Y97.225 Z-3.1005 I-0.775 J0.0
G1 X34.26 Z-3.292
G2 X33.485 Y98.0 Z-3.3 I0.0 J0.775
G1 Y112.0 Z-3.3924
G2 X34.26 Y112.775 Z-3.4005 I0.775 J0.0
G1 X63.26 Z-3.592
G2 X64.035 Y112.0 Z-3.6 I0.0 J-0.775
G1 X64.435
G1 Y98.0
G2 X63.26 Y96.825 I-1.175 J0.0
G1 X34.26
G2 X33.085 Y98.0 I0.0 J1.175
G1 Y112.0
G2 X34.26 Y113.175 I1.175 J0.0
G1 X63.26
G2 X64.435 Y112.0 I0.0 J-1.175
G1 X64.035
G1 Y98.0 Z-3.6924
G2 X63.26 Y97.225 Z-3.7005 I-0.775 J0.0
G1 X59.585 Z-3.7247
G1 X57.585 Z-3.7379
G1 X53.935 Z-3.7621
G1 X51.935 Z-3.7753
G1 X34.26 Z-3.892
G2 X33.485 Y98.0 Z-3.9 I0.0 J0.775
G1 Y112.0 Z-3.9924
G2 X34.26 Y112.775 Z-4.0005 I0.775 J0.0
G1 X37.935 Z-4.0247
G1 X39.935 Z-4.0
G1 X43.585
G1 X45.585 Z-4.0753
G1 X63.26 Z-4.192
G2 X64.035 Y112.0 Z-4.2 I0.0 J-0.775
G1 X64.435
G1 Y98.0
G2 X63.26 Y96.825 I-1.175 J0.0
G1 X59.585
G1 X57.585 Z-4.0
G1 X53.935
G1 X51.935 Z-4.2
G1 X34.26
G2 X33.085 Y98.0 I0.0 J1.175
G1 Y112.0
G2 X34.26 Y113.175 I1.175 J0.0
G1 X37.935
G1 X39.935 Z-4.0
G1 X43.585
G1 X45.585 Z-4.2
G1 X63.26
G2 X64.435 Y112.0 I0.0 J-1.175
G1 X64.035
G1 Y98.0 Z-4.2924
G2 X63.26 Y97.225 Z-4.3005 I-0.775 J0.0
G1 X59.585 Z-4.3247
G1 X57.585 Z-4.0
G1 X53.935
G1 X51.935 Z-4.3753
G1 X34.26 Z-4.492
G2 X33.485 Y98.0 Z-4.5 I0.0 J0.775
G1 Y112.0 Z-4.5924
G2 X34.26 Y112.775 Z-4.6005 I0.775 J0.0
G1 X37.935 Z-4.6247
G1 X39.935 Z-4.0
G1 X43.585
G1 X45.585 Z-4.6753
G1 X63.26 Z-4.792
G2 X64.035 Y112.0 Z-4.8 I0.0 J-0.775
G1 X64.435
G1 Y98.0
G2 X63.26 Y96.825 I-1.175 J0.0
G1 X59.585
G1 X57.585 Z-4.0
G1 X53.935
G1 X51.935 Z-4.8
G1 X34.26
G2 X33.085 Y98.0 I0.0 J1.175
G1 Y112.0
G2 X34.26 Y113.175 I1.175 J0.0
G1 X37.935
G1 X39.935 Z-4.0
G1 X43.585
G1 X45.585 Z-4.8
G1 X63.26
G2 X64.435 Y112.0 I0.0 J-1.175
G1 X64.035
G1 Y98.0 Z-4.8924
G2 X63.26 Y97.225 Z-4.9005 I-0.775 J0.0
G1 X59.585 Z-4.9247
G1 X57.585 Z-4.0
G1 X53.935
G1 X51.935 Z-4.9753
G1 X34.26 Z-5.092
G2 X33.485 Y98.0 Z-5.1 I0.0 J0.775
G1 Y112.0 Z-5.1924
G2 X34.26 Y112.775 Z-5.2005 I0.775 J0.0
G1 X37.935 Z-5.2247
G1 X39.935 Z-4.0
G1 X43.585
G1 X45.585 Z-5.2753
G1 X63.26 Z-5.392
G2 X64.035 Y112.0 Z-5.4 I0.0 J-0.775
G1 X64.435
G1 Y98.0
G2 X63.26 Y96.825 I-1.175 J0.0
G1 X59.585
G1 X57.585 Z-4.0
G1 X53.935
G1 X51.935 Z-5.4
G1 X34.26
G2 X33.085 Y98.0 I0.0 J1.175
G1 Y112.0
G2 X34.26 Y113.175 I1.175 J0.0
G1 X37.935
G1 X39.935 Z-4.0
G1 X43.585
G1 X45.585 Z-5.4
G1 X63.26
G2 X64.435 Y112.0 I0.0 J-1.175
G1 X64.035
G1 Y98.0 Z-5.4924
G2 X63.26 Y97.225 Z-5.5005 I-0.775 J0.0
G1 X59.585 Z-5.5247
G1 X57.585 Z-4.0
G1 X53.935
G1 X51.935 Z-5.5753
G1 X34.26 Z-5.692
G2 X33.485 Y98.0 Z-5.7 I0.0 J0.775
G1 Y112.0 Z-5.7924
G2 X34.26 Y112.775 Z-5.8005 I0.775 J0.0
G1 X37.935 Z-5.8247
G1 X39.935 Z-4.0
G1 X43.585
G1 X45.585 Z-5.8753
G1 X63.26 Z-5.992
G2 X64.035 Y112.0 Z-6.0 I0.0 J-0.775
G1 X64.435
G1 Y98.0
G2 X63.26 Y96.825 I-1.175 J0.0
G1 X59.585
G1 X57.585 Z-4.0
G1 X53.935
G1 X51.935 Z-6.0
G1 X34.26
G2 X33.085 Y98.0 I0.0 J1.175
G1 Y112.0
G2 X34.26 Y113.175 I1.175 J0.0
G1 X37.935
G1 X39.935 Z-4.0
G1 X43.585
G1 X45.585 Z-6.0
G1 X63.26
G2 X64.435 Y112.0 I0.0 J-1.175
G1 X64.035
G1 Y98.0 Z-6.0924
G2 X63.26 Y97.225 Z-6.1005 I-0.775 J0.0
G1 X59.585 Z-6.1247
G1 X57.585 Z-4.0
G1 X53.935
G1 X51.935 Z-6.1753
G1 X34.26 Z-6.292
G2 X33.485 Y98.0 Z-6.3 I0.0 J0.775
G1 Y112.0 Z-6.3924
G2 X34.26 Y112.775 Z-6.4005 I0.775 J0.0
G1 X37.935 Z-6.4247
G1 X39.935 Z-4.0
G1 X43.585
G1 X45.585 Z-6.4753
G1 X63.26 Z-6.592
G2 X64.035 Y112.0 Z-6.6 I0.0 J-0.775
G1 X64.435
G1 Y98.0
G2 X63.26 Y96.825 I-1.175 J0.0
G1 X59.585
G1 X57.585 Z-4.0
G1 X53.935
G1 X51.935 Z-6.6
G1 X34.26
G2 X33.085 Y98.0 I0.0 J1.175
G1 Y112.0
G2 X34.26 Y113.175 I1.175 J0.0
G1 X37.935
G1 X39.935 Z-4.0
G1 X43.585
G1 X45.585 Z-6.6
G1 X63.26
G2 X64.435 Y112.0 I0.0 J-1.175
G1 X64.035
G1 Y98.0 Z-6.6616
G2 X63.26 Y97.225 Z-6.667 I-0.775 J0.0
G1 X59.585 Z-6.6832
G1 X57.585 Z-4.0
G1 X53.935
G1 X51.935 Z-6.7168
G1 X34.26 Z-6.7946
G2 X33.485 Y98.0 Z-6.8 I0.0 J0.775
G1 Y112.0 Z-6.8616
G2 X34.26 Y112.775 Z-6.867 I0.775 J0.0
G1 X37.935 Z-6.8832
G1 X39.935 Z-4.0
G1 X43.585
G1 X45.585 Z-6.9168
G1 X63.26 Z-6.9946
G2 X64.035 Y112.0 Z-7.0 I0.0 J-0.775
G1 Y98.0
G2 X63.26 Y97.225 I-0.775 J0.0
G1 X59.585
G1 X57.585 Z-4.0
G1 X53.935
G1 X51.935 Z-7.0
G1 X34.26
G2 X33.485 Y98.0 I0.0 J0.775
G1 Y112.0
G2 X34.26 Y112.775 I0.775 J0.0
G1 X37.935
G1 X39.935 Z-4.0
G1 X43.585
G1 X45.585 Z-7.0
G1 X63.26
G2 X64.035 Y112.0 I0.0 J-0.775
G1 X64.435
G1 Y98.0
G2 X63.26 Y96.825 I-1.175 J0.0
G1 X59.585
G1 X57.585 Z-4.0
G1 X53.935
G1 X51.935 Z-7.0
G1 X34.26
G2 X33.085 Y98.0 I0.0 J1.175
G1 Y112.0
G2 X34.26 Y113.175 I1.175 J0.0
G1 X37.935
G1 X39.935 Z-4.0
G1 X43.585
G1 X45.585 Z-7.0
G1 X63.26
G2 X64.435 Y112.0 I0.0 J-1.175
( Outside Profile )
S1000
G0 Z3.0
G0 X245.0008 Y89.625
G0 Z1.0
G1 F5.0 Z0.0
G2 F250.0 X233.3444 Y90.2007 Z-0.0084 I0.0828 J119.9721
G1 X233.3443
G2 X227.9091 Y90.8499 Z-0.0123 I12.7897 J130.149
G2 X217.4745 Y92.748 Z-0.02 I18.8836 J133.4423
G2 X207.8434 Y95.2445 Z-0.0271 I31.5137 J141.4037
G1 X207.2821 Y95.4118 Z-0.0275
G1 X206.7231 Y95.5809 Z-0.028
G2 X202.3196 Y96.9964 Z-0.0313 I41.9145 J137.9486
G1 X201.7835 Y97.1789 Z-0.0317
G2 X197.5789 Y98.687 Z-0.0349 I48.4493 J141.6864
G3 X197.5776 Y98.6876 I-0.7824 J-2.0829
G2 X189.5515 Y101.9497 Z-0.0411 I55.531 J148.1294
G1 Y101.9498
G1 Y101.9497
G2 X175.0038 Y109.1979 Z-0.0528 I66.9613 J152.6207
G3 X175.0034 Y109.1981 I-1.0882 J-1.9408
G2 X162.8877 Y116.6652 Z-0.0631 I83.8175 J149.5614
G1 X162.2384 Y117.1056 Z-0.0636
G2 X142.8747 Y132.4548 Z-0.0814 I96.3492 J141.4375
G2 X136.2198 Y138.9188 Z-0.0881 I112.2335 J122.2068
G3 X136.2194 Y138.9191 I-1.5943 J-1.5521
G2 X130.7073 Y144.8756 Z-0.0939 I113.7723 J110.8121
G3 X130.7067 Y144.8763 I-1.6711 J-1.469
G2 X126.1402 Y150.3131 Z-0.099 I116.2545 J102.2809
G3 X126.1396 Y150.3139 I-1.7361 J-1.3916
G2 X118.7805 Y160.3154 Z-0.108 I116.0348 J93.0868
G3 X118.7802 Y160.3158 I-1.8456 J-1.2427
G2 X113.8439 Y168.2041 Z-0.1147 I114.7472 J77.295
G3 X113.8433 Y168.2051 I-1.9248 J-1.1162
G2 X110.5016 Y174.3275 Z-0.1197 I114.2245 J66.3196
G3 X110.5008 Y174.329 I-1.9805 J-1.0141
G2 X106.1215 Y183.8195 Z-0.1272 I111.6441 J57.2724
G3 X106.1098 Y183.8474 I-2.0574 J-0.8473
G2 X106.071 Y183.9418 Z-0.1273 I3.2533 J1.3917
G3 X106.0594 Y183.9708 I-2.0701 J-0.8157
G2 X102.5725 Y193.6393 Z-0.1347 I109.8517 J45.0805
G3 X90.9017 Y202.225 Z-0.1459 I-11.6707 J-3.6393
G1 X12.6407 Z-0.2022
G3 X0.7024 Y187.3679 Z-0.2179 I0.0 J-12.225
G2 Y12.6321 Z-0.3446 I-396.2657 J-87.3679
G3 X12.6407 Y-2.225 Z-0.3603 I11.9383 J-2.6321
G1 X247.0 Z-0.5288
G3 X252.225 Y3.0 Z-0.5347 I0.0 J5.225
G1 Y82.4 Z-0.5918
G3 X245.0008 Y89.625 Z-0.6 I-7.225 J0.0
G1 Y89.225
G1 X245.0007
G2 X233.3053 Y89.8026 I0.083 J120.3721
G1 X233.3052
G2 X227.8532 Y90.4539 I12.8288 J130.547
G2 X217.3875 Y92.3576 I18.9395 J133.8384
G2 X207.7294 Y94.861 I31.6007 J141.7941
G1 X207.167 Y95.0287
G1 X206.6071 Y95.1981
G2 X202.1909 Y96.6177 I42.0305 J138.3314
G1 X201.6543 Y96.8003
G2 X197.4383 Y98.3126 I48.5784 J142.065
G3 X197.4372 Y98.313 I-0.6417 J-1.7085
G2 X189.3908 Y101.5835 I55.6714 J148.5039
G1 Y101.5834
G1 Y101.5835
G2 X174.8082 Y108.849 I67.122 J152.987
G3 X174.8078 Y108.8492 I-0.8925 J-1.5919
G2 X162.6635 Y116.3339 I84.013 J149.9104
G1 X162.0136 Y116.7747
G2 X142.6042 Y132.1601 I96.574 J141.7683
G2 X135.9331 Y138.6397 I112.504 J122.5015
G3 X135.9329 Y138.64 I-1.3077 J-1.2731
G2 X130.4069 Y144.6115 I114.0588 J111.0912
G3 X130.4064 Y144.6121 I-1.3707 J-1.2049
G2 X125.8281 Y150.063 I116.5548 J102.5451
G3 X125.8276 Y150.0636 I-1.424 J-1.1414
G2 X118.4487 Y160.092 I116.3468 J93.3371
G3 X118.4485 Y160.0923 I-1.5138 J-1.0193
G2 X113.4979 Y168.0034 I115.079 J77.5185
G3 X113.4974 Y168.0043 I-1.5787 J-0.9155
G2 X110.1455 Y174.1452 I114.5704 J66.5205
G3 X110.1449 Y174.1464 I-1.6244 J-0.8318
G2 X105.7517 Y183.6672 I112.0 J57.4549
G3 X105.7421 Y183.69 I-1.6875 J-0.695
G2 X105.6989 Y183.7952 I3.621 J1.5491
G3 X105.6893 Y183.8189 I-1.6979 J-0.6691
G2 X102.1906 Y193.5201 I110.2217 J45.2324
G3 X90.9017 Y201.825 I-11.2889 J-3.5201
G1 X12.6407
G3 X1.093 Y187.454 I0.0 J-11.825
G2 Y12.546 I-396.6563 J-87.454
G3 X12.6407 Y-1.825 I11.5477 J-2.546
G1 X247.0
G3 X251.825 Y3.0 I0.0 J4.825
G1 Y82.4
G3 X245.0008 Y89.225 I-6.825 J0.0
G1 Y89.625
G2 X233.3444 Y90.2007 Z-0.6084 I0.0828 J119.9721
G1 X233.3443
G2 X227.9091 Y90.8499 Z-0.6123 I12.7897 J130.149
G2 X217.4745 Y92.748 Z-0.62 I18.8836 J133.4423
G2 X207.8434 Y95.2445 Z-0.6271 I31.5137 J141.4037
G1 X207.2821 Y95.4118 Z-0.6275
G1 X206.7231 Y95.5809 Z-0.628
G2 X202.3196 Y96.9964 Z-0.6313 I41.9145 J137.9486
G1 X201.7835 Y97.1789 Z-0.6317
G2 X197.5789 Y98.687 Z-0.6349 I48.4493 J141.6864
G3 X197.5776 Y98.6876 I-0.7824 J-2.0829
G2 X189.5515 Y101.9497 Z-0.6411 I55.531 J148.1294
G1 Y101.9498
G1 Y101.9497
G2 X175.0038 Y109.1979 Z-0.6528 I66.9613 J152.6207
G3 X175.0034 Y109.1981 I-1.0882 J-1.9408
G2 X162.8877 Y116.6652 Z-0.6631 I83.8175 J149.5614
G1 X162.2384 Y117.1056 Z-0.6636
G2 X142.8747 Y132.4548 Z-0.6814 I96.3492 J141.4375
G2 X136.2198 Y138.9188 Z-0.6881 I112.2335 J122.2068
G3 X136.2194 Y138.9191 I-1.5943 J-1.5521
G2 X130.7073 Y144.8756 Z-0.6939 I113.7723 J110.8121
G3 X130.7067 Y144.8763 I-1.6711 J-1.469
G2 X126.1402 Y150.3131 Z-0.699 I116.2545 J102.2809
G3 X126.1396 Y150.3139 I-1.7361 J-1.3916
G2 X118.7805 Y160.3154 Z-0.708 I116.0348 J93.0868
G3 X118.7802 Y160.3158 I-1.8456 J-1.2427
G2 X113.8439 Y168.2041 Z-0.7147 I114.7472 J77.295
G3 X113.8433 Y168.2051 I-1.9248 J-1.1162
G2 X110.5016 Y174.3275 Z-0.7197 I114.2245 J66.3196
G3 X110.5008 Y174.329 I-1.9805 J-1.0141
G2 X106.1215 Y183.8195 Z-0.7272 I111.6441 J57.2724
G3 X106.1098 Y183.8474 I-2.0574 J-0.8473
G2 X106.071 Y183.9418 Z-0.7273 I3.2533 J1.3917
G3 X106.0594 Y183.9708 I-2.0701 J-0.8157
G2 X102.5725 Y193.6393 Z-0.7347 I109.8517 J45.0805
G3 X90.9017 Y202.225 Z-0.7459 I-11.6707 J-3.6393
G1 X12.6407 Z-0.8022
G3 X0.7024 Y187.3679 Z-0.8179 I0.0 J-12.225
G2 Y12.6321 Z-0.9446 I-396.2657 J-87.3679
G3 X12.6407 Y-2.225 Z-0.9603 I11.9383 J-2.6321
G1 X247.0 Z-1.1288
G3 X252.225 Y3.0 Z-1.1347 I0.0 J5.225
G1 Y82.4 Z-1.1918
G3 X245.0008 Y89.625 Z-1.2 I-7.225 J0.0
G1 Y89.225
G1 X245.0007
G2 X233.3053 Y89.8026 I0.083 J120.3721
G1 X233.3052
G2 X227.8532 Y90.4539 I12.8288 J130.547
G2 X217.3875 Y92.3576 I18.9395 J133.8384
G2 X207.7294 Y94.861 I31.6007 J141.7941
G1 X207.167 Y95.0287
G1 X206.6071 Y95.1981
G2 X202.1909 Y96.6177 I42.0305 J138.3314
G1 X201.6543 Y96.8003
G2 X197.4383 Y98.3126 I48.5784 J142.065
G3 X197.4372 Y98.313 I-0.6417 J-1.7085
G2 X189.3908 Y101.5835 I55.6714 J148.5039
G1 Y101.5834
G1 Y101.5835
G2 X174.8082 Y108.849 I67.122 J152.987
G3 X174.8078 Y108.8492 I-0.8925 J-1.5919
G2 X162.6635 Y116.3339 I84.013 J149.9104
G1 X162.0136 Y116.7747
G2 X142.6042 Y132.1601 I96.574 J141.7683
G2 X135.9331 Y138.6397 I112.504 J122.5015
G3 X135.9329 Y138.64 I-1.3077 J-1.2731
G2 X130.4069 Y144.6115 I114.0588 J111.0912
G3 X130.4064 Y144.6121 I-1.3707 J-1.2049
G2 X125.8281 Y150.063 I116.5548 J102.5451
G3 X125.8276 Y150.0636 I-1.424 J-1.1414
G2 X118.4487 Y160.092 I116.3468 J93.3371
G3 X118.4485 Y160.0923 I-1.5138 J-1.0193
G2 X113.4979 Y168.0034 I115.079 J77.5185
G3 X113.4974 Y168.0043 I-1.5787 J-0.9155
G2 X110.1455 Y174.1452 I114.5704 J66.5205
G3 X110.1449 Y174.1464 I-1.6244 J-0.8318
G2 X105.7517 Y183.6672 I112.0 J57.4549
G3 X105.7421 Y183.69 I-1.6875 J-0.695
G2 X105.6989 Y183.7952 I3.621 J1.5491
G3 X105.6893 Y183.8189 I-1.6979 J-0.6691
G2 X102.1906 Y193.5201 I110.2217 J45.2324
G3 X90.9017 Y201.825 I-11.2889 J-3.5201
G1 X12.6407
G3 X1.093 Y187.454 I0.0 J-11.825
G2 Y12.546 I-396.6563 J-87.454
G3 X12.6407 Y-1.825 I11.5477 J-2.546
G1 X247.0
G3 X251.825 Y3.0 I0.0 J4.825
G1 Y82.4
G3 X245.0008 Y89.225 I-6.825 J0.0
G1 Y89.625
G2 X233.3444 Y90.2007 Z-1.2084 I0.0828 J119.9721
G1 X233.3443
G2 X227.9091 Y90.8499 Z-1.2123 I12.7897 J130.149
G2 X217.4745 Y92.748 Z-1.22 I18.8836 J133.4423
G2 X207.8434 Y95.2445 Z-1.2271 I31.5137 J141.4037
G1 X207.2821 Y95.4118 Z-1.2275
G1 X206.7231 Y95.5809 Z-1.228
G2 X202.3196 Y96.9964 Z-1.2313 I41.9145 J137.9486
G1 X201.7835 Y97.1789 Z-1.2317
G2 X197.5789 Y98.687 Z-1.2349 I48.4493 J141.6864
G3 X197.5776 Y98.6876 I-0.7824 J-2.0829
G2 X189.5515 Y101.9497 Z-1.2411 I55.531 J148.1294
G1 Y101.9498
G1 Y101.9497
G2 X175.0038 Y109.1979 Z-1.2528 I66.9613 J152.6207
G3 X175.0034 Y109.1981 I-1.0882 J-1.9408
G2 X162.8877 Y116.6652 Z-1.2631 I83.8175 J149.5614
G1 X162.2384 Y117.1056 Z-1.2636
G2 X142.8747 Y132.4548 Z-1.2814 I96.3492 J141.4375
G2 X136.2198 Y138.9188 Z-1.2881 I112.2335 J122.2068
G3 X136.2194 Y138.9191 I-1.5943 J-1.5521
G2 X130.7073 Y144.8756 Z-1.2939 I113.7723 J110.8121
G3 X130.7067 Y144.8763 I-1.6711 J-1.469
G2 X126.1402 Y150.3131 Z-1.299 I116.2545 J102.2809
G3 X126.1396 Y150.3139 I-1.7361 J-1.3916
G2 X118.7805 Y160.3154 Z-1.308 I116.0348 J93.0868
G3 X118.7802 Y160.3158 I-1.8456 J-1.2427
G2 X113.8439 Y168.2041 Z-1.3147 I114.7472 J77.295
G3 X113.8433 Y168.2051 I-1.9248 J-1.1162
G2 X110.5016 Y174.3275 Z-1.3197 I114.2245 J66.3196
G3 X110.5008 Y174.329 I-1.9805 J-1.0141
G2 X106.1215 Y183.8195 Z-1.3272 I111.6441 J57.2724
G3 X106.1098 Y183.8474 I-2.0574 J-0.8473
G2 X106.071 Y183.9418 Z-1.3273 I3.2533 J1.3917
G3 X106.0594 Y183.9708 I-2.0701 J-0.8157
G2 X102.5725 Y193.6393 Z-1.3347 I109.8517 J45.0805
G3 X90.9017 Y202.225 Z-1.3459 I-11.6707 J-3.6393
G1 X12.6407 Z-1.4022
G3 X0.7024 Y187.3679 Z-1.4179 I0.0 J-12.225
G2 Y12.6321 Z-1.5446 I-396.2657 J-87.3679
G3 X12.6407 Y-2.225 Z-1.5603 I11.9383 J-2.6321
G1 X247.0 Z-1.7288
G3 X252.225 Y3.0 Z-1.7347 I0.0 J5.225
G1 Y82.4 Z-1.7918
G3 X245.0008 Y89.625 Z-1.8 I-7.225 J0.0
G1 Y89.225
G1 X245.0007
G2 X233.3053 Y89.8026 I0.083 J120.3721
G1 X233.3052
G2 X227.8532 Y90.4539 I12.8288 J130.547
G2 X217.3875 Y92.3576 I18.9395 J133.8384
G2 X207.7294 Y94.861 I31.6007 J141.7941
G1 X207.167 Y95.0287
G1 X206.6071 Y95.1981
G2 X202.1909 Y96.6177 I42.0305 J138.3314
G1 X201.6543 Y96.8003
G2 X197.4383 Y98.3126 I48.5784 J142.065
G3 X197.4372 Y98.313 I-0.6417 J-1.7085
G2 X189.3908 Y101.5835 I55.6714 J148.5039
G1 Y101.5834
G1 Y101.5835
G2 X174.8082 Y108.849 I67.122 J152.987
G3 X174.8078 Y108.8492 I-0.8925 J-1.5919
G2 X162.6635 Y116.3339 I84.013 J149.9104
G1 X162.0136 Y116.7747
G2 X142.6042 Y132.1601 I96.574 J141.7683
G2 X135.9331 Y138.6397 I112.504 J122.5015
G3 X135.9329 Y138.64 I-1.3077 J-1.2731
G2 X130.4069 Y144.6115 I114.0588 J111.0912
G3 X130.4064 Y144.6121 I-1.3707 J-1.2049
G2 X125.8281 Y150.063 I116.5548 J102.5451
G3 X125.8276 Y150.0636 I-1.424 J-1.1414
G2 X118.4487 Y160.092 I116.3468 J93.3371
G3 X118.4485 Y160.0923 I-1.5138 J-1.0193
G2 X113.4979 Y168.0034 I115.079 J77.5185
G3 X113.4974 Y168.0043 I-1.5787 J-0.9155
G2 X110.1455 Y174.1452 I114.5704 J66.5205
G3 X110.1449 Y174.1464 I-1.6244 J-0.8318
G2 X105.7517 Y183.6672 I112.0 J57.4549
G3 X105.7421 Y183.69 I-1.6875 J-0.695
G2 X105.6989 Y183.7952 I3.621 J1.5491
G3 X105.6893 Y183.8189 I-1.6979 J-0.6691
G2 X102.1906 Y193.5201 I110.2217 J45.2324
G3 X90.9017 Y201.825 I-11.2889 J-3.5201
G1 X12.6407
G3 X1.093 Y187.454 I0.0 J-11.825
G2 Y12.546 I-396.6563 J-87.454
G3 X12.6407 Y-1.825 I11.5477 J-2.546
G1 X247.0
G3 X251.825 Y3.0 I0.0 J4.825
G1 Y82.4
G3 X245.0008 Y89.225 I-6.825 J0.0
G1 Y89.625
G2 X233.3444 Y90.2007 Z-1.8084 I0.0828 J119.9721
G1 X233.3443
G2 X227.9091 Y90.8499 Z-1.8123 I12.7897 J130.149
G2 X217.4745 Y92.748 Z-1.82 I18.8836 J133.4423
G2 X207.8434 Y95.2445 Z-1.8271 I31.5137 J141.4037
G1 X207.2821 Y95.4118 Z-1.8275
G1 X206.7231 Y95.5809 Z-1.828
G2 X202.3196 Y96.9964 Z-1.8313 I41.9145 J137.9486
G1 X201.7835 Y97.1789 Z-1.8317
G2 X197.5789 Y98.687 Z-1.8349 I48.4493 J141.6864
G3 X197.5776 Y98.6876 I-0.7824 J-2.0829
G2 X189.5515 Y101.9497 Z-1.8411 I55.531 J148.1294
G1 Y101.9498
G1 Y101.9497
G2 X175.0038 Y109.1979 Z-1.8528 I66.9613 J152.6207
G3 X175.0034 Y109.1981 I-1.0882 J-1.9408
G2 X162.8877 Y116.6652 Z-1.8631 I83.8175 J149.5614
G1 X162.2384 Y117.1056 Z-1.8636
G2 X142.8747 Y132.4548 Z-1.8814 I96.3492 J141.4375
G2 X136.2198 Y138.9188 Z-1.8881 I112.2335 J122.2068
G3 X136.2194 Y138.9191 I-1.5943 J-1.5521
G2 X130.7073 Y144.8756 Z-1.8939 I113.7723 J110.8121
G3 X130.7067 Y144.8763 I-1.6711 J-1.469
G2 X126.1402 Y150.3131 Z-1.899 I116.2545 J102.2809
G3 X126.1396 Y150.3139 I-1.7361 J-1.3916
G2 X118.7805 Y160.3154 Z-1.908 I116.0348 J93.0868
G3 X118.7802 Y160.3158 I-1.8456 J-1.2427
G2 X113.8439 Y168.2041 Z-1.9147 I114.7472 J77.295
G3 X113.8433 Y168.2051 I-1.9248 J-1.1162
G2 X110.5016 Y174.3275 Z-1.9197 I114.2245 J66.3196
G3 X110.5008 Y174.329 I-1.9805 J-1.0141
G2 X106.1215 Y183.8195 Z-1.9272 I111.6441 J57.2724
G3 X106.1098 Y183.8474 I-2.0574 J-0.8473
G2 X106.071 Y183.9418 Z-1.9273 I3.2533 J1.3917
G3 X106.0594 Y183.9708 I-2.0701 J-0.8157
G2 X102.5725 Y193.6393 Z-1.9347 I109.8517 J45.0805
G3 X90.9017 Y202.225 Z-1.9459 I-11.6707 J-3.6393
G1 X12.6407 Z-2.0022
G3 X0.7024 Y187.3679 Z-2.0179 I0.0 J-12.225
G2 Y12.6321 Z-2.1446 I-396.2657 J-87.3679
G3 X12.6407 Y-2.225 Z-2.1603 I11.9383 J-2.6321
G1 X247.0 Z-2.3288
G3 X252.225 Y3.0 Z-2.3347 I0.0 J5.225
G1 Y82.4 Z-2.3918
G3 X245.0008 Y89.625 Z-2.4 I-7.225 J0.0
G1 Y89.225
G1 X245.0007
G2 X233.3053 Y89.8026 I0.083 J120.3721
G1 X233.3052
G2 X227.8532 Y90.4539 I12.8288 J130.547
G2 X217.3875 Y92.3576 I18.9395 J133.8384
G2 X207.7294 Y94.861 I31.6007 J141.7941
G1 X207.167 Y95.0287
G1 X206.6071 Y95.1981
G2 X202.1909 Y96.6177 I42.0305 J138.3314
G1 X201.6543 Y96.8003
G2 X197.4383 Y98.3126 I48.5784 J142.065
G3 X197.4372 Y98.313 I-0.6417 J-1.7085
G2 X189.3908 Y101.5835 I55.6714 J148.5039
G1 Y101.5834
G1 Y101.5835
G2 X174.8082 Y108.849 I67.122 J152.987
G3 X174.8078 Y108.8492 I-0.8925 J-1.5919
G2 X162.6635 Y116.3339 I84.013 J149.9104
G1 X162.0136 Y116.7747
G2 X142.6042 Y132.1601 I96.574 J141.7683
G2 X135.9331 Y138.6397 I112.504 J122.5015
G3 X135.9329 Y138.64 I-1.3077 J-1.2731
G2 X130.4069 Y144.6115 I114.0588 J111.0912
G3 X130.4064 Y144.6121 I-1.3707 J-1.2049
G2 X125.8281 Y150.063 I116.5548 J102.5451
G3 X125.8276 Y150.0636 I-1.424 J-1.1414
G2 X118.4487 Y160.092 I116.3468 J93.3371
G3 X118.4485 Y160.0923 I-1.5138 J-1.0193
G2 X113.4979 Y168.0034 I115.079 J77.5185
G3 X113.4974 Y168.0043 I-1.5787 J-0.9155
G2 X110.1455 Y174.1452 I114.5704 J66.5205
G3 X110.1449 Y174.1464 I-1.6244 J-0.8318
G2 X105.7517 Y183.6672 I112.0 J57.4549
G3 X105.7421 Y183.69 I-1.6875 J-0.695
G2 X105.6989 Y183.7952 I3.621 J1.5491
G3 X105.6893 Y183.8189 I-1.6979 J-0.6691
G2 X102.1906 Y193.5201 I110.2217 J45.2324
G3 X90.9017 Y201.825 I-11.2889 J-3.5201
G1 X12.6407
G3 X1.093 Y187.454 I0.0 J-11.825
G2 Y12.546 I-396.6563 J-87.454
G3 X12.6407 Y-1.825 I11.5477 J-2.546
G1 X247.0
G3 X251.825 Y3.0 I0.0 J4.825
G1 Y82.4
G3 X245.0008 Y89.225 I-6.825 J0.0
G1 Y89.625
G2 X233.3444 Y90.2007 Z-2.4084 I0.0828 J119.9721
G1 X233.3443
G2 X227.9091 Y90.8499 Z-2.4123 I12.7897 J130.149
G2 X217.4745 Y92.748 Z-2.42 I18.8836 J133.4423
G2 X207.8434 Y95.2445 Z-2.4271 I31.5137 J141.4037
G1 X207.2821 Y95.4118 Z-2.4275
G1 X206.7231 Y95.5809 Z-2.428
G2 X202.3196 Y96.9964 Z-2.4313 I41.9145 J137.9486
G1 X201.7835 Y97.1789 Z-2.4317
G2 X197.5789 Y98.687 Z-2.4349 I48.4493 J141.6864
G3 X197.5776 Y98.6876 I-0.7824 J-2.0829
G2 X189.5515 Y101.9497 Z-2.4411 I55.531 J148.1294
G1 Y101.9498
G1 Y101.9497
G2 X175.0038 Y109.1979 Z-2.4528 I66.9613 J152.6207
G3 X175.0034 Y109.1981 I-1.0882 J-1.9408
G2 X162.8877 Y116.6652 Z-2.4631 I83.8175 J149.5614
G1 X162.2384 Y117.1056 Z-2.4636
G2 X142.8747 Y132.4548 Z-2.4814 I96.3492 J141.4375
G2 X136.2198 Y138.9188 Z-2.4881 I112.2335 J122.2068
G3 X136.2194 Y138.9191 I-1.5943 J-1.5521
G2 X130.7073 Y144.8756 Z-2.4939 I113.7723 J110.8121
G3 X130.7067 Y144.8763 I-1.6711 J-1.469
G2 X126.1402 Y150.3131 Z-2.499 I116.2545 J102.2809
G3 X126.1396 Y150.3139 I-1.7361 J-1.3916
G2 X118.7805 Y160.3154 Z-2.508 I116.0348 J93.0868
G3 X118.7802 Y160.3158 I-1.8456 J-1.2427
G2 X113.8439 Y168.2041 Z-2.5147 I114.7472 J77.295
G3 X113.8433 Y168.2051 I-1.9248 J-1.1162
G2 X110.5016 Y174.3275 Z-2.5197 I114.2245 J66.3196
G3 X110.5008 Y174.329 I-1.9805 J-1.0141
G2 X106.1215 Y183.8195 Z-2.5272 I111.6441 J57.2724
G3 X106.1098 Y183.8474 I-2.0574 J-0.8473
G2 X106.071 Y183.9418 Z-2.5273 I3.2533 J1.3917
G3 X106.0594 Y183.9708 I-2.0701 J-0.8157
G2 X102.5725 Y193.6393 Z-2.5347 I109.8517 J45.0805
G3 X90.9017 Y202.225 Z-2.5459 I-11.6707 J-3.6393
G1 X12.6407 Z-2.6022
G3 X0.7024 Y187.3679 Z-2.6179 I0.0 J-12.225
G2 Y12.6321 Z-2.7446 I-396.2657 J-87.3679
G3 X12.6407 Y-2.225 Z-2.7603 I11.9383 J-2.6321
G1 X247.0 Z-2.9288
G3 X252.225 Y3.0 Z-2.9347 I0.0 J5.225
G1 Y82.4 Z-2.9918
G3 X245.0008 Y89.625 Z-3.0 I-7.225 J0.0
G1 Y89.225
G1 X245.0007
G2 X233.3053 Y89.8026 I0.083 J120.3721
G1 X233.3052
G2 X227.8532 Y90.4539 I12.8288 J130.547
G2 X217.3875 Y92.3576 I18.9395 J133.8384
G2 X207.7294 Y94.861 I31.6007 J141.7941
G1 X207.167 Y95.0287
G1 X206.6071 Y95.1981
G2 X202.1909 Y96.6177 I42.0305 J138.3314
G1 X201.6543 Y96.8003
G2 X197.4383 Y98.3126 I48.5784 J142.065
G3 X197.4372 Y98.313 I-0.6417 J-1.7085
G2 X189.3908 Y101.5835 I55.6714 J148.5039
G1 Y101.5834
G1 Y101.5835
G2 X174.8082 Y108.849 I67.122 J152.987
G3 X174.8078 Y108.8492 I-0.8925 J-1.5919
G2 X162.6635 Y116.3339 I84.013 J149.9104
G1 X162.0136 Y116.7747
G2 X142.6042 Y132.1601 I96.574 J141.7683
G2 X135.9331 Y138.6397 I112.504 J122.5015
G3 X135.9329 Y138.64 I-1.3077 J-1.2731
G2 X130.4069 Y144.6115 I114.0588 J111.0912
G3 X130.4064 Y144.6121 I-1.3707 J-1.2049
G2 X125.8281 Y150.063 I116.5548 J102.5451
G3 X125.8276 Y150.0636 I-1.424 J-1.1414
G2 X118.4487 Y160.092 I116.3468 J93.3371
G3 X118.4485 Y160.0923 I-1.5138 J-1.0193
G2 X113.4979 Y168.0034 I115.079 J77.5185
G3 X113.4974 Y168.0043 I-1.5787 J-0.9155
G2 X110.1455 Y174.1452 I114.5704 J66.5205
G3 X110.1449 Y174.1464 I-1.6244 J-0.8318
G2 X105.7517 Y183.6672 I112.0 J57.4549
G3 X105.7421 Y183.69 I-1.6875 J-0.695
G2 X105.6989 Y183.7952 I3.621 J1.5491
G3 X105.6893 Y183.8189 I-1.6979 J-0.6691
G2 X102.1906 Y193.5201 I110.2217 J45.2324
G3 X90.9017 Y201.825 I-11.2889 J-3.5201
G1 X12.6407
G3 X1.093 Y187.454 I0.0 J-11.825
G2 Y12.546 I-396.6563 J-87.454
G3 X12.6407 Y-1.825 I11.5477 J-2.546
G1 X247.0
G3 X251.825 Y3.0 I0.0 J4.825
G1 Y82.4
G3 X245.0008 Y89.225 I-6.825 J0.0
G1 Y89.625
G2 X233.3444 Y90.2007 Z-3.0084 I0.0828 J119.9721
G1 X233.3443
G2 X227.9091 Y90.8499 Z-3.0123 I12.7897 J130.149
G2 X217.4745 Y92.748 Z-3.02 I18.8836 J133.4423
G2 X207.8434 Y95.2445 Z-3.0271 I31.5137 J141.4037
G1 X207.2821 Y95.4118 Z-3.0275
G1 X206.7231 Y95.5809 Z-3.028
G2 X202.3196 Y96.9964 Z-3.0313 I41.9145 J137.9486
G1 X201.7835 Y97.1789 Z-3.0317
G2 X197.5789 Y98.687 Z-3.0349 I48.4493 J141.6864
G3 X197.5776 Y98.6876 I-0.7824 J-2.0829
G2 X189.5515 Y101.9497 Z-3.0411 I55.531 J148.1294
G1 Y101.9498
G1 Y101.9497
G2 X175.0038 Y109.1979 Z-3.0528 I66.9613 J152.6207
G3 X175.0034 Y109.1981 I-1.0882 J-1.9408
G2 X162.8877 Y116.6652 Z-3.0631 I83.8175 J149.5614
G1 X162.2384 Y117.1056 Z-3.0636
G2 X142.8747 Y132.4548 Z-3.0814 I96.3492 J141.4375
G2 X136.2198 Y138.9188 Z-3.0881 I112.2335 J122.2068
G3 X136.2194 Y138.9191 I-1.5943 J-1.5521
G2 X130.7073 Y144.8756 Z-3.0939 I113.7723 J110.8121
G3 X130.7067 Y144.8763 I-1.6711 J-1.469
G2 X126.1402 Y150.3131 Z-3.099 I116.2545 J102.2809
G3 X126.1396 Y150.3139 I-1.7361 J-1.3916
G2 X118.7805 Y160.3154 Z-3.108 I116.0348 J93.0868
G3 X118.7802 Y160.3158 I-1.8456 J-1.2427
G2 X113.8439 Y168.2041 Z-3.1147 I114.7472 J77.295
G3 X113.8433 Y168.2051 I-1.9248 J-1.1162
G2 X110.5016 Y174.3275 Z-3.1197 I114.2245 J66.3196
G3 X110.5008 Y174.329 I-1.9805 J-1.0141
G2 X106.1215 Y183.8195 Z-3.1272 I111.6441 J57.2724
G3 X106.1098 Y183.8474 I-2.0574 J-0.8473
G2 X106.071 Y183.9418 Z-3.1273 I3.2533 J1.3917
G3 X106.0594 Y183.9708 I-2.0701 J-0.8157
G2 X102.5725 Y193.6393 Z-3.1347 I109.8517 J45.0805
G3 X90.9017 Y202.225 Z-3.1459 I-11.6707 J-3.6393
G1 X12.6407 Z-3.2022
G3 X0.7024 Y187.3679 Z-3.2179 I0.0 J-12.225
G2 Y12.6321 Z-3.3446 I-396.2657 J-87.3679
G3 X12.6407 Y-2.225 Z-3.3603 I11.9383 J-2.6321
G1 X247.0 Z-3.5288
G3 X252.225 Y3.0 Z-3.5347 I0.0 J5.225
G1 Y82.4 Z-3.5918
G3 X245.0008 Y89.625 Z-3.6 I-7.225 J0.0
G1 Y89.225
G1 X245.0007
G2 X233.3053 Y89.8026 I0.083 J120.3721
G1 X233.3052
G2 X227.8532 Y90.4539 I12.8288 J130.547
G2 X217.3875 Y92.3576 I18.9395 J133.8384
G2 X207.7294 Y94.861 I31.6007 J141.7941
G1 X207.167 Y95.0287
G1 X206.6071 Y95.1981
G2 X202.1909 Y96.6177 I42.0305 J138.3314
G1 X201.6543 Y96.8003
G2 X197.4383 Y98.3126 I48.5784 J142.065
G3 X197.4372 Y98.313 I-0.6417 J-1.7085
G2 X189.3908 Y101.5835 I55.6714 J148.5039
G1 Y101.5834
G1 Y101.5835
G2 X174.8082 Y108.849 I67.122 J152.987
G3 X174.8078 Y108.8492 I-0.8925 J-1.5919
G2 X162.6635 Y116.3339 I84.013 J149.9104
G1 X162.0136 Y116.7747
G2 X142.6042 Y132.1601 I96.574 J141.7683
G2 X135.9331 Y138.6397 I112.504 J122.5015
G3 X135.9329 Y138.64 I-1.3077 J-1.2731
G2 X130.4069 Y144.6115 I114.0588 J111.0912
G3 X130.4064 Y144.6121 I-1.3707 J-1.2049
G2 X125.8281 Y150.063 I116.5548 J102.5451
G3 X125.8276 Y150.0636 I-1.424 J-1.1414
G2 X118.4487 Y160.092 I116.3468 J93.3371
G3 X118.4485 Y160.0923 I-1.5138 J-1.0193
G2 X113.4979 Y168.0034 I115.079 J77.5185
G3 X113.4974 Y168.0043 I-1.5787 J-0.9155
G2 X110.1455 Y174.1452 I114.5704 J66.5205
G3 X110.1449 Y174.1464 I-1.6244 J-0.8318
G2 X105.7517 Y183.6672 I112.0 J57.4549
G3 X105.7421 Y183.69 I-1.6875 J-0.695
G2 X105.6989 Y183.7952 I3.621 J1.5491
G3 X105.6893 Y183.8189 I-1.6979 J-0.6691
G2 X102.1906 Y193.5201 I110.2217 J45.2324
G3 X90.9017 Y201.825 I-11.2889 J-3.5201
G1 X12.6407
G3 X1.093 Y187.454 I0.0 J-11.825
G2 Y12.546 I-396.6563 J-87.454
G3 X12.6407 Y-1.825 I11.5477 J-2.546
G1 X247.0
G3 X251.825 Y3.0 I0.0 J4.825
G1 Y82.4
G3 X245.0008 Y89.225 I-6.825 J0.0
G1 Y89.625
G2 X233.3444 Y90.2007 Z-3.6084 I0.0828 J119.9721
G1 X233.3443
G2 X227.9091 Y90.8499 Z-3.6123 I12.7897 J130.149
G2 X217.4745 Y92.748 Z-3.62 I18.8836 J133.4423
G2 X207.8434 Y95.2445 Z-3.6271 I31.5137 J141.4037
G1 X207.2821 Y95.4118 Z-3.6275
G1 X206.7231 Y95.5809 Z-3.628
G2 X202.3196 Y96.9964 Z-3.6313 I41.9145 J137.9486
G1 X201.7835 Y97.1789 Z-3.6317
G2 X197.5789 Y98.687 Z-3.6349 I48.4493 J141.6864
G3 X197.5776 Y98.6876 I-0.7824 J-2.0829
G2 X189.5515 Y101.9497 Z-3.6411 I55.531 J148.1294
G1 Y101.9498
G1 Y101.9497
G2 X175.0038 Y109.1979 Z-3.6528 I66.9613 J152.6207
G3 X175.0034 Y109.1981 I-1.0882 J-1.9408
G2 X162.8877 Y116.6652 Z-3.6631 I83.8175 J149.5614
G1 X162.2384 Y117.1056 Z-3.6636
G2 X142.8747 Y132.4548 Z-3.6814 I96.3492 J141.4375
G2 X136.2198 Y138.9188 Z-3.6881 I112.2335 J122.2068
G3 X136.2194 Y138.9191 I-1.5943 J-1.5521
G2 X130.7073 Y144.8756 Z-3.6939 I113.7723 J110.8121
G3 X130.7067 Y144.8763 I-1.6711 J-1.469
G2 X126.1402 Y150.3131 Z-3.699 I116.2545 J102.2809
G3 X126.1396 Y150.3139 I-1.7361 J-1.3916
G2 X118.7805 Y160.3154 Z-3.708 I116.0348 J93.0868
G3 X118.7802 Y160.3158 I-1.8456 J-1.2427
G2 X113.8439 Y168.2041 Z-3.7147 I114.7472 J77.295
G3 X113.8433 Y168.2051 I-1.9248 J-1.1162
G2 X110.5016 Y174.3275 Z-3.7197 I114.2245 J66.3196
G3 X110.5008 Y174.329 I-1.9805 J-1.0141
G2 X106.1215 Y183.8195 Z-3.7272 I111.6441 J57.2724
G3 X106.1098 Y183.8474 I-2.0574 J-0.8473
G2 X106.071 Y183.9418 Z-3.7273 I3.2533 J1.3917
G3 X106.0594 Y183.9708 I-2.0701 J-0.8157
G2 X102.5725 Y193.6393 Z-3.7347 I109.8517 J45.0805
G3 X90.9017 Y202.225 Z-3.7459 I-11.6707 J-3.6393
G1 X57.825 Z-3.7697
G1 X55.825 Z-3.7711
G1 X52.175 Z-3.7737
G1 X50.175 Z-3.7752
G1 X12.6407 Z-3.8022
G3 X0.7024 Y187.3679 Z-3.8179 I0.0 J-12.225
G2 Y12.6321 Z-3.9446 I-396.2657 J-87.3679
G3 X12.6407 Y-2.225 Z-3.9603 I11.9383 J-2.6321
G1 X27.175 Z-3.9707
G1 X29.175 Z-3.9722
G1 X32.825 Z-3.9748
G1 X34.825 Z-3.9762
G1 X247.0 Z-4.1288
G3 X252.225 Y3.0 Z-4.1347 I0.0 J5.225
G1 Y42.175 Z-4.1629
G1 Y44.175 Z-4.0
G1 Y47.825
G1 Y49.825 Z-4.1684
G1 Y82.4 Z-4.1918
G3 X245.0008 Y89.625 Z-4.2 I-7.225 J0.0
G1 Y89.225
G1 X245.0007
G2 X233.3053 Y89.8026 I0.083 J120.3721
G1 X233.3052
G2 X227.8532 Y90.4539 I12.8288 J130.547
G2 X217.3875 Y92.3576 I18.9395 J133.8384
G2 X207.7294 Y94.861 I31.6007 J141.7941
G1 X207.167 Y95.0287
G1 X206.6071 Y95.1981
G2 X202.1909 Y96.6177 I42.0305 J138.3314
G1 X201.6543 Y96.8003
G2 X197.4383 Y98.3126 I48.5784 J142.065
G3 X197.4372 Y98.313 I-0.6417 J-1.7085
G2 X189.3908 Y101.5835 I55.6714 J148.5039
G1 Y101.5834
G1 Y101.5835
G2 X174.8082 Y108.849 I67.122 J152.987
G3 X174.8078 Y108.8492 I-0.8925 J-1.5919
G2 X162.6635 Y116.3339 I84.013 J149.9104
G1 X162.0136 Y116.7747
G2 X142.6042 Y132.1601 I96.574 J141.7683
G2 X135.9331 Y138.6397 I112.504 J122.5015
G3 X135.9329 Y138.64 I-1.3077 J-1.2731
G2 X130.4069 Y144.6115 I114.0588 J111.0912
G3 X130.4064 Y144.6121 I-1.3707 J-1.2049
G2 X125.8281 Y150.063 I116.5548 J102.5451
G3 X125.8276 Y150.0636 I-1.424 J-1.1414
G2 X118.4487 Y160.092 I116.3468 J93.3371
G3 X118.4485 Y160.0923 I-1.5138 J-1.0193
G2 X113.4979 Y168.0034 I115.079 J77.5185
G3 X113.4974 Y168.0043 I-1.5787 J-0.9155
G2 X110.1455 Y174.1452 I114.5704 J66.5205
G3 X110.1449 Y174.1464 I-1.6244 J-0.8318
G2 X105.7517 Y183.6672 I112.0 J57.4549
G3 X105.7421 Y183.69 I-1.6875 J-0.695
G2 X105.6989 Y183.7952 I3.621 J1.5491
G3 X105.6893 Y183.8189 I-1.6979 J-0.6691
G2 X102.1906 Y193.5201 I110.2217 J45.2324
G3 X90.9017 Y201.825 I-11.2889 J-3.5201
G1 X57.825
G1 X55.825 Z-4.0
G1 X52.175
G1 X50.175 Z-4.2
G1 X12.6407
G3 X1.093 Y187.454 I0.0 J-11.825
G2 Y12.546 I-396.6563 J-87.454
G3 X12.6407 Y-1.825 I11.5477 J-2.546
G1 X27.175
G1 X29.175 Z-4.0
G1 X32.825
G1 X34.825 Z-4.2
G1 X247.0
G3 X251.825 Y3.0 I0.0 J4.825
G1 Y42.175
G1 Y44.175 Z-4.0
G1 Y47.825
G1 Y49.825 Z-4.2
G1 Y82.4
G3 X245.0008 Y89.225 I-6.825 J0.0
G1 Y89.625
G2 X233.3444 Y90.2007 Z-4.2084 I0.0828 J119.9721
G1 X233.3443
G2 X227.9091 Y90.8499 Z-4.2123 I12.7897 J130.149
G2 X217.4745 Y92.748 Z-4.22 I18.8836 J133.4423
G2 X207.8434 Y95.2445 Z-4.2271 I31.5137 J141.4037
G1 X207.2821 Y95.4118 Z-4.2275
G1 X206.7231 Y95.5809 Z-4.228
G2 X202.3196 Y96.9964 Z-4.2313 I41.9145 J137.9486
G1 X201.7835 Y97.1789 Z-4.2317
G2 X197.5789 Y98.687 Z-4.2349 I48.4493 J141.6864
G3 X197.5776 Y98.6876 I-0.7824 J-2.0829
G2 X189.5515 Y101.9497 Z-4.2411 I55.531 J148.1294
G1 Y101.9498
G1 Y101.9497
G2 X175.0038 Y109.1979 Z-4.2528 I66.9613 J152.6207
G3 X175.0034 Y109.1981 I-1.0882 J-1.9408
G2 X162.8877 Y116.6652 Z-4.2631 I83.8175 J149.5614
G1 X162.2384 Y117.1056 Z-4.2636
G2 X142.8747 Y132.4548 Z-4.2814 I96.3492 J141.4375
G2 X136.2198 Y138.9188 Z-4.2881 I112.2335 J122.2068
G3 X136.2194 Y138.9191 I-1.5943 J-1.5521
G2 X130.7073 Y144.8756 Z-4.2939 I113.7723 J110.8121
G3 X130.7067 Y144.8763 I-1.6711 J-1.469
G2 X126.1402 Y150.3131 Z-4.299 I116.2545 J102.2809
G3 X126.1396 Y150.3139 I-1.7361 J-1.3916
G2 X118.7805 Y160.3154 Z-4.308 I116.0348 J93.0868
G3 X118.7802 Y160.3158 I-1.8456 J-1.2427
G2 X113.8439 Y168.2041 Z-4.3147 I114.7472 J77.295
G3 X113.8433 Y168.2051 I-1.9248 J-1.1162
G2 X110.5016 Y174.3275 Z-4.3197 I114.2245 J66.3196
G3 X110.5008 Y174.329 I-1.9805 J-1.0141
G2 X106.1215 Y183.8195 Z-4.3272 I111.6441 J57.2724
G3 X106.1098 Y183.8474 I-2.0574 J-0.8473
G2 X106.071 Y183.9418 Z-4.3273 I3.2533 J1.3917
G3 X106.0594 Y183.9708 I-2.0701 J-0.8157
G2 X102.5725 Y193.6393 Z-4.3347 I109.8517 J45.0805
G3 X90.9017 Y202.225 Z-4.3459 I-11.6707 J-3.6393
G1 X57.825 Z-4.3697
G1 X55.825 Z-4.0
G1 X52.175
G1 X50.175 Z-4.3752
G1 X12.6407 Z-4.4022
G3 X0.7024 Y187.3679 Z-4.4179 I0.0 J-12.225
G2 Y12.6321 Z-4.5446 I-396.2657 J-87.3679
G3 X12.6407 Y-2.225 Z-4.5603 I11.9383 J-2.6321
G1 X27.175 Z-4.5707
G1 X29.175 Z-4.0
G1 X32.825
G1 X34.825 Z-4.5762
G1 X247.0 Z-4.7288
G3 X252.225 Y3.0 Z-4.7347 I0.0 J5.225
G1 Y42.175 Z-4.7629
G1 Y44.175 Z-4.0
G1 Y47.825
G1 Y49.825 Z-4.7684
G1 Y82.4 Z-4.7918
G3 X245.0008 Y89.625 Z-4.8 I-7.225 J0.0
G1 Y89.225
G1 X245.0007
G2 X233.3053 Y89.8026 I0.083 J120.3721
G1 X233.3052
G2 X227.8532 Y90.4539 I12.8288 J130.547
G2 X217.3875 Y92.3576 I18.9395 J133.8384
G2 X207.7294 Y94.861 I31.6007 J141.7941
G1 X207.167 Y95.0287
G1 X206.6071 Y95.1981
G2 X202.1909 Y96.6177 I42.0305 J138.3314
G1 X201.6543 Y96.8003
G2 X197.4383 Y98.3126 I48.5784 J142.065
G3 X197.4372 Y98.313 I-0.6417 J-1.7085
G2 X189.3908 Y101.5835 I55.6714 J148.5039
G1 Y101.5834
G1 Y101.5835
G2 X174.8082 Y108.849 I67.122 J152.987
G3 X174.8078 Y108.8492 I-0.8925 J-1.5919
G2 X162.6635 Y116.3339 I84.013 J149.9104
G1 X162.0136 Y116.7747
G2 X142.6042 Y132.1601 I96.574 J141.7683
G2 X135.9331 Y138.6397 I112.504 J122.5015
G3 X135.9329 Y138.64 I-1.3077 J-1.2731
G2 X130.4069 Y144.6115 I114.0588 J111.0912
G3 X130.4064 Y144.6121 I-1.3707 J-1.2049
G2 X125.8281 Y150.063 I116.5548 J102.5451
G3 X125.8276 Y150.0636 I-1.424 J-1.1414
G2 X118.4487 Y160.092 I116.3468 J93.3371
G3 X118.4485 Y160.0923 I-1.5138 J-1.0193
G2 X113.4979 Y168.0034 I115.079 J77.5185
G3 X113.4974 Y168.0043 I-1.5787 J-0.9155
G2 X110.1455 Y174.1452 I114.5704 J66.5205
G3 X110.1449 Y174.1464 I-1.6244 J-0.8318
G2 X105.7517 Y183.6672 I112.0 J57.4549
G3 X105.7421 Y183.69 I-1.6875 J-0.695
G2 X105.6989 Y183.7952 I3.621 J1.5491
G3 X105.6893 Y183.8189 I-1.6979 J-0.6691
G2 X102.1906 Y193.5201 I110.2217 J45.2324
G3 X90.9017 Y201.825 I-11.2889 J-3.5201
G1 X57.825
G1 X55.825 Z-4.0
G1 X52.175
G1 X50.175 Z-4.8
G1 X12.6407
G3 X1.093 Y187.454 I0.0 J-11.825
G2 Y12.546 I-396.6563 J-87.454
G3 X12.6407 Y-1.825 I11.5477 J-2.546
G1 X27.175
G1 X29.175 Z-4.0
G1 X32.825
G1 X34.825 Z-4.8
G1 X247.0
G3 X251.825 Y3.0 I0.0 J4.825
G1 Y42.175
G1 Y44.175 Z-4.0
G1 Y47.825
G1 Y49.825 Z-4.8
G1 Y82.4
G3 X245.0008 Y89.225 I-6.825 J0.0
G1 Y89.625
G2 X233.3444 Y90.2007 Z-4.8084 I0.0828 J119.9721
G1 X233.3443
G2 X227.9091 Y90.8499 Z-4.8123 I12.7897 J130.149
G2 X217.4745 Y92.748 Z-4.82 I18.8836 J133.4423
G2 X207.8434 Y95.2445 Z-4.8271 I31.5137 J141.4037
G1 X207.2821 Y95.4118 Z-4.8275
G1 X206.7231 Y95.5809 Z-4.828
G2 X202.3196 Y96.9964 Z-4.8313 I41.9145 J137.9486
G1 X201.7835 Y97.1789 Z-4.8317
G2 X197.5789 Y98.687 Z-4.8349 I48.4493 J141.6864
G3 X197.5776 Y98.6876 I-0.7824 J-2.0829
G2 X189.5515 Y101.9497 Z-4.8411 I55.531 J148.1294
G1 Y101.9498
G1 Y101.9497
G2 X175.0038 Y109.1979 Z-4.8528 I66.9613 J152.6207
G3 X175.0034 Y109.1981 I-1.0882 J-1.9408
G2 X162.8877 Y116.6652 Z-4.8631 I83.8175 J149.5614
G1 X162.2384 Y117.1056 Z-4.8636
G2 X142.8747 Y132.4548 Z-4.8814 I96.3492 J141.4375
G2 X136.2198 Y138.9188 Z-4.8881 I112.2335 J122.2068
G3 X136.2194 Y138.9191 I-1.5943 J-1.5521
G2 X130.7073 Y144.8756 Z-4.8939 I113.7723 J110.8121
G3 X130.7067 Y144.8763 I-1.6711 J-1.469
G2 X126.1402 Y150.3131 Z-4.899 I116.2545 J102.2809
G3 X126.1396 Y150.3139 I-1.7361 J-1.3916
G2 X118.7805 Y160.3154 Z-4.908 I116.0348 J93.0868
G3 X118.7802 Y160.3158 I-1.8456 J-1.2427
G2 X113.8439 Y168.2041 Z-4.9147 I114.7472 J77.295
G3 X113.8433 Y168.2051 I-1.9248 J-1.1162
G2 X110.5016 Y174.3275 Z-4.9197 I114.2245 J66.3196
G3 X110.5008 Y174.329 I-1.9805 J-1.0141
G2 X106.1215 Y183.8195 Z-4.9272 I111.6441 J57.2724
G3 X106.1098 Y183.8474 I-2.0574 J-0.8473
G2 X106.071 Y183.9418 Z-4.9273 I3.2533 J1.3917
G3 X106.0594 Y183.9708 I-2.0701 J-0.8157
G2 X102.5725 Y193.6393 Z-4.9347 I109.8517 J45.0805
G3 X90.9017 Y202.225 Z-4.9459 I-11.6707 J-3.6393
G1 X57.825 Z-4.9697
G1 X55.825 Z-4.0
G1 X52.175
G1 X50.175 Z-4.9752
G1 X12.6407 Z-5.0022
G3 X0.7024 Y187.3679 Z-5.0179 I0.0 J-12.225
G2 Y12.6321 Z-5.1446 I-396.2657 J-87.3679
G3 X12.6407 Y-2.225 Z-5.1603 I11.9383 J-2.6321
G1 X27.175 Z-5.1707
G1 X29.175 Z-4.0
G1 X32.825
G1 X34.825 Z-5.1762
G1 X247.0 Z-5.3288
G3 X252.225 Y3.0 Z-5.3347 I0.0 J5.225
G1 Y42.175 Z-5.3629
G1 Y44.175 Z-4.0
G1 Y47.825
G1 Y49.825 Z-5.3684
G1 Y82.4 Z-5.3918
G3 X245.0008 Y89.625 Z-5.4 I-7.225 J0.0
G1 Y89.225
G1 X245.0007
G2 X233.3053 Y89.8026 I0.083 J120.3721
G1 X233.3052
G2 X227.8532 Y90.4539 I12.8288 J130.547
G2 X217.3875 Y92.3576 I18.9395 J133.8384
G2 X207.7294 Y94.861 I31.6007 J141.7941
G1 X207.167 Y95.0287
G1 X206.6071 Y95.1981
G2 X202.1909 Y96.6177 I42.0305 J138.3314
G1 X201.6543 Y96.8003
G2 X197.4383 Y98.3126 I48.5784 J142.065
G3 X197.4372 Y98.313 I-0.6417 J-1.7085
G2 X189.3908 Y101.5835 I55.6714 J148.5039
G1 Y101.5834
G1 Y101.5835
G2 X174.8082 Y108.849 I67.122 J152.987
G3 X174.8078 Y108.8492 I-0.8925 J-1.5919
G2 X162.6635 Y116.3339 I84.013 J149.9104
G1 X162.0136 Y116.7747
G2 X142.6042 Y132.1601 I96.574 J141.7683
G2 X135.9331 Y138.6397 I112.504 J122.5015
G3 X135.9329 Y138.64 I-1.3077 J-1.2731
G2 X130.4069 Y144.6115 I114.0588 J111.0912
G3 X130.4064 Y144.6121 I-1.3707 J-1.2049
G2 X125.8281 Y150.063 I116.5548 J102.5451
G3 X125.8276 Y150.0636 I-1.424 J-1.1414
G2 X118.4487 Y160.092 I116.3468 J93.3371
G3 X118.4485 Y160.0923 I-1.5138 J-1.0193
G2 X113.4979 Y168.0034 I115.079 J77.5185
G3 X113.4974 Y168.0043 I-1.5787 J-0.9155
G2 X110.1455 Y174.1452 I114.5704 J66.5205
G3 X110.1449 Y174.1464 I-1.6244 J-0.8318
G2 X105.7517 Y183.6672 I112.0 J57.4549
G3 X105.7421 Y183.69 I-1.6875 J-0.695
G2 X105.6989 Y183.7952 I3.621 J1.5491
G3 X105.6893 Y183.8189 I-1.6979 J-0.6691
G2 X102.1906 Y193.5201 I110.2217 J45.2324
G3 X90.9017 Y201.825 I-11.2889 J-3.5201
G1 X57.825
G1 X55.825 Z-4.0
G1 X52.175
G1 X50.175 Z-5.4
G1 X12.6407
G3 X1.093 Y187.454 I0.0 J-11.825
G2 Y12.546 I-396.6563 J-87.454
G3 X12.6407 Y-1.825 I11.5477 J-2.546
G1 X27.175
G1 X29.175 Z-4.0
G1 X32.825
G1 X34.825 Z-5.4
G1 X247.0
G3 X251.825 Y3.0 I0.0 J4.825
G1 Y42.175
G1 Y44.175 Z-4.0
G1 Y47.825
G1 Y49.825 Z-5.4
G1 Y82.4
G3 X245.0008 Y89.225 I-6.825 J0.0
G1 Y89.625
G2 X233.3444 Y90.2007 Z-5.4084 I0.0828 J119.9721
G1 X233.3443
G2 X227.9091 Y90.8499 Z-5.4123 I12.7897 J130.149
G2 X217.4745 Y92.748 Z-5.42 I18.8836 J133.4423
G2 X207.8434 Y95.2445 Z-5.4271 I31.5137 J141.4037
G1 X207.2821 Y95.4118 Z-5.4275
G1 X206.7231 Y95.5809 Z-5.428
G2 X202.3196 Y96.9964 Z-5.4313 I41.9145 J137.9486
G1 X201.7835 Y97.1789 Z-5.4317
G2 X197.5789 Y98.687 Z-5.4349 I48.4493 J141.6864
G3 X197.5776 Y98.6876 I-0.7824 J-2.0829
G2 X189.5515 Y101.9497 Z-5.4411 I55.531 J148.1294
G1 Y101.9498
G1 Y101.9497
G2 X175.0038 Y109.1979 Z-5.4528 I66.9613 J152.6207
G3 X175.0034 Y109.1981 I-1.0882 J-1.9408
G2 X162.8877 Y116.6652 Z-5.4631 I83.8175 J149.5614
G1 X162.2384 Y117.1056 Z-5.4636
G2 X142.8747 Y132.4548 Z-5.4814 I96.3492 J141.4375
G2 X136.2198 Y138.9188 Z-5.4881 I112.2335 J122.2068
G3 X136.2194 Y138.9191 I-1.5943 J-1.5521
G2 X130.7073 Y144.8756 Z-5.4939 I113.7723 J110.8121
G3 X130.7067 Y144.8763 I-1.6711 J-1.469
G2 X126.1402 Y150.3131 Z-5.499 I116.2545 J102.2809
G3 X126.1396 Y150.3139 I-1.7361 J-1.3916
G2 X118.7805 Y160.3154 Z-5.508 I116.0348 J93.0868
G3 X118.7802 Y160.3158 I-1.8456 J-1.2427
G2 X113.8439 Y168.2041 Z-5.5147 I114.7472 J77.295
G3 X113.8433 Y168.2051 I-1.9248 J-1.1162
G2 X110.5016 Y174.3275 Z-5.5197 I114.2245 J66.3196
G3 X110.5008 Y174.329 I-1.9805 J-1.0141
G2 X106.1215 Y183.8195 Z-5.5272 I111.6441 J57.2724
G3 X106.1098 Y183.8474 I-2.0574 J-0.8473
G2 X106.071 Y183.9418 Z-5.5273 I3.2533 J1.3917
G3 X106.0594 Y183.9708 I-2.0701 J-0.8157
G2 X102.5725 Y193.6393 Z-5.5347 I109.8517 J45.0805
G3 X90.9017 Y202.225 Z-5.5459 I-11.6707 J-3.6393
G1 X57.825 Z-5.5697
G1 X55.825 Z-4.0
G1 X52.175
G1 X50.175 Z-5.5752
G1 X12.6407 Z-5.6022
G3 X0.7024 Y187.3679 Z-5.6179 I0.0 J-12.225
G2 Y12.6321 Z-5.7446 I-396.2657 J-87.3679
G3 X12.6407 Y-2.225 Z-5.7603 I11.9383 J-2.6321
G1 X27.175 Z-5.7707
G1 X29.175 Z-4.0
G1 X32.825
G1 X34.825 Z-5.7762
G1 X247.0 Z-5.9288
G3 X252.225 Y3.0 Z-5.9347 I0.0 J5.225
G1 Y42.175 Z-5.9629
G1 Y44.175 Z-4.0
G1 Y47.825
G1 Y49.825 Z-5.9684
G1 Y82.4 Z-5.9918
G3 X245.0008 Y89.625 Z-6.0 I-7.225 J0.0
G1 Y89.225
G1 X245.0007
G2 X233.3053 Y89.8026 I0.083 J120.3721
G1 X233.3052
G2 X227.8532 Y90.4539 I12.8288 J130.547
G2 X217.3875 Y92.3576 I18.9395 J133.8384
G2 X207.7294 Y94.861 I31.6007 J141.7941
G1 X207.167 Y95.0287
G1 X206.6071 Y95.1981
G2 X202.1909 Y96.6177 I42.0305 J138.3314
G1 X201.6543 Y96.8003
G2 X197.4383 Y98.3126 I48.5784 J142.065
G3 X197.4372 Y98.313 I-0.6417 J-1.7085
G2 X189.3908 Y101.5835 I55.6714 J148.5039
G1 Y101.5834
G1 Y101.5835
G2 X174.8082 Y108.849 I67.122 J152.987
G3 X174.8078 Y108.8492 I-0.8925 J-1.5919
G2 X162.6635 Y116.3339 I84.013 J149.9104
G1 X162.0136 Y116.7747
G2 X142.6042 Y132.1601 I96.574 J141.7683
G2 X135.9331 Y138.6397 I112.504 J122.5015
G3 X135.9329 Y138.64 I-1.3077 J-1.2731
G2 X130.4069 Y144.6115 I114.0588 J111.0912
G3 X130.4064 Y144.6121 I-1.3707 J-1.2049
G2 X125.8281 Y150.063 I116.5548 J102.5451
G3 X125.8276 Y150.0636 I-1.424 J-1.1414
G2 X118.4487 Y160.092 I116.3468 J93.3371
G3 X118.4485 Y160.0923 I-1.5138 J-1.0193
G2 X113.4979 Y168.0034 I115.079 J77.5185
G3 X113.4974 Y168.0043 I-1.5787 J-0.9155
G2 X110.1455 Y174.1452 I114.5704 J66.5205
G3 X110.1449 Y174.1464 I-1.6244 J-0.8318
G2 X105.7517 Y183.6672 I112.0 J57.4549
G3 X105.7421 Y183.69 I-1.6875 J-0.695
G2 X105.6989 Y183.7952 I3.621 J1.5491
G3 X105.6893 Y183.8189 I-1.6979 J-0.6691
G2 X102.1906 Y193.5201 I110.2217 J45.2324
G3 X90.9017 Y201.825 I-11.2889 J-3.5201
G1 X57.825
G1 X55.825 Z-4.0
G1 X52.175
G1 X50.175 Z-6.0
G1 X12.6407
G3 X1.093 Y187.454 I0.0 J-11.825
G2 Y12.546 I-396.6563 J-87.454
G3 X12.6407 Y-1.825 I11.5477 J-2.546
G1 X27.175
G1 X29.175 Z-4.0
G1 X32.825
G1 X34.825 Z-6.0
G1 X247.0
G3 X251.825 Y3.0 I0.0 J4.825
G1 Y42.175
G1 Y44.175 Z-4.0
G1 Y47.825
G1 Y49.825 Z-6.0
G1 Y82.4
G3 X245.0008 Y89.225 I-6.825 J0.0
G1 Y89.625
G2 X233.3444 Y90.2007 Z-6.0084 I0.0828 J119.9721
G1 X233.3443
G2 X227.9091 Y90.8499 Z-6.0123 I12.7897 J130.149
G2 X217.4745 Y92.748 Z-6.02 I18.8836 J133.4423
G2 X207.8434 Y95.2445 Z-6.0271 I31.5137 J141.4037
G1 X207.2821 Y95.4118 Z-6.0275
G1 X206.7231 Y95.5809 Z-6.028
G2 X202.3196 Y96.9964 Z-6.0313 I41.9145 J137.9486
G1 X201.7835 Y97.1789 Z-6.0317
G2 X197.5789 Y98.687 Z-6.0349 I48.4493 J141.6864
G3 X197.5776 Y98.6876 I-0.7824 J-2.0829
G2 X189.5515 Y101.9497 Z-6.0411 I55.531 J148.1294
G1 Y101.9498
G1 Y101.9497
G2 X175.0038 Y109.1979 Z-6.0528 I66.9613 J152.6207
G3 X175.0034 Y109.1981 I-1.0882 J-1.9408
G2 X162.8877 Y116.6652 Z-6.0631 I83.8175 J149.5614
G1 X162.2384 Y117.1056 Z-6.0636
G2 X142.8747 Y132.4548 Z-6.0814 I96.3492 J141.4375
