( Made using CamBam - http://www.cambam.co.uk )
( LH OX-c side gantry TALL (Anti Backlash) 7/30/2015 1:39:58 AM )
( T0 : 3.65 )
G21 G90 G64 G40
G0 Z2.0
( T0 : 3.65 )
T0 M6
( Backlash-Nut Access )
G17
M3 S1000
G0 X64.185 Y112.0
G0 Z1.0
G1 F10.0 Z0.0
G1 F250.0 Y98.0 Z-0.122
G2 X63.26 Y97.075 Z-0.1346 I-0.925 J0.0
G1 X34.26 Z-0.3873
G2 X33.335 Y98.0 Z-0.4 I0.0 J0.925
G1 Y112.0 Z-0.522
G2 X34.26 Y112.925 Z-0.5346 I0.925 J0.0
G1 X63.26 Z-0.7873
G2 X64.185 Y112.0 Z-0.8 I0.0 J-0.925
G1 X64.435
G1 Y98.0
G2 X63.26 Y96.825 I-1.175 J0.0
G1 X34.26
G2 X33.085 Y98.0 I0.0 J1.175
G1 Y112.0
G2 X34.26 Y113.175 I1.175 J0.0
G1 X63.26
G2 X64.435 Y112.0 I0.0 J-1.175
G1 X64.185
G1 Y98.0 Z-0.922
G2 X63.26 Y97.075 Z-0.9346 I-0.925 J0.0
G1 X34.26 Z-1.1873
G2 X33.335 Y98.0 Z-1.2 I0.0 J0.925
G1 Y112.0 Z-1.322
G2 X34.26 Y112.925 Z-1.3346 I0.925 J0.0
G1 X63.26 Z-1.5873
G2 X64.185 Y112.0 Z-1.6 I0.0 J-0.925
G1 X64.435
G1 Y98.0
G2 X63.26 Y96.825 I-1.175 J0.0
G1 X34.26
G2 X33.085 Y98.0 I0.0 J1.175
G1 Y112.0
G2 X34.26 Y113.175 I1.175 J0.0
G1 X63.26
G2 X64.435 Y112.0 I0.0 J-1.175
G1 X64.185
G1 Y98.0 Z-1.722
G2 X63.26 Y97.075 Z-1.7346 I-0.925 J0.0
G1 X34.26 Z-1.9873
G2 X33.335 Y98.0 Z-2.0 I0.0 J0.925
G1 Y112.0 Z-2.122
G2 X34.26 Y112.925 Z-2.1346 I0.925 J0.0
G1 X63.26 Z-2.3873
G2 X64.185 Y112.0 Z-2.4 I0.0 J-0.925
G1 X64.435
G1 Y98.0
G2 X63.26 Y96.825 I-1.175 J0.0
G1 X34.26
G2 X33.085 Y98.0 I0.0 J1.175
G1 Y112.0
G2 X34.26 Y113.175 I1.175 J0.0
G1 X63.26
G2 X64.435 Y112.0 I0.0 J-1.175
G1 X64.185
G1 Y98.0 Z-2.522
G2 X63.26 Y97.075 Z-2.5346 I-0.925 J0.0
G1 X34.26 Z-2.7873
G2 X33.335 Y98.0 Z-2.8 I0.0 J0.925
G1 Y112.0 Z-2.922
G2 X34.26 Y112.925 Z-2.9346 I0.925 J0.0
G1 X63.26 Z-3.1873
G2 X64.185 Y112.0 Z-3.2 I0.0 J-0.925
G1 X64.435
G1 Y98.0
G2 X63.26 Y96.825 I-1.175 J0.0
G1 X34.26
G2 X33.085 Y98.0 I0.0 J1.175
G1 Y112.0
G2 X34.26 Y113.175 I1.175 J0.0
G1 X63.26
G2 X64.435 Y112.0 I0.0 J-1.175
G1 X64.185
G1 Y98.0 Z-3.322
G2 X63.26 Y97.075 Z-3.3346 I-0.925 J0.0
G1 X34.26 Z-3.5873
G2 X33.335 Y98.0 Z-3.6 I0.0 J0.925
G1 Y112.0 Z-3.722
G2 X34.26 Y112.925 Z-3.7346 I0.925 J0.0
G1 X63.26 Z-3.9873
G2 X64.185 Y112.0 Z-4.0 I0.0 J-0.925
G1 X64.435
G1 Y98.0
G2 X63.26 Y96.825 I-1.175 J0.0
G1 X34.26
G2 X33.085 Y98.0 I0.0 J1.175
G1 Y112.0
G2 X34.26 Y113.175 I1.175 J0.0
G1 X63.26
G2 X64.435 Y112.0 I0.0 J-1.175
G1 X64.185
G1 Y98.0 Z-4.122
G2 X63.26 Y97.075 Z-4.1346 I-0.925 J0.0
G1 X59.085 Z-4.171
G1 X57.585 Z-4.0
G1 X53.935
G1 X52.435 Z-4.229
G1 X34.26 Z-4.3873
G2 X33.335 Y98.0 Z-4.4 I0.0 J0.925
G1 Y112.0 Z-4.522
G2 X34.26 Y112.925 Z-4.5346 I0.925 J0.0
G1 X38.435 Z-4.571
G1 X39.935 Z-4.0
G1 X43.585
G1 X45.085 Z-4.629
G1 X63.26 Z-4.7873
G2 X64.185 Y112.0 Z-4.8 I0.0 J-0.925
G1 X64.435
G1 Y98.0
G2 X63.26 Y96.825 I-1.175 J0.0
G1 X59.085
G1 X57.585 Z-4.0
G1 X53.935
G1 X52.435 Z-4.8
G1 X34.26
G2 X33.085 Y98.0 I0.0 J1.175
G1 Y112.0
G2 X34.26 Y113.175 I1.175 J0.0
G1 X38.435
G1 X39.935 Z-4.0
G1 X43.585
G1 X45.085 Z-4.8
G1 X63.26
G2 X64.435 Y112.0 I0.0 J-1.175
G1 X64.185
G1 Y98.0 Z-4.922
G2 X63.26 Y97.075 Z-4.9346 I-0.925 J0.0
G1 X59.085 Z-4.971
G1 X57.585 Z-4.0
G1 X53.935
G1 X52.435 Z-5.029
G1 X34.26 Z-5.1873
G2 X33.335 Y98.0 Z-5.2 I0.0 J0.925
G1 Y112.0 Z-5.322
G2 X34.26 Y112.925 Z-5.3346 I0.925 J0.0
G1 X38.435 Z-5.371
G1 X39.935 Z-4.0
G1 X43.585
G1 X45.085 Z-5.429
G1 X63.26 Z-5.5873
G2 X64.185 Y112.0 Z-5.6 I0.0 J-0.925
G1 X64.435
G1 Y98.0
G2 X63.26 Y96.825 I-1.175 J0.0
G1 X59.085
G1 X57.585 Z-4.0
G1 X53.935
G1 X52.435 Z-5.6
G1 X34.26
G2 X33.085 Y98.0 I0.0 J1.175
G1 Y112.0
G2 X34.26 Y113.175 I1.175 J0.0
G1 X38.435
G1 X39.935 Z-4.0
G1 X43.585
G1 X45.085 Z-5.6
G1 X63.26
G2 X64.435 Y112.0 I0.0 J-1.175
G1 X64.185
G1 Y98.0 Z-5.722
G2 X63.26 Y97.075 Z-5.7346 I-0.925 J0.0
G1 X59.085 Z-5.771
G1 X57.585 Z-4.0
G1 X53.935
G1 X52.435 Z-5.829
G1 X34.26 Z-5.9873
G2 X33.335 Y98.0 Z-6.0 I0.0 J0.925
G1 Y112.0 Z-6.122
G2 X34.26 Y112.925 Z-6.1346 I0.925 J0.0
G1 X38.435 Z-6.171
G1 X39.935 Z-4.0
G1 X43.585
G1 X45.085 Z-6.229
G1 X63.26 Z-6.3873
G2 X64.185 Y112.0 Z-6.4 I0.0 J-0.925
G1 X64.435
G1 Y98.0
G2 X63.26 Y96.825 I-1.175 J0.0
G1 X59.085
G1 X57.585 Z-4.0
G1 X53.935
G1 X52.435 Z-6.4
G1 X34.26
G2 X33.085 Y98.0 I0.0 J1.175
G1 Y112.0
G2 X34.26 Y113.175 I1.175 J0.0
G1 X38.435
G1 X39.935 Z-4.0
G1 X43.585
G1 X45.085 Z-6.4
G1 X63.26
G2 X64.435 Y112.0 I0.0 J-1.175
G1 X64.185
G1 Y98.0 Z-6.4915
G2 X63.26 Y97.075 Z-6.501 I-0.925 J0.0
G1 X59.085 Z-6.5283
G1 X57.585 Z-4.0
G1 X53.935
G1 X52.435 Z-6.5717
G1 X34.26 Z-6.6905
G2 X33.335 Y98.0 Z-6.7 I0.0 J0.925
G1 Y112.0 Z-6.7915
G2 X34.26 Y112.925 Z-6.801 I0.925 J0.0
G1 X38.435 Z-6.8283
G1 X39.935 Z-4.0
G1 X43.585
G1 X45.085 Z-6.8717
G1 X63.26 Z-6.9905
G2 X64.185 Y112.0 Z-7.0 I0.0 J-0.925
G1 Y98.0
G2 X63.26 Y97.075 I-0.925 J0.0
G1 X59.085
G1 X57.585 Z-4.0
G1 X53.935
G1 X52.435 Z-7.0
G1 X34.26
G2 X33.335 Y98.0 I0.0 J0.925
G1 Y112.0
G2 X34.26 Y112.925 I0.925 J0.0
G1 X38.435
G1 X39.935 Z-4.0
G1 X43.585
G1 X45.085 Z-7.0
G1 X63.26
G2 X64.185 Y112.0 I0.0 J-0.925
G1 X64.435
G1 Y98.0
G2 X63.26 Y96.825 I-1.175 J0.0
G1 X59.085
G1 X57.585 Z-4.0
G1 X53.935
G1 X52.435 Z-7.0
G1 X34.26
G2 X33.085 Y98.0 I0.0 J1.175
G1 Y112.0
G2 X34.26 Y113.175 I1.175 J0.0
G1 X38.435
G1 X39.935 Z-4.0
G1 X43.585
G1 X45.085 Z-7.0
G1 X63.26
G2 X64.435 Y112.0 I0.0 J-1.175
G0 Z2.0
M5
M30
