( Made using CamBam - http://www.cambam.co.uk )
( LH OX-c side gantry TALL (Anti Backlash) 7/30/2015 1:37:17 AM )
( T0 : 3.65 )
G21 G90 G64 G40
G0 Z2.0
( T0 : 3.65 )
T0 M6
( Main Holes )
G17
M3 S1000
G0 X49.435 Y128.0
G0 Z1.0
G1 F10.0 Z-0.8
G2 F250.0 X48.4225 Y127.4154 I-0.675 J0.0
G2 Y128.5846 I0.3375 J0.5846
G2 X49.435 Y128.0 I0.3375 J-0.5846
G1 F10.0 Z-1.6
G2 F250.0 X48.4225 Y127.4154 I-0.675 J0.0
G2 Y128.5846 I0.3375 J0.5846
G2 X49.435 Y128.0 I0.3375 J-0.5846
G1 F10.0 Z-2.4
G2 F250.0 X48.4225 Y127.4154 I-0.675 J0.0
G2 Y128.5846 I0.3375 J0.5846
G2 X49.435 Y128.0 I0.3375 J-0.5846
G1 F10.0 Z-3.2
G2 F250.0 X48.4225 Y127.4154 I-0.675 J0.0
G2 Y128.5846 I0.3375 J0.5846
G2 X49.435 Y128.0 I0.3375 J-0.5846
G1 F10.0 Z-4.0
G2 F250.0 X48.4225 Y127.4154 I-0.675 J0.0
G2 Y128.5846 I0.3375 J0.5846
G2 X49.435 Y128.0 I0.3375 J-0.5846
G1 F10.0 Z-4.8
G2 F250.0 X48.4225 Y127.4154 I-0.675 J0.0
G2 Y128.5846 I0.3375 J0.5846
G2 X49.435 Y128.0 I0.3375 J-0.5846
G1 F10.0 Z-5.6
G2 F250.0 X48.4225 Y127.4154 I-0.675 J0.0
G2 Y128.5846 I0.3375 J0.5846
G2 X49.435 Y128.0 I0.3375 J-0.5846
G1 F10.0 Z-6.4
G2 F250.0 X48.4225 Y127.4154 I-0.675 J0.0
G2 Y128.5846 I0.3375 J0.5846
G2 X49.435 Y128.0 I0.3375 J-0.5846
G1 F10.0 Z-7.0
G2 F250.0 X48.4225 Y127.4154 I-0.675 J0.0
G2 Y128.5846 I0.3375 J0.5846
G2 X49.435 Y128.0 I0.3375 J-0.5846
G0 Z2.0
G0 X29.435
G0 Z1.0
G1 F10.0 Z-0.8
G2 F250.0 X28.4225 Y127.4154 I-0.675 J0.0
G2 Y128.5846 I0.3375 J0.5846
G2 X29.435 Y128.0 I0.3375 J-0.5846
G1 F10.0 Z-1.6
G2 F250.0 X28.4225 Y127.4154 I-0.675 J0.0
G2 Y128.5846 I0.3375 J0.5846
G2 X29.435 Y128.0 I0.3375 J-0.5846
G1 F10.0 Z-2.4
G2 F250.0 X28.4225 Y127.4154 I-0.675 J0.0
G2 Y128.5846 I0.3375 J0.5846
G2 X29.435 Y128.0 I0.3375 J-0.5846
G1 F10.0 Z-3.2
G2 F250.0 X28.4225 Y127.4154 I-0.675 J0.0
G2 Y128.5846 I0.3375 J0.5846
G2 X29.435 Y128.0 I0.3375 J-0.5846
G1 F10.0 Z-4.0
G2 F250.0 X28.4225 Y127.4154 I-0.675 J0.0
G2 Y128.5846 I0.3375 J0.5846
G2 X29.435 Y128.0 I0.3375 J-0.5846
G1 F10.0 Z-4.8
G2 F250.0 X28.4225 Y127.4154 I-0.675 J0.0
G2 Y128.5846 I0.3375 J0.5846
G2 X29.435 Y128.0 I0.3375 J-0.5846
G1 F10.0 Z-5.6
G2 F250.0 X28.4225 Y127.4154 I-0.675 J0.0
G2 Y128.5846 I0.3375 J0.5846
G2 X29.435 Y128.0 I0.3375 J-0.5846
G1 F10.0 Z-6.4
G2 F250.0 X28.4225 Y127.4154 I-0.675 J0.0
G2 Y128.5846 I0.3375 J0.5846
G2 X29.435 Y128.0 I0.3375 J-0.5846
G1 F10.0 Z-7.0
G2 F250.0 X28.4225 Y127.4154 I-0.675 J0.0
G2 Y128.5846 I0.3375 J0.5846
G2 X29.435 Y128.0 I0.3375 J-0.5846
G0 Z2.0
G0 X24.6311 Y154.336
G0 Z1.0
G1 F10.0 Z-0.8
G2 F250.0 X24.1725 Y154.4154 I-0.1211 J0.664
G2 Y155.5846 I0.3375 J0.5846
G2 X25.185 Y155.0 I0.3375 J-0.5846
G2 X24.6311 Y154.336 I-0.675 J0.0
G1 F10.0 Z-1.6
G2 F250.0 X24.1725 Y154.4154 I-0.1211 J0.664
G2 Y155.5846 I0.3375 J0.5846
G2 X25.185 Y155.0 I0.3375 J-0.5846
G2 X24.6311 Y154.336 I-0.675 J0.0
G1 F10.0 Z-2.4
G2 F250.0 X24.1725 Y154.4154 I-0.1211 J0.664
G2 Y155.5846 I0.3375 J0.5846
G2 X25.185 Y155.0 I0.3375 J-0.5846
G2 X24.6311 Y154.336 I-0.675 J0.0
G1 F10.0 Z-3.2
G2 F250.0 X24.1725 Y154.4154 I-0.1211 J0.664
G2 Y155.5846 I0.3375 J0.5846
G2 X25.185 Y155.0 I0.3375 J-0.5846
G2 X24.6311 Y154.336 I-0.675 J0.0
G1 F10.0 Z-4.0
G2 F250.0 X24.1725 Y154.4154 I-0.1211 J0.664
G2 Y155.5846 I0.3375 J0.5846
G2 X25.185 Y155.0 I0.3375 J-0.5846
G2 X24.6311 Y154.336 I-0.675 J0.0
G1 F10.0 Z-4.8
G2 F250.0 X24.1725 Y154.4154 I-0.1211 J0.664
G2 Y155.5846 I0.3375 J0.5846
G2 X25.185 Y155.0 I0.3375 J-0.5846
G2 X24.6311 Y154.336 I-0.675 J0.0
G1 F10.0 Z-5.6
G2 F250.0 X24.1725 Y154.4154 I-0.1211 J0.664
G2 Y155.5846 I0.3375 J0.5846
G2 X25.185 Y155.0 I0.3375 J-0.5846
G2 X24.6311 Y154.336 I-0.675 J0.0
G1 F10.0 Z-6.4
G2 F250.0 X24.1725 Y154.4154 I-0.1211 J0.664
G2 Y155.5846 I0.3375 J0.5846
G2 X25.185 Y155.0 I0.3375 J-0.5846
G2 X24.6311 Y154.336 I-0.675 J0.0
G1 F10.0 Z-7.0
G2 F250.0 X24.1725 Y154.4154 I-0.1211 J0.664
G2 Y155.5846 I0.3375 J0.5846
G2 X25.185 Y155.0 I0.3375 J-0.5846
G2 X24.6311 Y154.336 I-0.675 J0.0
G0 Z2.0
G0 X51.2355 Y154.9585
G0 Z1.0
G1 F10.0 Z-0.8
G2 F250.0 X52.1225 Y156.5372 I1.7745 J0.0415
G2 X54.785 Y155.0 I0.8875 J-1.5372
G2 X52.1225 Y153.4628 I-1.775 J0.0
G2 X51.2355 Y154.9585 I0.8875 J1.5372
G1 F10.0 Z-1.6
G2 F250.0 X52.1225 Y156.5372 I1.7745 J0.0415
G2 X54.785 Y155.0 I0.8875 J-1.5372
G2 X52.1225 Y153.4628 I-1.775 J0.0
G2 X51.2355 Y154.9585 I0.8875 J1.5372
G1 F10.0 Z-2.4
G2 F250.0 X52.1225 Y156.5372 I1.7745 J0.0415
G2 X54.785 Y155.0 I0.8875 J-1.5372
G2 X52.1225 Y153.4628 I-1.775 J0.0
G2 X51.2355 Y154.9585 I0.8875 J1.5372
G1 F10.0 Z-3.2
G2 F250.0 X52.1225 Y156.5372 I1.7745 J0.0415
G2 X54.785 Y155.0 I0.8875 J-1.5372
G2 X52.1225 Y153.4628 I-1.775 J0.0
G2 X51.2355 Y154.9585 I0.8875 J1.5372
G1 F10.0 Z-4.0
G2 F250.0 X52.1225 Y156.5372 I1.7745 J0.0415
G2 X54.785 Y155.0 I0.8875 J-1.5372
G2 X52.1225 Y153.4628 I-1.775 J0.0
G2 X51.2355 Y154.9585 I0.8875 J1.5372
G1 F10.0 Z-4.8
G2 F250.0 X52.1225 Y156.5372 I1.7745 J0.0415
G2 X54.785 Y155.0 I0.8875 J-1.5372
G2 X52.1225 Y153.4628 I-1.775 J0.0
G2 X51.2355 Y154.9585 I0.8875 J1.5372
G1 F10.0 Z-5.6
G2 F250.0 X52.1225 Y156.5372 I1.7745 J0.0415
G2 X54.785 Y155.0 I0.8875 J-1.5372
G2 X52.1225 Y153.4628 I-1.775 J0.0
G2 X51.2355 Y154.9585 I0.8875 J1.5372
G1 F10.0 Z-6.4
G2 F250.0 X52.1225 Y156.5372 I1.7745 J0.0415
G2 X54.785 Y155.0 I0.8875 J-1.5372
G2 X52.1225 Y153.4628 I-1.775 J0.0
G2 X51.2355 Y154.9585 I0.8875 J1.5372
G1 F10.0 Z-7.0
G2 F250.0 X52.1225 Y156.5372 I1.7745 J0.0415
G2 X54.785 Y155.0 I0.8875 J-1.5372
G2 X52.1225 Y153.4628 I-1.775 J0.0
G2 X51.2355 Y154.9585 I0.8875 J1.5372
G0 Z2.0
G0 X52.9053 Y183.2281
G0 Z1.0
G1 F10.0 Z-0.8
G2 F250.0 X52.1225 Y183.4628 I0.1047 J1.7719
G2 Y186.5372 I0.8875 J1.5372
G2 X54.785 Y185.0 I0.8875 J-1.5372
G2 X52.9053 Y183.2281 I-1.775 J0.0
G1 F10.0 Z-1.6
G2 F250.0 X52.1225 Y183.4628 I0.1047 J1.7719
G2 Y186.5372 I0.8875 J1.5372
G2 X54.785 Y185.0 I0.8875 J-1.5372
G2 X52.9053 Y183.2281 I-1.775 J0.0
G1 F10.0 Z-2.4
G2 F250.0 X52.1225 Y183.4628 I0.1047 J1.7719
G2 Y186.5372 I0.8875 J1.5372
G2 X54.785 Y185.0 I0.8875 J-1.5372
G2 X52.9053 Y183.2281 I-1.775 J0.0
G1 F10.0 Z-3.2
G2 F250.0 X52.1225 Y183.4628 I0.1047 J1.7719
G2 Y186.5372 I0.8875 J1.5372
G2 X54.785 Y185.0 I0.8875 J-1.5372
G2 X52.9053 Y183.2281 I-1.775 J0.0
G1 F10.0 Z-4.0
G2 F250.0 X52.1225 Y183.4628 I0.1047 J1.7719
G2 Y186.5372 I0.8875 J1.5372
G2 X54.785 Y185.0 I0.8875 J-1.5372
G2 X52.9053 Y183.2281 I-1.775 J0.0
G1 F10.0 Z-4.8
G2 F250.0 X52.1225 Y183.4628 I0.1047 J1.7719
G2 Y186.5372 I0.8875 J1.5372
G2 X54.785 Y185.0 I0.8875 J-1.5372
G2 X52.9053 Y183.2281 I-1.775 J0.0
G1 F10.0 Z-5.6
G2 F250.0 X52.1225 Y183.4628 I0.1047 J1.7719
G2 Y186.5372 I0.8875 J1.5372
G2 X54.785 Y185.0 I0.8875 J-1.5372
G2 X52.9053 Y183.2281 I-1.775 J0.0
G1 F10.0 Z-6.4
G2 F250.0 X52.1225 Y183.4628 I0.1047 J1.7719
G2 Y186.5372 I0.8875 J1.5372
G2 X54.785 Y185.0 I0.8875 J-1.5372
G2 X52.9053 Y183.2281 I-1.775 J0.0
G1 F10.0 Z-7.0
G2 F250.0 X52.1225 Y183.4628 I0.1047 J1.7719
G2 Y186.5372 I0.8875 J1.5372
G2 X54.785 Y185.0 I0.8875 J-1.5372
G2 X52.9053 Y183.2281 I-1.775 J0.0
G0 Z2.0
G0 X25.1837 Y184.958
G0 Z1.0
G1 F10.0 Z-0.8
G2 F250.0 X24.1725 Y184.4154 I-0.6737 J0.042
G2 Y185.5846 I0.3375 J0.5846
G2 X25.185 Y185.0 I0.3375 J-0.5846
G2 X25.1837 Y184.958 I-0.675 J0.0
G1 F10.0 Z-1.6
G2 F250.0 X24.1725 Y184.4154 I-0.6737 J0.042
G2 Y185.5846 I0.3375 J0.5846
G2 X25.185 Y185.0 I0.3375 J-0.5846
G2 X25.1837 Y184.958 I-0.675 J0.0
G1 F10.0 Z-2.4
G2 F250.0 X24.1725 Y184.4154 I-0.6737 J0.042
G2 Y185.5846 I0.3375 J0.5846
G2 X25.185 Y185.0 I0.3375 J-0.5846
G2 X25.1837 Y184.958 I-0.675 J0.0
G1 F10.0 Z-3.2
G2 F250.0 X24.1725 Y184.4154 I-0.6737 J0.042
G2 Y185.5846 I0.3375 J0.5846
G2 X25.185 Y185.0 I0.3375 J-0.5846
G2 X25.1837 Y184.958 I-0.675 J0.0
G1 F10.0 Z-4.0
G2 F250.0 X24.1725 Y184.4154 I-0.6737 J0.042
G2 Y185.5846 I0.3375 J0.5846
G2 X25.185 Y185.0 I0.3375 J-0.5846
G2 X25.1837 Y184.958 I-0.675 J0.0
G1 F10.0 Z-4.8
G2 F250.0 X24.1725 Y184.4154 I-0.6737 J0.042
G2 Y185.5846 I0.3375 J0.5846
G2 X25.185 Y185.0 I0.3375 J-0.5846
G2 X25.1837 Y184.958 I-0.675 J0.0
G1 F10.0 Z-5.6
G2 F250.0 X24.1725 Y184.4154 I-0.6737 J0.042
G2 Y185.5846 I0.3375 J0.5846
G2 X25.185 Y185.0 I0.3375 J-0.5846
G2 X25.1837 Y184.958 I-0.675 J0.0
G1 F10.0 Z-6.4
G2 F250.0 X24.1725 Y184.4154 I-0.6737 J0.042
G2 Y185.5846 I0.3375 J0.5846
G2 X25.185 Y185.0 I0.3375 J-0.5846
G2 X25.1837 Y184.958 I-0.675 J0.0
G1 F10.0 Z-7.0
G2 F250.0 X24.1725 Y184.4154 I-0.6737 J0.042
G2 Y185.5846 I0.3375 J0.5846
G2 X25.185 Y185.0 I0.3375 J-0.5846
G2 X25.1837 Y184.958 I-0.675 J0.0
G0 Z2.0
G0 X86.725 Y184.9988
G0 Z1.0
G1 F10.0 Z-0.8
G2 F250.0 X87.6125 Y186.5372 I1.775 J0.0012
G2 X90.275 Y185.0 I0.8875 J-1.5372
G2 X87.6125 Y183.4628 I-1.775 J0.0
G2 X86.725 Y184.9988 I0.8875 J1.5372
G1 F10.0 Z-1.6
G2 F250.0 X87.6125 Y186.5372 I1.775 J0.0012
G2 X90.275 Y185.0 I0.8875 J-1.5372
G2 X87.6125 Y183.4628 I-1.775 J0.0
G2 X86.725 Y184.9988 I0.8875 J1.5372
G1 F10.0 Z-2.4
G2 F250.0 X87.6125 Y186.5372 I1.775 J0.0012
G2 X90.275 Y185.0 I0.8875 J-1.5372
G2 X87.6125 Y183.4628 I-1.775 J0.0
G2 X86.725 Y184.9988 I0.8875 J1.5372
G1 F10.0 Z-3.2
G2 F250.0 X87.6125 Y186.5372 I1.775 J0.0012
G2 X90.275 Y185.0 I0.8875 J-1.5372
G2 X87.6125 Y183.4628 I-1.775 J0.0
G2 X86.725 Y184.9988 I0.8875 J1.5372
G1 F10.0 Z-4.0
G2 F250.0 X87.6125 Y186.5372 I1.775 J0.0012
G2 X90.275 Y185.0 I0.8875 J-1.5372
G2 X87.6125 Y183.4628 I-1.775 J0.0
G2 X86.725 Y184.9988 I0.8875 J1.5372
G1 F10.0 Z-4.8
G2 F250.0 X87.6125 Y186.5372 I1.775 J0.0012
G2 X90.275 Y185.0 I0.8875 J-1.5372
G2 X87.6125 Y183.4628 I-1.775 J0.0
G2 X86.725 Y184.9988 I0.8875 J1.5372
G1 F10.0 Z-5.6
G2 F250.0 X87.6125 Y186.5372 I1.775 J0.0012
G2 X90.275 Y185.0 I0.8875 J-1.5372
G2 X87.6125 Y183.4628 I-1.775 J0.0
G2 X86.725 Y184.9988 I0.8875 J1.5372
G1 F10.0 Z-6.4
G2 F250.0 X87.6125 Y186.5372 I1.775 J0.0012
G2 X90.275 Y185.0 I0.8875 J-1.5372
G2 X87.6125 Y183.4628 I-1.775 J0.0
G2 X86.725 Y184.9988 I0.8875 J1.5372
G1 F10.0 Z-7.0
G2 F250.0 X87.6125 Y186.5372 I1.775 J0.0012
G2 X90.275 Y185.0 I0.8875 J-1.5372
G2 X87.6125 Y183.4628 I-1.775 J0.0
G2 X86.725 Y184.9988 I0.8875 J1.5372
G0 Z2.0
G0 X88.4629 Y101.7746
G0 Z1.0
G1 F10.0 Z-0.8
G2 F250.0 X90.275 Y100.0 I0.0371 J-1.7746
G2 X87.6125 Y98.4628 I-1.775 J0.0
G2 Y101.5372 I0.8875 J1.5372
G2 X88.4629 Y101.7746 I0.8875 J-1.5372
G1 F10.0 Z-1.6
G2 F250.0 X90.275 Y100.0 I0.0371 J-1.7746
G2 X87.6125 Y98.4628 I-1.775 J0.0
G2 Y101.5372 I0.8875 J1.5372
G2 X88.4629 Y101.7746 I0.8875 J-1.5372
G1 F10.0 Z-2.4
G2 F250.0 X90.275 Y100.0 I0.0371 J-1.7746
G2 X87.6125 Y98.4628 I-1.775 J0.0
G2 Y101.5372 I0.8875 J1.5372
G2 X88.4629 Y101.7746 I0.8875 J-1.5372
G1 F10.0 Z-3.2
G2 F250.0 X90.275 Y100.0 I0.0371 J-1.7746
G2 X87.6125 Y98.4628 I-1.775 J0.0
G2 Y101.5372 I0.8875 J1.5372
G2 X88.4629 Y101.7746 I0.8875 J-1.5372
G1 F10.0 Z-4.0
G2 F250.0 X90.275 Y100.0 I0.0371 J-1.7746
G2 X87.6125 Y98.4628 I-1.775 J0.0
G2 Y101.5372 I0.8875 J1.5372
G2 X88.4629 Y101.7746 I0.8875 J-1.5372
G1 F10.0 Z-4.8
G2 F250.0 X90.275 Y100.0 I0.0371 J-1.7746
G2 X87.6125 Y98.4628 I-1.775 J0.0
G2 Y101.5372 I0.8875 J1.5372
G2 X88.4629 Y101.7746 I0.8875 J-1.5372
G1 F10.0 Z-5.6
G2 F250.0 X90.275 Y100.0 I0.0371 J-1.7746
G2 X87.6125 Y98.4628 I-1.775 J0.0
G2 Y101.5372 I0.8875 J1.5372
G2 X88.4629 Y101.7746 I0.8875 J-1.5372
G1 F10.0 Z-6.4
G2 F250.0 X90.275 Y100.0 I0.0371 J-1.7746
G2 X87.6125 Y98.4628 I-1.775 J0.0
G2 Y101.5372 I0.8875 J1.5372
G2 X88.4629 Y101.7746 I0.8875 J-1.5372
G1 F10.0 Z-7.0
G2 F250.0 X90.275 Y100.0 I0.0371 J-1.7746
G2 X87.6125 Y98.4628 I-1.775 J0.0
G2 Y101.5372 I0.8875 J1.5372
G2 X88.4629 Y101.7746 I0.8875 J-1.5372
G0 Z2.0
G0 X49.3 Y72.405
G0 Z1.0
G1 F10.0 Z-0.8
G2 F250.0 X49.435 Y72.0 I-0.54 J-0.405
G2 X48.4225 Y71.4154 I-0.675 J0.0
G2 Y72.5846 I0.3375 J0.5846
G2 X49.3 Y72.405 I0.3375 J-0.5846
G1 F10.0 Z-1.6
G2 F250.0 X49.435 Y72.0 I-0.54 J-0.405
G2 X48.4225 Y71.4154 I-0.675 J0.0
G2 Y72.5846 I0.3375 J0.5846
G2 X49.3 Y72.405 I0.3375 J-0.5846
G1 F10.0 Z-2.4
G2 F250.0 X49.435 Y72.0 I-0.54 J-0.405
G2 X48.4225 Y71.4154 I-0.675 J0.0
G2 Y72.5846 I0.3375 J0.5846
G2 X49.3 Y72.405 I0.3375 J-0.5846
G1 F10.0 Z-3.2
G2 F250.0 X49.435 Y72.0 I-0.54 J-0.405
G2 X48.4225 Y71.4154 I-0.675 J0.0
G2 Y72.5846 I0.3375 J0.5846
G2 X49.3 Y72.405 I0.3375 J-0.5846
G1 F10.0 Z-4.0
G2 F250.0 X49.435 Y72.0 I-0.54 J-0.405
G2 X48.4225 Y71.4154 I-0.675 J0.0
G2 Y72.5846 I0.3375 J0.5846
G2 X49.3 Y72.405 I0.3375 J-0.5846
G1 F10.0 Z-4.8
G2 F250.0 X49.435 Y72.0 I-0.54 J-0.405
G2 X48.4225 Y71.4154 I-0.675 J0.0
G2 Y72.5846 I0.3375 J0.5846
G2 X49.3 Y72.405 I0.3375 J-0.5846
G1 F10.0 Z-5.6
G2 F250.0 X49.435 Y72.0 I-0.54 J-0.405
G2 X48.4225 Y71.4154 I-0.675 J0.0
G2 Y72.5846 I0.3375 J0.5846
G2 X49.3 Y72.405 I0.3375 J-0.5846
G1 F10.0 Z-6.4
G2 F250.0 X49.435 Y72.0 I-0.54 J-0.405
G2 X48.4225 Y71.4154 I-0.675 J0.0
G2 Y72.5846 I0.3375 J0.5846
G2 X49.3 Y72.405 I0.3375 J-0.5846
G1 F10.0 Z-7.0
G2 F250.0 X49.435 Y72.0 I-0.54 J-0.405
G2 X48.4225 Y71.4154 I-0.675 J0.0
G2 Y72.5846 I0.3375 J0.5846
G2 X49.3 Y72.405 I0.3375 J-0.5846
G0 Z2.0
G0 X29.4349 Y72.0133
G0 Z1.0
G1 F10.0 Z-0.8
G2 F250.0 X29.435 Y72.0 I-0.6749 J-0.0133
G2 X28.4225 Y71.4154 I-0.675 J0.0
G2 Y72.5846 I0.3375 J0.5846
G2 X29.4349 Y72.0133 I0.3375 J-0.5846
G1 F10.0 Z-1.6
G2 F250.0 X29.435 Y72.0 I-0.6749 J-0.0133
G2 X28.4225 Y71.4154 I-0.675 J0.0
G2 Y72.5846 I0.3375 J0.5846
G2 X29.4349 Y72.0133 I0.3375 J-0.5846
G1 F10.0 Z-2.4
G2 F250.0 X29.435 Y72.0 I-0.6749 J-0.0133
G2 X28.4225 Y71.4154 I-0.675 J0.0
G2 Y72.5846 I0.3375 J0.5846
G2 X29.4349 Y72.0133 I0.3375 J-0.5846
G1 F10.0 Z-3.2
G2 F250.0 X29.435 Y72.0 I-0.6749 J-0.0133
G2 X28.4225 Y71.4154 I-0.675 J0.0
G2 Y72.5846 I0.3375 J0.5846
G2 X29.4349 Y72.0133 I0.3375 J-0.5846
G1 F10.0 Z-4.0
G2 F250.0 X29.435 Y72.0 I-0.6749 J-0.0133
G2 X28.4225 Y71.4154 I-0.675 J0.0
G2 Y72.5846 I0.3375 J0.5846
G2 X29.4349 Y72.0133 I0.3375 J-0.5846
G1 F10.0 Z-4.8
G2 F250.0 X29.435 Y72.0 I-0.6749 J-0.0133
G2 X28.4225 Y71.4154 I-0.675 J0.0
G2 Y72.5846 I0.3375 J0.5846
G2 X29.4349 Y72.0133 I0.3375 J-0.5846
G1 F10.0 Z-5.6
G2 F250.0 X29.435 Y72.0 I-0.6749 J-0.0133
G2 X28.4225 Y71.4154 I-0.675 J0.0
G2 Y72.5846 I0.3375 J0.5846
G2 X29.4349 Y72.0133 I0.3375 J-0.5846
G1 F10.0 Z-6.4
G2 F250.0 X29.435 Y72.0 I-0.6749 J-0.0133
G2 X28.4225 Y71.4154 I-0.675 J0.0
G2 Y72.5846 I0.3375 J0.5846
G2 X29.4349 Y72.0133 I0.3375 J-0.5846
G1 F10.0 Z-7.0
G2 F250.0 X29.435 Y72.0 I-0.6749 J-0.0133
G2 X28.4225 Y71.4154 I-0.675 J0.0
G2 Y72.5846 I0.3375 J0.5846
G2 X29.4349 Y72.0133 I0.3375 J-0.5846
G0 Z2.0
G0 X24.6311 Y45.6641
G0 Z1.0
G1 F10.0 Z-0.8
G2 F250.0 X25.185 Y45.0 I-0.1211 J-0.6641
G2 X24.1725 Y44.4154 I-0.675 J0.0
G2 Y45.5846 I0.3375 J0.5846
G2 X24.6311 Y45.6641 I0.3375 J-0.5846
G1 F10.0 Z-1.6
G2 F250.0 X25.185 Y45.0 I-0.1211 J-0.6641
G2 X24.1725 Y44.4154 I-0.675 J0.0
G2 Y45.5846 I0.3375 J0.5846
G2 X24.6311 Y45.6641 I0.3375 J-0.5846
G1 F10.0 Z-2.4
G2 F250.0 X25.185 Y45.0 I-0.1211 J-0.6641
G2 X24.1725 Y44.4154 I-0.675 J0.0
G2 Y45.5846 I0.3375 J0.5846
G2 X24.6311 Y45.6641 I0.3375 J-0.5846
G1 F10.0 Z-3.2
G2 F250.0 X25.185 Y45.0 I-0.1211 J-0.6641
G2 X24.1725 Y44.4154 I-0.675 J0.0
G2 Y45.5846 I0.3375 J0.5846
G2 X24.6311 Y45.6641 I0.3375 J-0.5846
G1 F10.0 Z-4.0
G2 F250.0 X25.185 Y45.0 I-0.1211 J-0.6641
G2 X24.1725 Y44.4154 I-0.675 J0.0
G2 Y45.5846 I0.3375 J0.5846
G2 X24.6311 Y45.6641 I0.3375 J-0.5846
G1 F10.0 Z-4.8
G2 F250.0 X25.185 Y45.0 I-0.1211 J-0.6641
G2 X24.1725 Y44.4154 I-0.675 J0.0
G2 Y45.5846 I0.3375 J0.5846
G2 X24.6311 Y45.6641 I0.3375 J-0.5846
G1 F10.0 Z-5.6
G2 F250.0 X25.185 Y45.0 I-0.1211 J-0.6641
G2 X24.1725 Y44.4154 I-0.675 J0.0
G2 Y45.5846 I0.3375 J0.5846
G2 X24.6311 Y45.6641 I0.3375 J-0.5846
G1 F10.0 Z-6.4
G2 F250.0 X25.185 Y45.0 I-0.1211 J-0.6641
G2 X24.1725 Y44.4154 I-0.675 J0.0
G2 Y45.5846 I0.3375 J0.5846
G2 X24.6311 Y45.6641 I0.3375 J-0.5846
G1 F10.0 Z-7.0
G2 F250.0 X25.185 Y45.0 I-0.1211 J-0.6641
G2 X24.1725 Y44.4154 I-0.675 J0.0
G2 Y45.5846 I0.3375 J0.5846
G2 X24.6311 Y45.6641 I0.3375 J-0.5846
G0 Z2.0
G0 X51.2355 Y45.0415
G0 Z1.0
G1 F10.0 Z-0.8
G2 F250.0 X52.1225 Y46.5372 I1.7745 J-0.0415
G2 X54.785 Y45.0 I0.8875 J-1.5372
G2 X52.1225 Y43.4628 I-1.775 J0.0
G2 X51.2355 Y45.0415 I0.8875 J1.5372
G1 F10.0 Z-1.6
G2 F250.0 X52.1225 Y46.5372 I1.7745 J-0.0415
G2 X54.785 Y45.0 I0.8875 J-1.5372
G2 X52.1225 Y43.4628 I-1.775 J0.0
G2 X51.2355 Y45.0415 I0.8875 J1.5372
G1 F10.0 Z-2.4
G2 F250.0 X52.1225 Y46.5372 I1.7745 J-0.0415
G2 X54.785 Y45.0 I0.8875 J-1.5372
G2 X52.1225 Y43.4628 I-1.775 J0.0
G2 X51.2355 Y45.0415 I0.8875 J1.5372
G1 F10.0 Z-3.2
G2 F250.0 X52.1225 Y46.5372 I1.7745 J-0.0415
G2 X54.785 Y45.0 I0.8875 J-1.5372
G2 X52.1225 Y43.4628 I-1.775 J0.0
G2 X51.2355 Y45.0415 I0.8875 J1.5372
G1 F10.0 Z-4.0
G2 F250.0 X52.1225 Y46.5372 I1.7745 J-0.0415
G2 X54.785 Y45.0 I0.8875 J-1.5372
G2 X52.1225 Y43.4628 I-1.775 J0.0
G2 X51.2355 Y45.0415 I0.8875 J1.5372
G1 F10.0 Z-4.8
G2 F250.0 X52.1225 Y46.5372 I1.7745 J-0.0415
G2 X54.785 Y45.0 I0.8875 J-1.5372
G2 X52.1225 Y43.4628 I-1.775 J0.0
G2 X51.2355 Y45.0415 I0.8875 J1.5372
G1 F10.0 Z-5.6
G2 F250.0 X52.1225 Y46.5372 I1.7745 J-0.0415
G2 X54.785 Y45.0 I0.8875 J-1.5372
G2 X52.1225 Y43.4628 I-1.775 J0.0
G2 X51.2355 Y45.0415 I0.8875 J1.5372
G1 F10.0 Z-6.4
G2 F250.0 X52.1225 Y46.5372 I1.7745 J-0.0415
G2 X54.785 Y45.0 I0.8875 J-1.5372
G2 X52.1225 Y43.4628 I-1.775 J0.0
G2 X51.2355 Y45.0415 I0.8875 J1.5372
G1 F10.0 Z-7.0
G2 F250.0 X52.1225 Y46.5372 I1.7745 J-0.0415
G2 X54.785 Y45.0 I0.8875 J-1.5372
G2 X52.1225 Y43.4628 I-1.775 J0.0
G2 X51.2355 Y45.0415 I0.8875 J1.5372
G0 Z2.0
G0 X52.9053 Y16.7719
G0 Z1.0
G1 F10.0 Z-0.8
G2 F250.0 X54.785 Y15.0 I0.1047 J-1.7719
G2 X52.1225 Y13.4628 I-1.775 J0.0
G2 Y16.5372 I0.8875 J1.5372
G2 X52.9053 Y16.7719 I0.8875 J-1.5372
G1 F10.0 Z-1.6
G2 F250.0 X54.785 Y15.0 I0.1047 J-1.7719
G2 X52.1225 Y13.4628 I-1.775 J0.0
G2 Y16.5372 I0.8875 J1.5372
G2 X52.9053 Y16.7719 I0.8875 J-1.5372
G1 F10.0 Z-2.4
G2 F250.0 X54.785 Y15.0 I0.1047 J-1.7719
G2 X52.1225 Y13.4628 I-1.775 J0.0
G2 Y16.5372 I0.8875 J1.5372
G2 X52.9053 Y16.7719 I0.8875 J-1.5372
G1 F10.0 Z-3.2
G2 F250.0 X54.785 Y15.0 I0.1047 J-1.7719
G2 X52.1225 Y13.4628 I-1.775 J0.0
G2 Y16.5372 I0.8875 J1.5372
G2 X52.9053 Y16.7719 I0.8875 J-1.5372
G1 F10.0 Z-4.0
G2 F250.0 X54.785 Y15.0 I0.1047 J-1.7719
G2 X52.1225 Y13.4628 I-1.775 J0.0
G2 Y16.5372 I0.8875 J1.5372
G2 X52.9053 Y16.7719 I0.8875 J-1.5372
G1 F10.0 Z-4.8
G2 F250.0 X54.785 Y15.0 I0.1047 J-1.7719
G2 X52.1225 Y13.4628 I-1.775 J0.0
G2 Y16.5372 I0.8875 J1.5372
G2 X52.9053 Y16.7719 I0.8875 J-1.5372
G1 F10.0 Z-5.6
G2 F250.0 X54.785 Y15.0 I0.1047 J-1.7719
G2 X52.1225 Y13.4628 I-1.775 J0.0
G2 Y16.5372 I0.8875 J1.5372
G2 X52.9053 Y16.7719 I0.8875 J-1.5372
G1 F10.0 Z-6.4
G2 F250.0 X54.785 Y15.0 I0.1047 J-1.7719
G2 X52.1225 Y13.4628 I-1.775 J0.0
G2 Y16.5372 I0.8875 J1.5372
G2 X52.9053 Y16.7719 I0.8875 J-1.5372
G1 F10.0 Z-7.0
G2 F250.0 X54.785 Y15.0 I0.1047 J-1.7719
G2 X52.1225 Y13.4628 I-1.775 J0.0
G2 Y16.5372 I0.8875 J1.5372
G2 X52.9053 Y16.7719 I0.8875 J-1.5372
G0 Z2.0
G0 X25.1837 Y15.042
G0 Z1.0
G1 F10.0 Z-0.8
G2 F250.0 X25.185 Y15.0 I-0.6737 J-0.042
G2 X24.1725 Y14.4154 I-0.675 J0.0
G2 Y15.5846 I0.3375 J0.5846
G2 X25.1837 Y15.042 I0.3375 J-0.5846
G1 F10.0 Z-1.6
G2 F250.0 X25.185 Y15.0 I-0.6737 J-0.042
G2 X24.1725 Y14.4154 I-0.675 J0.0
G2 Y15.5846 I0.3375 J0.5846
G2 X25.1837 Y15.042 I0.3375 J-0.5846
G1 F10.0 Z-2.4
G2 F250.0 X25.185 Y15.0 I-0.6737 J-0.042
G2 X24.1725 Y14.4154 I-0.675 J0.0
G2 Y15.5846 I0.3375 J0.5846
G2 X25.1837 Y15.042 I0.3375 J-0.5846
G1 F10.0 Z-3.2
G2 F250.0 X25.185 Y15.0 I-0.6737 J-0.042
G2 X24.1725 Y14.4154 I-0.675 J0.0
G2 Y15.5846 I0.3375 J0.5846
G2 X25.1837 Y15.042 I0.3375 J-0.5846
G1 F10.0 Z-4.0
G2 F250.0 X25.185 Y15.0 I-0.6737 J-0.042
G2 X24.1725 Y14.4154 I-0.675 J0.0
G2 Y15.5846 I0.3375 J0.5846
G2 X25.1837 Y15.042 I0.3375 J-0.5846
G1 F10.0 Z-4.8
G2 F250.0 X25.185 Y15.0 I-0.6737 J-0.042
G2 X24.1725 Y14.4154 I-0.675 J0.0
G2 Y15.5846 I0.3375 J0.5846
G2 X25.1837 Y15.042 I0.3375 J-0.5846
G1 F10.0 Z-5.6
G2 F250.0 X25.185 Y15.0 I-0.6737 J-0.042
G2 X24.1725 Y14.4154 I-0.675 J0.0
G2 Y15.5846 I0.3375 J0.5846
G2 X25.1837 Y15.042 I0.3375 J-0.5846
G1 F10.0 Z-6.4
G2 F250.0 X25.185 Y15.0 I-0.6737 J-0.042
G2 X24.1725 Y14.4154 I-0.675 J0.0
G2 Y15.5846 I0.3375 J0.5846
G2 X25.1837 Y15.042 I0.3375 J-0.5846
G1 F10.0 Z-7.0
G2 F250.0 X25.185 Y15.0 I-0.6737 J-0.042
G2 X24.1725 Y14.4154 I-0.675 J0.0
G2 Y15.5846 I0.3375 J0.5846
G2 X25.1837 Y15.042 I0.3375 J-0.5846
G0 Z2.0
G0 X86.725 Y15.0012
G0 Z1.0
G1 F10.0 Z-0.8
G2 F250.0 X87.6125 Y16.5372 I1.775 J-0.0012
G2 X90.275 Y15.0 I0.8875 J-1.5372
G2 X87.6125 Y13.4628 I-1.775 J0.0
G2 X86.725 Y15.0012 I0.8875 J1.5372
G1 F10.0 Z-1.6
G2 F250.0 X87.6125 Y16.5372 I1.775 J-0.0012
G2 X90.275 Y15.0 I0.8875 J-1.5372
G2 X87.6125 Y13.4628 I-1.775 J0.0
G2 X86.725 Y15.0012 I0.8875 J1.5372
G1 F10.0 Z-2.4
G2 F250.0 X87.6125 Y16.5372 I1.775 J-0.0012
G2 X90.275 Y15.0 I0.8875 J-1.5372
G2 X87.6125 Y13.4628 I-1.775 J0.0
G2 X86.725 Y15.0012 I0.8875 J1.5372
G1 F10.0 Z-3.2
G2 F250.0 X87.6125 Y16.5372 I1.775 J-0.0012
G2 X90.275 Y15.0 I0.8875 J-1.5372
G2 X87.6125 Y13.4628 I-1.775 J0.0
G2 X86.725 Y15.0012 I0.8875 J1.5372
G1 F10.0 Z-4.0
G2 F250.0 X87.6125 Y16.5372 I1.775 J-0.0012
G2 X90.275 Y15.0 I0.8875 J-1.5372
G2 X87.6125 Y13.4628 I-1.775 J0.0
G2 X86.725 Y15.0012 I0.8875 J1.5372
G1 F10.0 Z-4.8
G2 F250.0 X87.6125 Y16.5372 I1.775 J-0.0012
G2 X90.275 Y15.0 I0.8875 J-1.5372
G2 X87.6125 Y13.4628 I-1.775 J0.0
G2 X86.725 Y15.0012 I0.8875 J1.5372
G1 F10.0 Z-5.6
G2 F250.0 X87.6125 Y16.5372 I1.775 J-0.0012
G2 X90.275 Y15.0 I0.8875 J-1.5372
G2 X87.6125 Y13.4628 I-1.775 J0.0
G2 X86.725 Y15.0012 I0.8875 J1.5372
G1 F10.0 Z-6.4
G2 F250.0 X87.6125 Y16.5372 I1.775 J-0.0012
G2 X90.275 Y15.0 I0.8875 J-1.5372
G2 X87.6125 Y13.4628 I-1.775 J0.0
G2 X86.725 Y15.0012 I0.8875 J1.5372
G1 F10.0 Z-7.0
G2 F250.0 X87.6125 Y16.5372 I1.775 J-0.0012
G2 X90.275 Y15.0 I0.8875 J-1.5372
G2 X87.6125 Y13.4628 I-1.775 J0.0
G2 X86.725 Y15.0012 I0.8875 J1.5372
G0 Z2.0
G0 X179.326 Y10.0361
G0 Z1.0
G1 F10.0 Z-0.8
G2 F250.0 X179.6625 Y10.5846 I0.674 J-0.0361
G2 X180.675 Y10.0 I0.3375 J-0.5846
G2 X179.6625 Y9.4154 I-0.675 J0.0
G2 X179.326 Y10.0361 I0.3375 J0.5846
G1 F10.0 Z-1.6
G2 F250.0 X179.6625 Y10.5846 I0.674 J-0.0361
G2 X180.675 Y10.0 I0.3375 J-0.5846
G2 X179.6625 Y9.4154 I-0.675 J0.0
G2 X179.326 Y10.0361 I0.3375 J0.5846
G1 F10.0 Z-2.4
G2 F250.0 X179.6625 Y10.5846 I0.674 J-0.0361
G2 X180.675 Y10.0 I0.3375 J-0.5846
G2 X179.6625 Y9.4154 I-0.675 J0.0
G2 X179.326 Y10.0361 I0.3375 J0.5846
G1 F10.0 Z-3.2
G2 F250.0 X179.6625 Y10.5846 I0.674 J-0.0361
G2 X180.675 Y10.0 I0.3375 J-0.5846
G2 X179.6625 Y9.4154 I-0.675 J0.0
G2 X179.326 Y10.0361 I0.3375 J0.5846
G1 F10.0 Z-4.0
G2 F250.0 X179.6625 Y10.5846 I0.674 J-0.0361
G2 X180.675 Y10.0 I0.3375 J-0.5846
G2 X179.6625 Y9.4154 I-0.675 J0.0
G2 X179.326 Y10.0361 I0.3375 J0.5846
G1 F10.0 Z-4.8
G2 F250.0 X179.6625 Y10.5846 I0.674 J-0.0361
G2 X180.675 Y10.0 I0.3375 J-0.5846
G2 X179.6625 Y9.4154 I-0.675 J0.0
G2 X179.326 Y10.0361 I0.3375 J0.5846
G1 F10.0 Z-5.6
G2 F250.0 X179.6625 Y10.5846 I0.674 J-0.0361
G2 X180.675 Y10.0 I0.3375 J-0.5846
G2 X179.6625 Y9.4154 I-0.675 J0.0
G2 X179.326 Y10.0361 I0.3375 J0.5846
G1 F10.0 Z-6.4
G2 F250.0 X179.6625 Y10.5846 I0.674 J-0.0361
G2 X180.675 Y10.0 I0.3375 J-0.5846
G2 X179.6625 Y9.4154 I-0.675 J0.0
G2 X179.326 Y10.0361 I0.3375 J0.5846
G1 F10.0 Z-7.0
G2 F250.0 X179.6625 Y10.5846 I0.674 J-0.0361
G2 X180.675 Y10.0 I0.3375 J-0.5846
G2 X179.6625 Y9.4154 I-0.675 J0.0
G2 X179.326 Y10.0361 I0.3375 J0.5846
G0 Z2.0
G0 X199.325 Y10.0012
G0 Z1.0
G1 F10.0 Z-0.8
G2 F250.0 X199.6625 Y10.5846 I0.675 J-0.0012
G2 X200.675 Y10.0 I0.3375 J-0.5846
G2 X199.6625 Y9.4154 I-0.675 J0.0
G2 X199.325 Y10.0012 I0.3375 J0.5846
G1 F10.0 Z-1.6
G2 F250.0 X199.6625 Y10.5846 I0.675 J-0.0012
G2 X200.675 Y10.0 I0.3375 J-0.5846
G2 X199.6625 Y9.4154 I-0.675 J0.0
G2 X199.325 Y10.0012 I0.3375 J0.5846
G1 F10.0 Z-2.4
G2 F250.0 X199.6625 Y10.5846 I0.675 J-0.0012
G2 X200.675 Y10.0 I0.3375 J-0.5846
G2 X199.6625 Y9.4154 I-0.675 J0.0
G2 X199.325 Y10.0012 I0.3375 J0.5846
G1 F10.0 Z-3.2
G2 F250.0 X199.6625 Y10.5846 I0.675 J-0.0012
G2 X200.675 Y10.0 I0.3375 J-0.5846
G2 X199.6625 Y9.4154 I-0.675 J0.0
G2 X199.325 Y10.0012 I0.3375 J0.5846
G1 F10.0 Z-4.0
G2 F250.0 X199.6625 Y10.5846 I0.675 J-0.0012
G2 X200.675 Y10.0 I0.3375 J-0.5846
G2 X199.6625 Y9.4154 I-0.675 J0.0
G2 X199.325 Y10.0012 I0.3375 J0.5846
G1 F10.0 Z-4.8
G2 F250.0 X199.6625 Y10.5846 I0.675 J-0.0012
G2 X200.675 Y10.0 I0.3375 J-0.5846
G2 X199.6625 Y9.4154 I-0.675 J0.0
G2 X199.325 Y10.0012 I0.3375 J0.5846
G1 F10.0 Z-5.6
G2 F250.0 X199.6625 Y10.5846 I0.675 J-0.0012
G2 X200.675 Y10.0 I0.3375 J-0.5846
G2 X199.6625 Y9.4154 I-0.675 J0.0
G2 X199.325 Y10.0012 I0.3375 J0.5846
G1 F10.0 Z-6.4
G2 F250.0 X199.6625 Y10.5846 I0.675 J-0.0012
G2 X200.675 Y10.0 I0.3375 J-0.5846
G2 X199.6625 Y9.4154 I-0.675 J0.0
G2 X199.325 Y10.0012 I0.3375 J0.5846
G1 F10.0 Z-7.0
G2 F250.0 X199.6625 Y10.5846 I0.675 J-0.0012
G2 X200.675 Y10.0 I0.3375 J-0.5846
G2 X199.6625 Y9.4154 I-0.675 J0.0
G2 X199.325 Y10.0012 I0.3375 J0.5846
G0 Z2.0
G0 X219.325 Y10.0
G0 Z1.0
G1 F10.0 Z-0.8
G2 F250.0 X219.6625 Y10.5846 I0.675 J0.0
G2 X220.675 Y10.0 I0.3375 J-0.5846
G2 X219.6625 Y9.4154 I-0.675 J0.0
G2 X219.325 Y10.0 I0.3375 J0.5846
G1 F10.0 Z-1.6
G2 F250.0 X219.6625 Y10.5846 I0.675 J0.0
G2 X220.675 Y10.0 I0.3375 J-0.5846
G2 X219.6625 Y9.4154 I-0.675 J0.0
G2 X219.325 Y10.0 I0.3375 J0.5846
G1 F10.0 Z-2.4
G2 F250.0 X219.6625 Y10.5846 I0.675 J0.0
G2 X220.675 Y10.0 I0.3375 J-0.5846
G2 X219.6625 Y9.4154 I-0.675 J0.0
G2 X219.325 Y10.0 I0.3375 J0.5846
G1 F10.0 Z-3.2
G2 F250.0 X219.6625 Y10.5846 I0.675 J0.0
G2 X220.675 Y10.0 I0.3375 J-0.5846
G2 X219.6625 Y9.4154 I-0.675 J0.0
G2 X219.325 Y10.0 I0.3375 J0.5846
G1 F10.0 Z-4.0
G2 F250.0 X219.6625 Y10.5846 I0.675 J0.0
G2 X220.675 Y10.0 I0.3375 J-0.5846
G2 X219.6625 Y9.4154 I-0.675 J0.0
G2 X219.325 Y10.0 I0.3375 J0.5846
G1 F10.0 Z-4.8
G2 F250.0 X219.6625 Y10.5846 I0.675 J0.0
G2 X220.675 Y10.0 I0.3375 J-0.5846
G2 X219.6625 Y9.4154 I-0.675 J0.0
G2 X219.325 Y10.0 I0.3375 J0.5846
G1 F10.0 Z-5.6
G2 F250.0 X219.6625 Y10.5846 I0.675 J0.0
G2 X220.675 Y10.0 I0.3375 J-0.5846
G2 X219.6625 Y9.4154 I-0.675 J0.0
G2 X219.325 Y10.0 I0.3375 J0.5846
G1 F10.0 Z-6.4
G2 F250.0 X219.6625 Y10.5846 I0.675 J0.0
G2 X220.675 Y10.0 I0.3375 J-0.5846
G2 X219.6625 Y9.4154 I-0.675 J0.0
G2 X219.325 Y10.0 I0.3375 J0.5846
G1 F10.0 Z-7.0
G2 F250.0 X219.6625 Y10.5846 I0.675 J0.0
G2 X220.675 Y10.0 I0.3375 J-0.5846
G2 X219.6625 Y9.4154 I-0.675 J0.0
G2 X219.325 Y10.0 I0.3375 J0.5846
G0 Z2.0
G0 X239.325
G0 Z1.0
G1 F10.0 Z-0.8
G2 F250.0 X239.6625 Y10.5846 I0.675 J0.0
G2 X240.675 Y10.0 I0.3375 J-0.5846
G2 X239.6625 Y9.4154 I-0.675 J0.0
G2 X239.325 Y10.0 I0.3375 J0.5846
G1 F10.0 Z-1.6
G2 F250.0 X239.6625 Y10.5846 I0.675 J0.0
G2 X240.675 Y10.0 I0.3375 J-0.5846
G2 X239.6625 Y9.4154 I-0.675 J0.0
G2 X239.325 Y10.0 I0.3375 J0.5846
G1 F10.0 Z-2.4
G2 F250.0 X239.6625 Y10.5846 I0.675 J0.0
G2 X240.675 Y10.0 I0.3375 J-0.5846
G2 X239.6625 Y9.4154 I-0.675 J0.0
G2 X239.325 Y10.0 I0.3375 J0.5846
G1 F10.0 Z-3.2
G2 F250.0 X239.6625 Y10.5846 I0.675 J0.0
G2 X240.675 Y10.0 I0.3375 J-0.5846
G2 X239.6625 Y9.4154 I-0.675 J0.0
G2 X239.325 Y10.0 I0.3375 J0.5846
G1 F10.0 Z-4.0
G2 F250.0 X239.6625 Y10.5846 I0.675 J0.0
G2 X240.675 Y10.0 I0.3375 J-0.5846
G2 X239.6625 Y9.4154 I-0.675 J0.0
G2 X239.325 Y10.0 I0.3375 J0.5846
G1 F10.0 Z-4.8
G2 F250.0 X239.6625 Y10.5846 I0.675 J0.0
G2 X240.675 Y10.0 I0.3375 J-0.5846
G2 X239.6625 Y9.4154 I-0.675 J0.0
G2 X239.325 Y10.0 I0.3375 J0.5846
G1 F10.0 Z-5.6
G2 F250.0 X239.6625 Y10.5846 I0.675 J0.0
G2 X240.675 Y10.0 I0.3375 J-0.5846
G2 X239.6625 Y9.4154 I-0.675 J0.0
G2 X239.325 Y10.0 I0.3375 J0.5846
G1 F10.0 Z-6.4
G2 F250.0 X239.6625 Y10.5846 I0.675 J0.0
G2 X240.675 Y10.0 I0.3375 J-0.5846
G2 X239.6625 Y9.4154 I-0.675 J0.0
G2 X239.325 Y10.0 I0.3375 J0.5846
G1 F10.0 Z-7.0
G2 F250.0 X239.6625 Y10.5846 I0.675 J0.0
G2 X240.675 Y10.0 I0.3375 J-0.5846
G2 X239.6625 Y9.4154 I-0.675 J0.0
G2 X239.325 Y10.0 I0.3375 J0.5846
G0 Z2.0
G0 X239.9893 Y51.7251
G0 Z1.0
G1 F10.0 Z-0.8
G2 F250.0 X239.6625 Y51.8154 I0.0107 J0.6749
G2 Y52.9846 I0.3375 J0.5846
G2 X240.675 Y52.4 I0.3375 J-0.5846
G2 X239.9893 Y51.7251 I-0.675 J0.0
G1 F10.0 Z-1.6
G2 F250.0 X239.6625 Y51.8154 I0.0107 J0.6749
G2 Y52.9846 I0.3375 J0.5846
G2 X240.675 Y52.4 I0.3375 J-0.5846
G2 X239.9893 Y51.7251 I-0.675 J0.0
G1 F10.0 Z-2.4
G2 F250.0 X239.6625 Y51.8154 I0.0107 J0.6749
G2 Y52.9846 I0.3375 J0.5846
G2 X240.675 Y52.4 I0.3375 J-0.5846
G2 X239.9893 Y51.7251 I-0.675 J0.0
G1 F10.0 Z-3.2
G2 F250.0 X239.6625 Y51.8154 I0.0107 J0.6749
G2 Y52.9846 I0.3375 J0.5846
G2 X240.675 Y52.4 I0.3375 J-0.5846
G2 X239.9893 Y51.7251 I-0.675 J0.0
G1 F10.0 Z-4.0
G2 F250.0 X239.6625 Y51.8154 I0.0107 J0.6749
G2 Y52.9846 I0.3375 J0.5846
G2 X240.675 Y52.4 I0.3375 J-0.5846
G2 X239.9893 Y51.7251 I-0.675 J0.0
G1 F10.0 Z-4.8
G2 F250.0 X239.6625 Y51.8154 I0.0107 J0.6749
G2 Y52.9846 I0.3375 J0.5846
G2 X240.675 Y52.4 I0.3375 J-0.5846
G2 X239.9893 Y51.7251 I-0.675 J0.0
G1 F10.0 Z-5.6
G2 F250.0 X239.6625 Y51.8154 I0.0107 J0.6749
G2 Y52.9846 I0.3375 J0.5846
G2 X240.675 Y52.4 I0.3375 J-0.5846
G2 X239.9893 Y51.7251 I-0.675 J0.0
G1 F10.0 Z-6.4
G2 F250.0 X239.6625 Y51.8154 I0.0107 J0.6749
G2 Y52.9846 I0.3375 J0.5846
G2 X240.675 Y52.4 I0.3375 J-0.5846
G2 X239.9893 Y51.7251 I-0.675 J0.0
G1 F10.0 Z-7.0
G2 F250.0 X239.6625 Y51.8154 I0.0107 J0.6749
G2 Y52.9846 I0.3375 J0.5846
G2 X240.675 Y52.4 I0.3375 J-0.5846
G2 X239.9893 Y51.7251 I-0.675 J0.0
G0 Z2.0
G0 X233.6863 Y73.1742
G0 Z1.0
G1 F10.0 Z-0.8
G2 F250.0 X233.3638 Y73.2128 I-0.1163 J0.3958
G2 Y73.9272 I0.2063 J0.3572
G2 X233.9825 Y73.57 I0.2063 J-0.3572
G2 X233.6863 Y73.1742 I-0.4125 J0.0
G1 F10.0 Z-1.6
G2 F250.0 X233.3638 Y73.2128 I-0.1163 J0.3958
G2 Y73.9272 I0.2063 J0.3572
G2 X233.9825 Y73.57 I0.2063 J-0.3572
G2 X233.6863 Y73.1742 I-0.4125 J0.0
G1 F10.0 Z-2.4
G2 F250.0 X233.3638 Y73.2128 I-0.1163 J0.3958
G2 Y73.9272 I0.2063 J0.3572
G2 X233.9825 Y73.57 I0.2063 J-0.3572
G2 X233.6863 Y73.1742 I-0.4125 J0.0
G1 F10.0 Z-3.2
G2 F250.0 X233.3638 Y73.2128 I-0.1163 J0.3958
G2 Y73.9272 I0.2063 J0.3572
G2 X233.9825 Y73.57 I0.2063 J-0.3572
G2 X233.6863 Y73.1742 I-0.4125 J0.0
G1 F10.0 Z-4.0
G2 F250.0 X233.3638 Y73.2128 I-0.1163 J0.3958
G2 Y73.9272 I0.2063 J0.3572
G2 X233.9825 Y73.57 I0.2063 J-0.3572
G2 X233.6863 Y73.1742 I-0.4125 J0.0
G1 F10.0 Z-4.8
G2 F250.0 X233.3638 Y73.2128 I-0.1163 J0.3958
G2 Y73.9272 I0.2063 J0.3572
G2 X233.9825 Y73.57 I0.2063 J-0.3572
G2 X233.6863 Y73.1742 I-0.4125 J0.0
G1 F10.0 Z-5.6
G2 F250.0 X233.3638 Y73.2128 I-0.1163 J0.3958
G2 Y73.9272 I0.2063 J0.3572
G2 X233.9825 Y73.57 I0.2063 J-0.3572
G2 X233.6863 Y73.1742 I-0.4125 J0.0
G1 F10.0 Z-6.4
G2 F250.0 X233.3638 Y73.2128 I-0.1163 J0.3958
G2 Y73.9272 I0.2063 J0.3572
G2 X233.9825 Y73.57 I0.2063 J-0.3572
G2 X233.6863 Y73.1742 I-0.4125 J0.0
G1 F10.0 Z-7.0
G2 F250.0 X233.3638 Y73.2128 I-0.1163 J0.3958
G2 Y73.9272 I0.2063 J0.3572
G2 X233.9825 Y73.57 I0.2063 J-0.3572
G2 X233.6863 Y73.1742 I-0.4125 J0.0
G0 Z2.0
G0 X220.6739 Y72.4381
G0 Z1.0
G1 F10.0 Z-0.8
G2 F250.0 X220.675 Y72.4 I-0.6739 J-0.0381
G2 X219.6625 Y71.8154 I-0.675 J0.0
G2 Y72.9846 I0.3375 J0.5846
G2 X220.6739 Y72.4381 I0.3375 J-0.5846
G1 F10.0 Z-1.6
G2 F250.0 X220.675 Y72.4 I-0.6739 J-0.0381
G2 X219.6625 Y71.8154 I-0.675 J0.0
G2 Y72.9846 I0.3375 J0.5846
G2 X220.6739 Y72.4381 I0.3375 J-0.5846
G1 F10.0 Z-2.4
G2 F250.0 X220.675 Y72.4 I-0.6739 J-0.0381
G2 X219.6625 Y71.8154 I-0.675 J0.0
G2 Y72.9846 I0.3375 J0.5846
G2 X220.6739 Y72.4381 I0.3375 J-0.5846
G1 F10.0 Z-3.2
G2 F250.0 X220.675 Y72.4 I-0.6739 J-0.0381
G2 X219.6625 Y71.8154 I-0.675 J0.0
G2 Y72.9846 I0.3375 J0.5846
G2 X220.6739 Y72.4381 I0.3375 J-0.5846
G1 F10.0 Z-4.0
G2 F250.0 X220.675 Y72.4 I-0.6739 J-0.0381
G2 X219.6625 Y71.8154 I-0.675 J0.0
G2 Y72.9846 I0.3375 J0.5846
G2 X220.6739 Y72.4381 I0.3375 J-0.5846
G1 F10.0 Z-4.8
G2 F250.0 X220.675 Y72.4 I-0.6739 J-0.0381
G2 X219.6625 Y71.8154 I-0.675 J0.0
G2 Y72.9846 I0.3375 J0.5846
G2 X220.6739 Y72.4381 I0.3375 J-0.5846
G1 F10.0 Z-5.6
G2 F250.0 X220.675 Y72.4 I-0.6739 J-0.0381
G2 X219.6625 Y71.8154 I-0.675 J0.0
G2 Y72.9846 I0.3375 J0.5846
G2 X220.6739 Y72.4381 I0.3375 J-0.5846
G1 F10.0 Z-6.4
G2 F250.0 X220.675 Y72.4 I-0.6739 J-0.0381
G2 X219.6625 Y71.8154 I-0.675 J0.0
G2 Y72.9846 I0.3375 J0.5846
G2 X220.6739 Y72.4381 I0.3375 J-0.5846
G1 F10.0 Z-7.0
G2 F250.0 X220.675 Y72.4 I-0.6739 J-0.0381
G2 X219.6625 Y71.8154 I-0.675 J0.0
G2 Y72.9846 I0.3375 J0.5846
G2 X220.6739 Y72.4381 I0.3375 J-0.5846
G0 Z2.0
G0 X200.675 Y72.4012
G0 Z1.0
G1 F10.0 Z-0.8
G2 F250.0 Y72.4 I-0.675 J-0.0012
G2 X199.6625 Y71.8154 I-0.675 J0.0
G2 Y72.9846 I0.3375 J0.5846
G2 X200.675 Y72.4012 I0.3375 J-0.5846
G1 F10.0 Z-1.6
G2 F250.0 Y72.4 I-0.675 J-0.0012
G2 X199.6625 Y71.8154 I-0.675 J0.0
G2 Y72.9846 I0.3375 J0.5846
G2 X200.675 Y72.4012 I0.3375 J-0.5846
G1 F10.0 Z-2.4
G2 F250.0 Y72.4 I-0.675 J-0.0012
G2 X199.6625 Y71.8154 I-0.675 J0.0
G2 Y72.9846 I0.3375 J0.5846
G2 X200.675 Y72.4012 I0.3375 J-0.5846
G1 F10.0 Z-3.2
G2 F250.0 Y72.4 I-0.675 J-0.0012
G2 X199.6625 Y71.8154 I-0.675 J0.0
G2 Y72.9846 I0.3375 J0.5846
G2 X200.675 Y72.4012 I0.3375 J-0.5846
G1 F10.0 Z-4.0
G2 F250.0 Y72.4 I-0.675 J-0.0012
G2 X199.6625 Y71.8154 I-0.675 J0.0
G2 Y72.9846 I0.3375 J0.5846
G2 X200.675 Y72.4012 I0.3375 J-0.5846
G1 F10.0 Z-4.8
G2 F250.0 Y72.4 I-0.675 J-0.0012
G2 X199.6625 Y71.8154 I-0.675 J0.0
G2 Y72.9846 I0.3375 J0.5846
G2 X200.675 Y72.4012 I0.3375 J-0.5846
G1 F10.0 Z-5.6
G2 F250.0 Y72.4 I-0.675 J-0.0012
G2 X199.6625 Y71.8154 I-0.675 J0.0
G2 Y72.9846 I0.3375 J0.5846
G2 X200.675 Y72.4012 I0.3375 J-0.5846
G1 F10.0 Z-6.4
G2 F250.0 Y72.4 I-0.675 J-0.0012
G2 X199.6625 Y71.8154 I-0.675 J0.0
G2 Y72.9846 I0.3375 J0.5846
G2 X200.675 Y72.4012 I0.3375 J-0.5846
G1 F10.0 Z-7.0
G2 F250.0 Y72.4 I-0.675 J-0.0012
G2 X199.6625 Y71.8154 I-0.675 J0.0
G2 Y72.9846 I0.3375 J0.5846
G2 X200.675 Y72.4012 I0.3375 J-0.5846
G0 Z2.0
G0 X186.8411 Y73.5363
G0 Z1.0
G1 F10.0 Z-0.8
G2 F250.0 X186.2238 Y73.2128 I-0.4111 J0.0337
G2 Y73.9272 I0.2063 J0.3572
G2 X186.8425 Y73.57 I0.2063 J-0.3572
G2 X186.8411 Y73.5363 I-0.4125 J0.0
G1 F10.0 Z-1.6
G2 F250.0 X186.2238 Y73.2128 I-0.4111 J0.0337
G2 Y73.9272 I0.2063 J0.3572
G2 X186.8425 Y73.57 I0.2063 J-0.3572
G2 X186.8411 Y73.5363 I-0.4125 J0.0
G1 F10.0 Z-2.4
G2 F250.0 X186.2238 Y73.2128 I-0.4111 J0.0337
G2 Y73.9272 I0.2063 J0.3572
G2 X186.8425 Y73.57 I0.2063 J-0.3572
G2 X186.8411 Y73.5363 I-0.4125 J0.0
G1 F10.0 Z-3.2
G2 F250.0 X186.2238 Y73.2128 I-0.4111 J0.0337
G2 Y73.9272 I0.2063 J0.3572
G2 X186.8425 Y73.57 I0.2063 J-0.3572
G2 X186.8411 Y73.5363 I-0.4125 J0.0
G1 F10.0 Z-4.0
G2 F250.0 X186.2238 Y73.2128 I-0.4111 J0.0337
G2 Y73.9272 I0.2063 J0.3572
G2 X186.8425 Y73.57 I0.2063 J-0.3572
G2 X186.8411 Y73.5363 I-0.4125 J0.0
G1 F10.0 Z-4.8
G2 F250.0 X186.2238 Y73.2128 I-0.4111 J0.0337
G2 Y73.9272 I0.2063 J0.3572
G2 X186.8425 Y73.57 I0.2063 J-0.3572
G2 X186.8411 Y73.5363 I-0.4125 J0.0
G1 F10.0 Z-5.6
G2 F250.0 X186.2238 Y73.2128 I-0.4111 J0.0337
G2 Y73.9272 I0.2063 J0.3572
G2 X186.8425 Y73.57 I0.2063 J-0.3572
G2 X186.8411 Y73.5363 I-0.4125 J0.0
G1 F10.0 Z-6.4
G2 F250.0 X186.2238 Y73.2128 I-0.4111 J0.0337
G2 Y73.9272 I0.2063 J0.3572
G2 X186.8425 Y73.57 I0.2063 J-0.3572
G2 X186.8411 Y73.5363 I-0.4125 J0.0
G1 F10.0 Z-7.0
G2 F250.0 X186.2238 Y73.2128 I-0.4111 J0.0337
G2 Y73.9272 I0.2063 J0.3572
G2 X186.8425 Y73.57 I0.2063 J-0.3572
G2 X186.8411 Y73.5363 I-0.4125 J0.0
G0 Z2.0
G0 X180.2079 Y53.0422
G0 Z1.0
G1 F10.0 Z-0.8
G2 F250.0 X180.675 Y52.4 I-0.2079 J-0.6422
G2 X179.6625 Y51.8154 I-0.675 J0.0
G2 Y52.9846 I0.3375 J0.5846
G2 X180.2079 Y53.0422 I0.3375 J-0.5846
G1 F10.0 Z-1.6
G2 F250.0 X180.675 Y52.4 I-0.2079 J-0.6422
G2 X179.6625 Y51.8154 I-0.675 J0.0
G2 Y52.9846 I0.3375 J0.5846
G2 X180.2079 Y53.0422 I0.3375 J-0.5846
G1 F10.0 Z-2.4
G2 F250.0 X180.675 Y52.4 I-0.2079 J-0.6422
G2 X179.6625 Y51.8154 I-0.675 J0.0
G2 Y52.9846 I0.3375 J0.5846
G2 X180.2079 Y53.0422 I0.3375 J-0.5846
G1 F10.0 Z-3.2
G2 F250.0 X180.675 Y52.4 I-0.2079 J-0.6422
G2 X179.6625 Y51.8154 I-0.675 J0.0
G2 Y52.9846 I0.3375 J0.5846
G2 X180.2079 Y53.0422 I0.3375 J-0.5846
G1 F10.0 Z-4.0
G2 F250.0 X180.675 Y52.4 I-0.2079 J-0.6422
G2 X179.6625 Y51.8154 I-0.675 J0.0
G2 Y52.9846 I0.3375 J0.5846
G2 X180.2079 Y53.0422 I0.3375 J-0.5846
G1 F10.0 Z-4.8
G2 F250.0 X180.675 Y52.4 I-0.2079 J-0.6422
G2 X179.6625 Y51.8154 I-0.675 J0.0
G2 Y52.9846 I0.3375 J0.5846
G2 X180.2079 Y53.0422 I0.3375 J-0.5846
G1 F10.0 Z-5.6
G2 F250.0 X180.675 Y52.4 I-0.2079 J-0.6422
G2 X179.6625 Y51.8154 I-0.675 J0.0
G2 Y52.9846 I0.3375 J0.5846
G2 X180.2079 Y53.0422 I0.3375 J-0.5846
G1 F10.0 Z-6.4
G2 F250.0 X180.675 Y52.4 I-0.2079 J-0.6422
G2 X179.6625 Y51.8154 I-0.675 J0.0
G2 Y52.9846 I0.3375 J0.5846
G2 X180.2079 Y53.0422 I0.3375 J-0.5846
G1 F10.0 Z-7.0
G2 F250.0 X180.675 Y52.4 I-0.2079 J-0.6422
G2 X179.6625 Y51.8154 I-0.675 J0.0
G2 Y52.9846 I0.3375 J0.5846
G2 X180.2079 Y53.0422 I0.3375 J-0.5846
( Leadscrew Hole )
S1000
G0 Z2.0
G0 X210.025 Y50.0
G0 Z1.0
G1 F10.0 Z-0.8
G2 F250.0 X209.9875 Y49.9783 I-0.025 J0.0
G2 Y50.0217 I0.0125 J0.0217
G2 X210.025 Y50.0 I0.0125 J-0.0217
G1 F10.0 X210.755
G2 F250.0 X209.6225 Y49.3462 I-0.755 J0.0
G2 Y50.6538 I0.3775 J0.6538
G2 X210.755 Y50.0 I0.3775 J-0.6538
G1 F10.0 X212.215
G2 F250.0 X208.8925 Y48.0818 I-2.215 J0.0
G2 Y51.9182 I1.1075 J1.9182
G2 X212.215 Y50.0 I1.1075 J-1.9182
G1 F10.0 X213.675
G2 F250.0 X208.1625 Y46.8174 I-3.675 J0.0
G2 Y53.1826 I1.8375 J3.1826
G2 X213.675 Y50.0 I1.8375 J-3.1826
G0 Z2.0
G0 X210.025
G0 Z0.2
G1 F10.0 Z-1.6
G2 F250.0 X209.9875 Y49.9783 I-0.025 J0.0
G2 Y50.0217 I0.0125 J0.0217
G2 X210.025 Y50.0 I0.0125 J-0.0217
G1 F10.0 X210.755
G2 F250.0 X209.6225 Y49.3462 I-0.755 J0.0
G2 Y50.6538 I0.3775 J0.6538
G2 X210.755 Y50.0 I0.3775 J-0.6538
G1 F10.0 X212.215
G2 F250.0 X208.8925 Y48.0818 I-2.215 J0.0
G2 Y51.9182 I1.1075 J1.9182
G2 X212.215 Y50.0 I1.1075 J-1.9182
G1 F10.0 X213.675
G2 F250.0 X208.1625 Y46.8174 I-3.675 J0.0
G2 Y53.1826 I1.8375 J3.1826
G2 X213.675 Y50.0 I1.8375 J-3.1826
G0 Z2.0
G0 X210.025
G0 Z-0.6
G1 F10.0 Z-2.4
G2 F250.0 X209.9875 Y49.9783 I-0.025 J0.0
G2 Y50.0217 I0.0125 J0.0217
G2 X210.025 Y50.0 I0.0125 J-0.0217
G1 F10.0 X210.755
G2 F250.0 X209.6225 Y49.3462 I-0.755 J0.0
G2 Y50.6538 I0.3775 J0.6538
G2 X210.755 Y50.0 I0.3775 J-0.6538
G1 F10.0 X212.215
G2 F250.0 X208.8925 Y48.0818 I-2.215 J0.0
G2 Y51.9182 I1.1075 J1.9182
G2 X212.215 Y50.0 I1.1075 J-1.9182
G1 F10.0 X213.675
G2 F250.0 X208.1625 Y46.8174 I-3.675 J0.0
G2 Y53.1826 I1.8375 J3.1826
G2 X213.675 Y50.0 I1.8375 J-3.1826
G0 Z2.0
G0 X210.025
G0 Z-1.4
G1 F10.0 Z-3.2
G2 F250.0 X209.9875 Y49.9783 I-0.025 J0.0
G2 Y50.0217 I0.0125 J0.0217
G2 X210.025 Y50.0 I0.0125 J-0.0217
G1 F10.0 X210.755
G2 F250.0 X209.6225 Y49.3462 I-0.755 J0.0
G2 Y50.6538 I0.3775 J0.6538
G2 X210.755 Y50.0 I0.3775 J-0.6538
G1 F10.0 X212.215
G2 F250.0 X208.8925 Y48.0818 I-2.215 J0.0
G2 Y51.9182 I1.1075 J1.9182
G2 X212.215 Y50.0 I1.1075 J-1.9182
G1 F10.0 X213.675
G2 F250.0 X208.1625 Y46.8174 I-3.675 J0.0
G2 Y53.1826 I1.8375 J3.1826
G2 X213.675 Y50.0 I1.8375 J-3.1826
G0 Z2.0
G0 X210.025
G0 Z-2.2
G1 F10.0 Z-4.0
G2 F250.0 X209.9875 Y49.9783 I-0.025 J0.0
G2 Y50.0217 I0.0125 J0.0217
G2 X210.025 Y50.0 I0.0125 J-0.0217
G1 F10.0 X210.755
G2 F250.0 X209.6225 Y49.3462 I-0.755 J0.0
G2 Y50.6538 I0.3775 J0.6538
G2 X210.755 Y50.0 I0.3775 J-0.6538
G1 F10.0 X212.215
G2 F250.0 X208.8925 Y48.0818 I-2.215 J0.0
G2 Y51.9182 I1.1075 J1.9182
G2 X212.215 Y50.0 I1.1075 J-1.9182
G1 F10.0 X213.675
G2 F250.0 X208.1625 Y46.8174 I-3.675 J0.0
G2 Y53.1826 I1.8375 J3.1826
G2 X213.675 Y50.0 I1.8375 J-3.1826
G0 Z2.0
G0 X210.025
G0 Z-3.0
G1 F10.0 Z-4.8
G2 F250.0 X209.9875 Y49.9783 I-0.025 J0.0
G2 Y50.0217 I0.0125 J0.0217
G2 X210.025 Y50.0 I0.0125 J-0.0217
G1 F10.0 X210.755
G2 F250.0 X209.6225 Y49.3462 I-0.755 J0.0
G2 Y50.6538 I0.3775 J0.6538
G2 X210.755 Y50.0 I0.3775 J-0.6538
G1 F10.0 X212.215
G2 F250.0 X208.8925 Y48.0818 I-2.215 J0.0
G2 Y51.9182 I1.1075 J1.9182
G2 X212.215 Y50.0 I1.1075 J-1.9182
G1 F10.0 X213.675
G2 F250.0 X208.1625 Y46.8174 I-3.675 J0.0
G2 Y53.1826 I1.8375 J3.1826
G2 X213.675 Y50.0 I1.8375 J-3.1826
G0 Z2.0
G0 X210.025
G0 Z-3.8
G1 F10.0 Z-5.6
G2 F250.0 X209.9875 Y49.9783 I-0.025 J0.0
G2 Y50.0217 I0.0125 J0.0217
G2 X210.025 Y50.0 I0.0125 J-0.0217
G1 F10.0 X210.755
G2 F250.0 X209.6225 Y49.3462 I-0.755 J0.0
G2 Y50.6538 I0.3775 J0.6538
G2 X210.755 Y50.0 I0.3775 J-0.6538
G1 F10.0 X212.215
G2 F250.0 X208.8925 Y48.0818 I-2.215 J0.0
G2 Y51.9182 I1.1075 J1.9182
G2 X212.215 Y50.0 I1.1075 J-1.9182
G1 F10.0 X213.675
G2 F250.0 X208.1625 Y46.8174 I-3.675 J0.0
G2 Y53.1826 I1.8375 J3.1826
G2 X213.675 Y50.0 I1.8375 J-3.1826
G0 Z2.0
G0 X210.025
G0 Z-4.6
G1 F10.0 Z-6.4
G2 F250.0 X209.9875 Y49.9783 I-0.025 J0.0
G2 Y50.0217 I0.0125 J0.0217
G2 X210.025 Y50.0 I0.0125 J-0.0217
G1 F10.0 X210.755
G2 F250.0 X209.6225 Y49.3462 I-0.755 J0.0
G2 Y50.6538 I0.3775 J0.6538
G2 X210.755 Y50.0 I0.3775 J-0.6538
G1 F10.0 X212.215
G2 F250.0 X208.8925 Y48.0818 I-2.215 J0.0
G2 Y51.9182 I1.1075 J1.9182
G2 X212.215 Y50.0 I1.1075 J-1.9182
G1 F10.0 X213.675
G2 F250.0 X208.1625 Y46.8174 I-3.675 J0.0
G2 Y53.1826 I1.8375 J3.1826
G2 X213.675 Y50.0 I1.8375 J-3.1826
G0 Z2.0
G0 X210.025
G0 Z-5.4
G1 F10.0 Z-7.0
G2 F250.0 X209.9875 Y49.9783 I-0.025 J0.0
G2 Y50.0217 I0.0125 J0.0217
G2 X210.025 Y50.0 I0.0125 J-0.0217
G1 F10.0 X210.755
G2 F250.0 X209.6225 Y49.3462 I-0.755 J0.0
G2 Y50.6538 I0.3775 J0.6538
G2 X210.755 Y50.0 I0.3775 J-0.6538
G1 F10.0 X212.215
G2 F250.0 X208.8925 Y48.0818 I-2.215 J0.0
G2 Y51.9182 I1.1075 J1.9182
G2 X212.215 Y50.0 I1.1075 J-1.9182
G1 F10.0 X213.675
G2 F250.0 X208.1625 Y46.8174 I-3.675 J0.0
G2 Y53.1826 I1.8375 J3.1826
G2 X213.675 Y50.0 I1.8375 J-3.1826
( Bearing Pocket )
S1000
G0 Z0.0
G1 F10.0 X216.202
G2 F250.0 X206.899 Y44.6289 Z-0.2667 I-6.202 J0.0
G2 Y55.3711 Z-0.5333 I3.101 J5.3711
G2 X216.202 Y50.0 Z-0.8 I3.101 J-5.3711
G2 X206.899 Y44.6289 Z-1.0667 I-6.202 J0.0
G2 Y55.3711 Z-1.3333 I3.101 J5.3711
G2 X216.202 Y50.0 Z-1.6 I3.101 J-5.3711
G2 X206.899 Y44.6289 Z-1.8667 I-6.202 J0.0
G2 Y55.3711 Z-2.1333 I3.101 J5.3711
G2 X216.202 Y50.0 Z-2.4 I3.101 J-5.3711
G2 X206.899 Y44.6289 Z-2.6667 I-6.202 J0.0
G2 Y55.3711 Z-2.9333 I3.101 J5.3711
G2 X216.202 Y50.0 Z-3.2 I3.101 J-5.3711
G2 X206.899 Y44.6289 Z-3.2167 I-6.202 J0.0
G2 Y55.3711 Z-3.2333 I3.101 J5.3711
G2 X216.202 Y50.0 Z-3.25 I3.101 J-5.3711
G2 X206.899 Y44.6289 I-6.202 J0.0
G2 Y55.3711 I3.101 J5.3711
G2 X216.202 Y50.0 I3.101 J-5.3711
( Large Wheel Eccentric Pockets )
S1000
G0 Z2.0
G0 X92.675 Y185.0
G0 Z1.0
G1 F5.0 Z0.0
G2 F250.0 X86.4125 Y181.3843 Z-0.1333 I-4.175 J0.0
G2 Y188.6157 Z-0.2667 I2.0875 J3.6157
G2 X92.675 Y185.0 Z-0.4 I2.0875 J-3.6157
G2 X86.4125 Y181.3843 Z-0.5333 I-4.175 J0.0
G2 Y188.6157 Z-0.6667 I2.0875 J3.6157
G2 X92.675 Y185.0 Z-0.8 I2.0875 J-3.6157
G2 X86.4125 Y181.3843 I-4.175 J0.0
G2 Y188.6157 I2.0875 J3.6157
G2 X92.675 Y185.0 I2.0875 J-3.6157
G0 Z2.0
G0 X88.7048 Y104.17
G0 Z1.0
G1 F5.0 Z0.0
G2 F250.0 X92.675 Y100.0 Z-0.0969 I-0.2048 J-4.17
G2 X86.4125 Y96.3843 Z-0.2302 I-4.175 J0.0
G2 Y103.6157 Z-0.3635 I2.0875 J3.6157
G2 X88.7048 Y104.17 Z-0.4 I2.0875 J-3.6157
G2 X92.675 Y100.0 Z-0.4969 I-0.2048 J-4.17
G2 X86.4125 Y96.3843 Z-0.6302 I-4.175 J0.0
G2 Y103.6157 Z-0.7635 I2.0875 J3.6157
G2 X88.7048 Y104.17 Z-0.8 I2.0875 J-3.6157
G2 X92.675 Y100.0 I-0.2048 J-4.17
G2 X86.4125 Y96.3843 I-4.175 J0.0
G2 Y103.6157 I2.0875 J3.6157
G2 X88.7048 Y104.17 I2.0875 J-3.6157
G0 Z2.0
G0 X88.5096 Y19.175
G0 Z1.0
G1 F5.0 Z0.0
G2 F250.0 X92.675 Y15.0 Z-0.0999 I-0.0096 J-4.175
G2 X86.4125 Y11.3843 Z-0.2332 I-4.175 J0.0
G2 Y18.6157 Z-0.3665 I2.0875 J3.6157
G2 X88.5096 Y19.175 Z-0.4 I2.0875 J-3.6157
G2 X92.675 Y15.0 Z-0.4999 I-0.0096 J-4.175
G2 X86.4125 Y11.3843 Z-0.6332 I-4.175 J0.0
G2 Y18.6157 Z-0.7665 I2.0875 J3.6157
G2 X88.5096 Y19.175 Z-0.8 I2.0875 J-3.6157
G2 X92.675 Y15.0 I-0.0096 J-4.175
G2 X86.4125 Y11.3843 I-4.175 J0.0
G2 Y18.6157 I2.0875 J3.6157
G2 X88.5096 Y19.175 I2.0875 J-3.6157
( Backlash-Nut Access )
S1000
G0 Z2.0
G0 X64.185 Y112.0
G0 Z1.0
G1 F10.0 Z0.0
G1 F250.0 Y98.0 Z-0.122
G2 X63.26 Y97.075 Z-0.1346 I-0.925 J0.0
G1 X34.26 Z-0.3873
G2 X33.335 Y98.0 Z-0.4 I0.0 J0.925
G1 Y112.0 Z-0.522
G2 X34.26 Y112.925 Z-0.5346 I0.925 J0.0
G1 X63.26 Z-0.7873
G2 X64.185 Y112.0 Z-0.8 I0.0 J-0.925
G1 X64.435
G1 Y98.0
G2 X63.26 Y96.825 I-1.175 J0.0
G1 X34.26
G2 X33.085 Y98.0 I0.0 J1.175
G1 Y112.0
G2 X34.26 Y113.175 I1.175 J0.0
G1 X63.26
G2 X64.435 Y112.0 I0.0 J-1.175
G1 X64.185
G1 Y98.0 Z-0.922
G2 X63.26 Y97.075 Z-0.9346 I-0.925 J0.0
G1 X34.26 Z-1.1873
G2 X33.335 Y98.0 Z-1.2 I0.0 J0.925
G1 Y112.0 Z-1.322
G2 X34.26 Y112.925 Z-1.3346 I0.925 J0.0
G1 X63.26 Z-1.5873
G2 X64.185 Y112.0 Z-1.6 I0.0 J-0.925
G1 X64.435
G1 Y98.0
G2 X63.26 Y96.825 I-1.175 J0.0
G1 X34.26
G2 X33.085 Y98.0 I0.0 J1.175
G1 Y112.0
G2 X34.26 Y113.175 I1.175 J0.0
G1 X63.26
G2 X64.435 Y112.0 I0.0 J-1.175
G1 X64.185
G1 Y98.0 Z-1.722
G2 X63.26 Y97.075 Z-1.7346 I-0.925 J0.0
G1 X34.26 Z-1.9873
G2 X33.335 Y98.0 Z-2.0 I0.0 J0.925
G1 Y112.0 Z-2.122
G2 X34.26 Y112.925 Z-2.1346 I0.925 J0.0
G1 X63.26 Z-2.3873
G2 X64.185 Y112.0 Z-2.4 I0.0 J-0.925
G1 X64.435
G1 Y98.0
G2 X63.26 Y96.825 I-1.175 J0.0
G1 X34.26
G2 X33.085 Y98.0 I0.0 J1.175
G1 Y112.0
G2 X34.26 Y113.175 I1.175 J0.0
G1 X63.26
G2 X64.435 Y112.0 I0.0 J-1.175
G1 X64.185
G1 Y98.0 Z-2.522
G2 X63.26 Y97.075 Z-2.5346 I-0.925 J0.0
G1 X34.26 Z-2.7873
G2 X33.335 Y98.0 Z-2.8 I0.0 J0.925
G1 Y112.0 Z-2.922
G2 X34.26 Y112.925 Z-2.9346 I0.925 J0.0
G1 X63.26 Z-3.1873
G2 X64.185 Y112.0 Z-3.2 I0.0 J-0.925
G1 X64.435
G1 Y98.0
G2 X63.26 Y96.825 I-1.175 J0.0
G1 X34.26
G2 X33.085 Y98.0 I0.0 J1.175
G1 Y112.0
G2 X34.26 Y113.175 I1.175 J0.0
G1 X63.26
G2 X64.435 Y112.0 I0.0 J-1.175
G1 X64.185
G1 Y98.0 Z-3.322
G2 X63.26 Y97.075 Z-3.3346 I-0.925 J0.0
G1 X34.26 Z-3.5873
G2 X33.335 Y98.0 Z-3.6 I0.0 J0.925
G1 Y112.0 Z-3.722
G2 X34.26 Y112.925 Z-3.7346 I0.925 J0.0
G1 X63.26 Z-3.9873
G2 X64.185 Y112.0 Z-4.0 I0.0 J-0.925
G1 X64.435
G1 Y98.0
G2 X63.26 Y96.825 I-1.175 J0.0
G1 X34.26
G2 X33.085 Y98.0 I0.0 J1.175
G1 Y112.0
G2 X34.26 Y113.175 I1.175 J0.0
G1 X63.26
G2 X64.435 Y112.0 I0.0 J-1.175
G1 X64.185
G1 Y98.0 Z-4.122
G2 X63.26 Y97.075 Z-4.1346 I-0.925 J0.0
G1 X59.085 Z-4.171
G1 X57.585 Z-4.0
G1 X53.935
G1 X52.435 Z-4.229
G1 X34.26 Z-4.3873
G2 X33.335 Y98.0 Z-4.4 I0.0 J0.925
G1 Y112.0 Z-4.522
G2 X34.26 Y112.925 Z-4.5346 I0.925 J0.0
G1 X38.435 Z-4.571
G1 X39.935 Z-4.0
G1 X43.585
G1 X45.085 Z-4.629
G1 X63.26 Z-4.7873
G2 X64.185 Y112.0 Z-4.8 I0.0 J-0.925
G1 X64.435
G1 Y98.0
G2 X63.26 Y96.825 I-1.175 J0.0
G1 X59.085
G1 X57.585 Z-4.0
G1 X53.935
G1 X52.435 Z-4.8
G1 X34.26
G2 X33.085 Y98.0 I0.0 J1.175
G1 Y112.0
G2 X34.26 Y113.175 I1.175 J0.0
G1 X38.435
G1 X39.935 Z-4.0
G1 X43.585
G1 X45.085 Z-4.8
G1 X63.26
G2 X64.435 Y112.0 I0.0 J-1.175
G1 X64.185
G1 Y98.0 Z-4.922
G2 X63.26 Y97.075 Z-4.9346 I-0.925 J0.0
G1 X59.085 Z-4.971
G1 X57.585 Z-4.0
G1 X53.935
G1 X52.435 Z-5.029
G1 X34.26 Z-5.1873
G2 X33.335 Y98.0 Z-5.2 I0.0 J0.925
G1 Y112.0 Z-5.322
G2 X34.26 Y112.925 Z-5.3346 I0.925 J0.0
G1 X38.435 Z-5.371
G1 X39.935 Z-4.0
G1 X43.585
G1 X45.085 Z-5.429
G1 X63.26 Z-5.5873
G2 X64.185 Y112.0 Z-5.6 I0.0 J-0.925
G1 X64.435
G1 Y98.0
G2 X63.26 Y96.825 I-1.175 J0.0
G1 X59.085
G1 X57.585 Z-4.0
G1 X53.935
G1 X52.435 Z-5.6
G1 X34.26
G2 X33.085 Y98.0 I0.0 J1.175
G1 Y112.0
G2 X34.26 Y113.175 I1.175 J0.0
G1 X38.435
G1 X39.935 Z-4.0
G1 X43.585
G1 X45.085 Z-5.6
G1 X63.26
G2 X64.435 Y112.0 I0.0 J-1.175
G1 X64.185
G1 Y98.0 Z-5.722
G2 X63.26 Y97.075 Z-5.7346 I-0.925 J0.0
G1 X59.085 Z-5.771
G1 X57.585 Z-4.0
G1 X53.935
G1 X52.435 Z-5.829
G1 X34.26 Z-5.9873
G2 X33.335 Y98.0 Z-6.0 I0.0 J0.925
G1 Y112.0 Z-6.122
G2 X34.26 Y112.925 Z-6.1346 I0.925 J0.0
G1 X38.435 Z-6.171
G1 X39.935 Z-4.0
G1 X43.585
G1 X45.085 Z-6.229
G1 X63.26 Z-6.3873
G2 X64.185 Y112.0 Z-6.4 I0.0 J-0.925
G1 X64.435
G1 Y98.0
G2 X63.26 Y96.825 I-1.175 J0.0
G1 X59.085
G1 X57.585 Z-4.0
G1 X53.935
G1 X52.435 Z-6.4
G1 X34.26
G2 X33.085 Y98.0 I0.0 J1.175
G1 Y112.0
G2 X34.26 Y113.175 I1.175 J0.0
G1 X38.435
G1 X39.935 Z-4.0
G1 X43.585
G1 X45.085 Z-6.4
G1 X63.26
G2 X64.435 Y112.0 I0.0 J-1.175
G1 X64.185
G1 Y98.0 Z-6.4915
G2 X63.26 Y97.075 Z-6.501 I-0.925 J0.0
G1 X59.085 Z-6.5283
G1 X57.585 Z-4.0
G1 X53.935
G1 X52.435 Z-6.5717
G1 X34.26 Z-6.6905
G2 X33.335 Y98.0 Z-6.7 I0.0 J0.925
G1 Y112.0 Z-6.7915
G2 X34.26 Y112.925 Z-6.801 I0.925 J0.0
G1 X38.435 Z-6.8283
G1 X39.935 Z-4.0
G1 X43.585
G1 X45.085 Z-6.8717
G1 X63.26 Z-6.9905
G2 X64.185 Y112.0 Z-7.0 I0.0 J-0.925
G1 Y98.0
G2 X63.26 Y97.075 I-0.925 J0.0
G1 X59.085
G1 X57.585 Z-4.0
G1 X53.935
G1 X52.435 Z-7.0
G1 X34.26
G2 X33.335 Y98.0 I0.0 J0.925
G1 Y112.0
G2 X34.26 Y112.925 I0.925 J0.0
G1 X38.435
G1 X39.935 Z-4.0
G1 X43.585
G1 X45.085 Z-7.0
G1 X63.26
G2 X64.185 Y112.0 I0.0 J-0.925
G1 X64.435
G1 Y98.0
G2 X63.26 Y96.825 I-1.175 J0.0
G1 X59.085
G1 X57.585 Z-4.0
G1 X53.935
G1 X52.435 Z-7.0
G1 X34.26
G2 X33.085 Y98.0 I0.0 J1.175
G1 Y112.0
G2 X34.26 Y113.175 I1.175 J0.0
G1 X38.435
G1 X39.935 Z-4.0
G1 X43.585
G1 X45.085 Z-7.0
G1 X63.26
G2 X64.435 Y112.0 I0.0 J-1.175
( Outside Profile )
S1000
G0 Z2.0
G0 X245.0008 Y89.475
G0 Z1.0
G1 F10.0 Z0.0
G2 F250.0 X233.3297 Y90.0514 Z-0.0112 I0.0829 J120.1221
G1 X233.3296
G2 X227.8881 Y90.7014 Z-0.0165 I12.8044 J130.2982
G2 X217.4419 Y92.6016 Z-0.0267 I18.9046 J133.5908
G1 X217.4418
G2 X207.8006 Y95.1007 Z-0.0362 I31.5464 J141.5501
G1 X207.239 Y95.2682 Z-0.0368
G1 X206.6796 Y95.4373 Z-0.0374
G2 X202.2714 Y96.8544 Z-0.0418 I41.958 J138.0921
G1 X201.735 Y97.0369 Z-0.0424
G2 X197.5262 Y98.5466 Z-0.0467 I48.4977 J141.8284
G3 X197.5249 Y98.5471 I-0.7296 J-1.9425
G2 X189.4912 Y101.8124 Z-0.055 I55.5837 J148.2698
G2 X174.9304 Y109.0671 Z-0.0706 I67.0216 J152.7581
G3 X174.93 Y109.0673 I-1.0148 J-1.8099
G2 X162.8036 Y116.541 Z-0.0843 I83.8908 J149.6923
G1 X162.1541 Y116.9815 Z-0.085
G2 X142.7733 Y132.3443 Z-0.1088 I96.4335 J141.5615
G2 X136.1123 Y138.8141 Z-0.1177 I112.3349 J122.3173
G3 X136.112 Y138.8145 I-1.4868 J-1.4474
G2 X130.5947 Y144.7766 Z-0.1255 I113.8798 J110.9168
G3 X130.5941 Y144.7772 I-1.5585 J-1.37
G2 X126.0232 Y150.2193 Z-0.1323 I116.3671 J102.38
G3 X126.0226 Y150.22 I-1.6191 J-1.2978
G2 X118.656 Y160.2317 Z-0.1443 I116.1518 J93.1806
G3 X118.6558 Y160.232 I-1.7212 J-1.1589
G2 X113.7141 Y168.1289 Z-0.1532 I114.8716 J77.3788
G3 X113.7136 Y168.1298 I-1.795 J-1.041
G2 X110.368 Y174.2591 Z-0.1599 I114.3542 J66.3949
G3 X110.3673 Y174.2605 I-1.847 J-0.9457
G2 X105.9828 Y183.7624 Z-0.17 I111.7776 J57.3408
G3 X105.9719 Y183.7884 I-1.9187 J-0.7902
G2 X105.9315 Y183.8868 Z-0.1701 I3.3912 J1.4507
G3 X105.9206 Y183.9138 I-1.9305 J-0.7608
G2 X102.4293 Y193.5946 Z-0.18 I109.9905 J45.1374
G3 X90.9017 Y202.075 Z-0.1947 I-11.5275 J-3.5946
G1 X12.6407 Z-0.2699
G3 X0.8489 Y187.4002 Z-0.2906 I0.0 J-12.075
G2 Y12.5998 Z-0.4597 I-396.4122 J-87.4002
G3 X12.6407 Y-2.075 Z-0.4805 I11.7918 J-2.5998
G1 X247.0 Z-0.7054
G3 X252.075 Y3.0 Z-0.7131 I0.0 J5.075
G1 Y82.4 Z-0.7893
G3 X245.0008 Y89.475 Z-0.8 I-7.075 J0.0
G1 X245.0007 Y89.225
G2 X233.3053 Y89.8026 I0.083 J120.3721
G1 X233.3052
G2 X227.8532 Y90.4539 I12.8288 J130.547
G2 X217.3875 Y92.3576 I18.9395 J133.8384
G2 X207.7294 Y94.861 I31.6007 J141.7941
G1 X207.167 Y95.0287
G1 X206.6071 Y95.1981
G2 X202.1909 Y96.6177 I42.0305 J138.3314
G1 X201.6543 Y96.8003
G2 X197.4383 Y98.3126 I48.5784 J142.065
G3 X197.4372 Y98.313 I-0.6417 J-1.7085
G2 X189.3908 Y101.5835 I55.6714 J148.5039
G1 Y101.5834
G1 Y101.5835
G2 X174.8082 Y108.849 I67.122 J152.987
G3 X174.8078 Y108.8492 I-0.8925 J-1.5919
G2 X162.6635 Y116.3339 I84.013 J149.9104
G1 X162.0136 Y116.7747
G2 X142.6042 Y132.1601 I96.574 J141.7683
G2 X135.9331 Y138.6397 I112.504 J122.5015
G3 X135.9329 Y138.64 I-1.3077 J-1.2731
G2 X130.4069 Y144.6115 I114.0588 J111.0912
G3 X130.4064 Y144.6121 I-1.3707 J-1.2049
G2 X125.8281 Y150.063 I116.5548 J102.5451
G3 X125.8276 Y150.0636 I-1.424 J-1.1414
G2 X118.4487 Y160.092 I116.3468 J93.3371
G3 X118.4485 Y160.0923 I-1.5138 J-1.0193
G2 X113.4979 Y168.0034 I115.079 J77.5185
G3 X113.4974 Y168.0043 I-1.5787 J-0.9155
G2 X110.1455 Y174.1452 I114.5704 J66.5205
G3 X110.1449 Y174.1464 I-1.6244 J-0.8318
G2 X105.7517 Y183.6672 I112.0 J57.4549
G3 X105.7421 Y183.69 I-1.6875 J-0.695
G2 X105.6989 Y183.7952 I3.621 J1.5491
G3 X105.6893 Y183.8189 I-1.6979 J-0.6691
G2 X102.1906 Y193.5201 I110.2217 J45.2324
G3 X90.9017 Y201.825 I-11.2889 J-3.5201
G1 X12.6407
G3 X1.093 Y187.454 I0.0 J-11.825
G2 Y12.546 I-396.6563 J-87.454
G3 X12.6407 Y-1.825 I11.5477 J-2.546
G1 X247.0
G3 X251.825 Y3.0 I0.0 J4.825
G1 Y82.4
G3 X245.0007 Y89.225 I-6.825 J0.0
G1 X245.0008 Y89.475
G2 X233.3297 Y90.0514 Z-0.8112 I0.0829 J120.1221
G1 X233.3296
G2 X227.8881 Y90.7014 Z-0.8165 I12.8044 J130.2982
G2 X217.4419 Y92.6016 Z-0.8267 I18.9046 J133.5908
G1 X217.4418
G2 X207.8006 Y95.1007 Z-0.8362 I31.5464 J141.5501
G1 X207.239 Y95.2682 Z-0.8368
G1 X206.6796 Y95.4373 Z-0.8374
G2 X202.2714 Y96.8544 Z-0.8418 I41.958 J138.0921
G1 X201.735 Y97.0369 Z-0.8424
G2 X197.5262 Y98.5466 Z-0.8467 I48.4977 J141.8284
G3 X197.5249 Y98.5471 I-0.7296 J-1.9425
G2 X189.4912 Y101.8124 Z-0.855 I55.5837 J148.2698
G2 X174.9304 Y109.0671 Z-0.8706 I67.0216 J152.7581
G3 X174.93 Y109.0673 I-1.0148 J-1.8099
G2 X162.8036 Y116.541 Z-0.8843 I83.8908 J149.6923
G1 X162.1541 Y116.9815 Z-0.885
G2 X142.7733 Y132.3443 Z-0.9088 I96.4335 J141.5615
G2 X136.1123 Y138.8141 Z-0.9177 I112.3349 J122.3173
G3 X136.112 Y138.8145 I-1.4868 J-1.4474
G2 X130.5947 Y144.7766 Z-0.9255 I113.8798 J110.9168
G3 X130.5941 Y144.7772 I-1.5585 J-1.37
G2 X126.0232 Y150.2193 Z-0.9323 I116.3671 J102.38
G3 X126.0226 Y150.22 I-1.6191 J-1.2978
G2 X118.656 Y160.2317 Z-0.9443 I116.1518 J93.1806
G3 X118.6558 Y160.232 I-1.7212 J-1.1589
G2 X113.7141 Y168.1289 Z-0.9532 I114.8716 J77.3788
G3 X113.7136 Y168.1298 I-1.795 J-1.041
G2 X110.368 Y174.2591 Z-0.9599 I114.3542 J66.3949
G3 X110.3673 Y174.2605 I-1.847 J-0.9457
G2 X105.9828 Y183.7624 Z-0.97 I111.7776 J57.3408
G3 X105.9719 Y183.7884 I-1.9187 J-0.7902
G2 X105.9315 Y183.8868 Z-0.9701 I3.3912 J1.4507
G3 X105.9206 Y183.9138 I-1.9305 J-0.7608
G2 X102.4293 Y193.5946 Z-0.98 I109.9905 J45.1374
G3 X90.9017 Y202.075 Z-0.9947 I-11.5275 J-3.5946
G1 X12.6407 Z-1.0699
G3 X0.8489 Y187.4002 Z-1.0906 I0.0 J-12.075
G2 Y12.5998 Z-1.2597 I-396.4122 J-87.4002
G3 X12.6407 Y-2.075 Z-1.2805 I11.7918 J-2.5998
G1 X247.0 Z-1.5054
G3 X252.075 Y3.0 Z-1.5131 I0.0 J5.075
G1 Y82.4 Z-1.5893
G3 X245.0008 Y89.475 Z-1.6 I-7.075 J0.0
G1 X245.0007 Y89.225
G2 X233.3053 Y89.8026 I0.083 J120.3721
G1 X233.3052
G2 X227.8532 Y90.4539 I12.8288 J130.547
G2 X217.3875 Y92.3576 I18.9395 J133.8384
G2 X207.7294 Y94.861 I31.6007 J141.7941
G1 X207.167 Y95.0287
G1 X206.6071 Y95.1981
G2 X202.1909 Y96.6177 I42.0305 J138.3314
G1 X201.6543 Y96.8003
G2 X197.4383 Y98.3126 I48.5784 J142.065
G3 X197.4372 Y98.313 I-0.6417 J-1.7085
G2 X189.3908 Y101.5835 I55.6714 J148.5039
G1 Y101.5834
G1 Y101.5835
G2 X174.8082 Y108.849 I67.122 J152.987
G3 X174.8078 Y108.8492 I-0.8925 J-1.5919
G2 X162.6635 Y116.3339 I84.013 J149.9104
G1 X162.0136 Y116.7747
G2 X142.6042 Y132.1601 I96.574 J141.7683
G2 X135.9331 Y138.6397 I112.504 J122.5015
G3 X135.9329 Y138.64 I-1.3077 J-1.2731
G2 X130.4069 Y144.6115 I114.0588 J111.0912
G3 X130.4064 Y144.6121 I-1.3707 J-1.2049
G2 X125.8281 Y150.063 I116.5548 J102.5451
G3 X125.8276 Y150.0636 I-1.424 J-1.1414
G2 X118.4487 Y160.092 I116.3468 J93.3371
G3 X118.4485 Y160.0923 I-1.5138 J-1.0193
G2 X113.4979 Y168.0034 I115.079 J77.5185
G3 X113.4974 Y168.0043 I-1.5787 J-0.9155
G2 X110.1455 Y174.1452 I114.5704 J66.5205
G3 X110.1449 Y174.1464 I-1.6244 J-0.8318
G2 X105.7517 Y183.6672 I112.0 J57.4549
G3 X105.7421 Y183.69 I-1.6875 J-0.695
G2 X105.6989 Y183.7952 I3.621 J1.5491
G3 X105.6893 Y183.8189 I-1.6979 J-0.6691
G2 X102.1906 Y193.5201 I110.2217 J45.2324
G3 X90.9017 Y201.825 I-11.2889 J-3.5201
G1 X12.6407
G3 X1.093 Y187.454 I0.0 J-11.825
G2 Y12.546 I-396.6563 J-87.454
G3 X12.6407 Y-1.825 I11.5477 J-2.546
G1 X247.0
G3 X251.825 Y3.0 I0.0 J4.825
G1 Y82.4
G3 X245.0007 Y89.225 I-6.825 J0.0
G1 X245.0008 Y89.475
G2 X233.3297 Y90.0514 Z-1.6112 I0.0829 J120.1221
G1 X233.3296
G2 X227.8881 Y90.7014 Z-1.6165 I12.8044 J130.2982
G2 X217.4419 Y92.6016 Z-1.6267 I18.9046 J133.5908
G1 X217.4418
G2 X207.8006 Y95.1007 Z-1.6362 I31.5464 J141.5501
G1 X207.239 Y95.2682 Z-1.6368
G1 X206.6796 Y95.4373 Z-1.6374
G2 X202.2714 Y96.8544 Z-1.6418 I41.958 J138.0921
G1 X201.735 Y97.0369 Z-1.6424
G2 X197.5262 Y98.5466 Z-1.6467 I48.4977 J141.8284
G3 X197.5249 Y98.5471 I-0.7296 J-1.9425
G2 X189.4912 Y101.8124 Z-1.655 I55.5837 J148.2698
G2 X174.9304 Y109.0671 Z-1.6706 I67.0216 J152.7581
G3 X174.93 Y109.0673 I-1.0148 J-1.8099
G2 X162.8036 Y116.541 Z-1.6843 I83.8908 J149.6923
G1 X162.1541 Y116.9815 Z-1.685
G2 X142.7733 Y132.3443 Z-1.7088 I96.4335 J141.5615
G2 X136.1123 Y138.8141 Z-1.7177 I112.3349 J122.3173
G3 X136.112 Y138.8145 I-1.4868 J-1.4474
G2 X130.5947 Y144.7766 Z-1.7255 I113.8798 J110.9168
G3 X130.5941 Y144.7772 I-1.5585 J-1.37
G2 X126.0232 Y150.2193 Z-1.7323 I116.3671 J102.38
G3 X126.0226 Y150.22 I-1.6191 J-1.2978
G2 X118.656 Y160.2317 Z-1.7443 I116.1518 J93.1806
G3 X118.6558 Y160.232 I-1.7212 J-1.1589
G2 X113.7141 Y168.1289 Z-1.7532 I114.8716 J77.3788
G3 X113.7136 Y168.1298 I-1.795 J-1.041
G2 X110.368 Y174.2591 Z-1.7599 I114.3542 J66.3949
G3 X110.3673 Y174.2605 I-1.847 J-0.9457
G2 X105.9828 Y183.7624 Z-1.77 I111.7776 J57.3408
G3 X105.9719 Y183.7884 I-1.9187 J-0.7902
G2 X105.9315 Y183.8868 Z-1.7701 I3.3912 J1.4507
G3 X105.9206 Y183.9138 I-1.9305 J-0.7608
G2 X102.4293 Y193.5946 Z-1.78 I109.9905 J45.1374
G3 X90.9017 Y202.075 Z-1.7947 I-11.5275 J-3.5946
G1 X12.6407 Z-1.8699
G3 X0.8489 Y187.4002 Z-1.8906 I0.0 J-12.075
G2 Y12.5998 Z-2.0597 I-396.4122 J-87.4002
G3 X12.6407 Y-2.075 Z-2.0805 I11.7918 J-2.5998
G1 X247.0 Z-2.3054
G3 X252.075 Y3.0 Z-2.3131 I0.0 J5.075
G1 Y82.4 Z-2.3893
G3 X245.0008 Y89.475 Z-2.4 I-7.075 J0.0
G1 X245.0007 Y89.225
G2 X233.3053 Y89.8026 I0.083 J120.3721
G1 X233.3052
G2 X227.8532 Y90.4539 I12.8288 J130.547
G2 X217.3875 Y92.3576 I18.9395 J133.8384
G2 X207.7294 Y94.861 I31.6007 J141.7941
G1 X207.167 Y95.0287
G1 X206.6071 Y95.1981
G2 X202.1909 Y96.6177 I42.0305 J138.3314
G1 X201.6543 Y96.8003
G2 X197.4383 Y98.3126 I48.5784 J142.065
G3 X197.4372 Y98.313 I-0.6417 J-1.7085
G2 X189.3908 Y101.5835 I55.6714 J148.5039
G1 Y101.5834
G1 Y101.5835
G2 X174.8082 Y108.849 I67.122 J152.987
G3 X174.8078 Y108.8492 I-0.8925 J-1.5919
G2 X162.6635 Y116.3339 I84.013 J149.9104
G1 X162.0136 Y116.7747
G2 X142.6042 Y132.1601 I96.574 J141.7683
G2 X135.9331 Y138.6397 I112.504 J122.5015
G3 X135.9329 Y138.64 I-1.3077 J-1.2731
G2 X130.4069 Y144.6115 I114.0588 J111.0912
G3 X130.4064 Y144.6121 I-1.3707 J-1.2049
G2 X125.8281 Y150.063 I116.5548 J102.5451
G3 X125.8276 Y150.0636 I-1.424 J-1.1414
G2 X118.4487 Y160.092 I116.3468 J93.3371
G3 X118.4485 Y160.0923 I-1.5138 J-1.0193
G2 X113.4979 Y168.0034 I115.079 J77.5185
G3 X113.4974 Y168.0043 I-1.5787 J-0.9155
G2 X110.1455 Y174.1452 I114.5704 J66.5205
G3 X110.1449 Y174.1464 I-1.6244 J-0.8318
G2 X105.7517 Y183.6672 I112.0 J57.4549
G3 X105.7421 Y183.69 I-1.6875 J-0.695
G2 X105.6989 Y183.7952 I3.621 J1.5491
G3 X105.6893 Y183.8189 I-1.6979 J-0.6691
G2 X102.1906 Y193.5201 I110.2217 J45.2324
G3 X90.9017 Y201.825 I-11.2889 J-3.5201
G1 X12.6407
G3 X1.093 Y187.454 I0.0 J-11.825
G2 Y12.546 I-396.6563 J-87.454
G3 X12.6407 Y-1.825 I11.5477 J-2.546
G1 X247.0
G3 X251.825 Y3.0 I0.0 J4.825
G1 Y82.4
G3 X245.0007 Y89.225 I-6.825 J0.0
G1 X245.0008 Y89.475
G2 X233.3297 Y90.0514 Z-2.4112 I0.0829 J120.1221
G1 X233.3296
G2 X227.8881 Y90.7014 Z-2.4165 I12.8044 J130.2982
G2 X217.4419 Y92.6016 Z-2.4267 I18.9046 J133.5908
G1 X217.4418
G2 X207.8006 Y95.1007 Z-2.4362 I31.5464 J141.5501
G1 X207.239 Y95.2682 Z-2.4368
G1 X206.6796 Y95.4373 Z-2.4374
G2 X202.2714 Y96.8544 Z-2.4418 I41.958 J138.0921
G1 X201.735 Y97.0369 Z-2.4424
G2 X197.5262 Y98.5466 Z-2.4467 I48.4977 J141.8284
G3 X197.5249 Y98.5471 I-0.7296 J-1.9425
G2 X189.4912 Y101.8124 Z-2.455 I55.5837 J148.2698
G2 X174.9304 Y109.0671 Z-2.4706 I67.0216 J152.7581
G3 X174.93 Y109.0673 I-1.0148 J-1.8099
G2 X162.8036 Y116.541 Z-2.4843 I83.8908 J149.6923
G1 X162.1541 Y116.9815 Z-2.485
G2 X142.7733 Y132.3443 Z-2.5088 I96.4335 J141.5615
G2 X136.1123 Y138.8141 Z-2.5177 I112.3349 J122.3173
G3 X136.112 Y138.8145 I-1.4868 J-1.4474
G2 X130.5947 Y144.7766 Z-2.5255 I113.8798 J110.9168
G3 X130.5941 Y144.7772 I-1.5585 J-1.37
G2 X126.0232 Y150.2193 Z-2.5323 I116.3671 J102.38
G3 X126.0226 Y150.22 I-1.6191 J-1.2978
G2 X118.656 Y160.2317 Z-2.5443 I116.1518 J93.1806
G3 X118.6558 Y160.232 I-1.7212 J-1.1589
G2 X113.7141 Y168.1289 Z-2.5532 I114.8716 J77.3788
G3 X113.7136 Y168.1298 I-1.795 J-1.041
G2 X110.368 Y174.2591 Z-2.5599 I114.3542 J66.3949
G3 X110.3673 Y174.2605 I-1.847 J-0.9457
G2 X105.9828 Y183.7624 Z-2.57 I111.7776 J57.3408
G3 X105.9719 Y183.7884 I-1.9187 J-0.7902
G2 X105.9315 Y183.8868 Z-2.5701 I3.3912 J1.4507
G3 X105.9206 Y183.9138 I-1.9305 J-0.7608
G2 X102.4293 Y193.5946 Z-2.58 I109.9905 J45.1374
G3 X90.9017 Y202.075 Z-2.5947 I-11.5275 J-3.5946
G1 X12.6407 Z-2.6699
G3 X0.8489 Y187.4002 Z-2.6906 I0.0 J-12.075
G2 Y12.5998 Z-2.8597 I-396.4122 J-87.4002
G3 X12.6407 Y-2.075 Z-2.8805 I11.7918 J-2.5998
G1 X247.0 Z-3.1054
G3 X252.075 Y3.0 Z-3.1131 I0.0 J5.075
G1 Y82.4 Z-3.1893
G3 X245.0008 Y89.475 Z-3.2 I-7.075 J0.0
G1 X245.0007 Y89.225
G2 X233.3053 Y89.8026 I0.083 J120.3721
G1 X233.3052
G2 X227.8532 Y90.4539 I12.8288 J130.547
G2 X217.3875 Y92.3576 I18.9395 J133.8384
G2 X207.7294 Y94.861 I31.6007 J141.7941
G1 X207.167 Y95.0287
G1 X206.6071 Y95.1981
G2 X202.1909 Y96.6177 I42.0305 J138.3314
G1 X201.6543 Y96.8003
G2 X197.4383 Y98.3126 I48.5784 J142.065
G3 X197.4372 Y98.313 I-0.6417 J-1.7085
G2 X189.3908 Y101.5835 I55.6714 J148.5039
G1 Y101.5834
G1 Y101.5835
G2 X174.8082 Y108.849 I67.122 J152.987
G3 X174.8078 Y108.8492 I-0.8925 J-1.5919
G2 X162.6635 Y116.3339 I84.013 J149.9104
G1 X162.0136 Y116.7747
G2 X142.6042 Y132.1601 I96.574 J141.7683
G2 X135.9331 Y138.6397 I112.504 J122.5015
G3 X135.9329 Y138.64 I-1.3077 J-1.2731
G2 X130.4069 Y144.6115 I114.0588 J111.0912
G3 X130.4064 Y144.6121 I-1.3707 J-1.2049
G2 X125.8281 Y150.063 I116.5548 J102.5451
G3 X125.8276 Y150.0636 I-1.424 J-1.1414
G2 X118.4487 Y160.092 I116.3468 J93.3371
G3 X118.4485 Y160.0923 I-1.5138 J-1.0193
G2 X113.4979 Y168.0034 I115.079 J77.5185
G3 X113.4974 Y168.0043 I-1.5787 J-0.9155
G2 X110.1455 Y174.1452 I114.5704 J66.5205
G3 X110.1449 Y174.1464 I-1.6244 J-0.8318
G2 X105.7517 Y183.6672 I112.0 J57.4549
G3 X105.7421 Y183.69 I-1.6875 J-0.695
G2 X105.6989 Y183.7952 I3.621 J1.5491
G3 X105.6893 Y183.8189 I-1.6979 J-0.6691
G2 X102.1906 Y193.5201 I110.2217 J45.2324
G3 X90.9017 Y201.825 I-11.2889 J-3.5201
G1 X12.6407
G3 X1.093 Y187.454 I0.0 J-11.825
G2 Y12.546 I-396.6563 J-87.454
G3 X12.6407 Y-1.825 I11.5477 J-2.546
G1 X247.0
G3 X251.825 Y3.0 I0.0 J4.825
G1 Y82.4
G3 X245.0007 Y89.225 I-6.825 J0.0
G1 X245.0008 Y89.475
G2 X233.3297 Y90.0514 Z-3.2112 I0.0829 J120.1221
G1 X233.3296
G2 X227.8881 Y90.7014 Z-3.2165 I12.8044 J130.2982
G2 X217.4419 Y92.6016 Z-3.2267 I18.9046 J133.5908
G1 X217.4418
G2 X207.8006 Y95.1007 Z-3.2362 I31.5464 J141.5501
G1 X207.239 Y95.2682 Z-3.2368
G1 X206.6796 Y95.4373 Z-3.2374
G2 X202.2714 Y96.8544 Z-3.2418 I41.958 J138.0921
G1 X201.735 Y97.0369 Z-3.2424
G2 X197.5262 Y98.5466 Z-3.2467 I48.4977 J141.8284
G3 X197.5249 Y98.5471 I-0.7296 J-1.9425
G2 X189.4912 Y101.8124 Z-3.255 I55.5837 J148.2698
G2 X174.9304 Y109.0671 Z-3.2706 I67.0216 J152.7581
G3 X174.93 Y109.0673 I-1.0148 J-1.8099
G2 X162.8036 Y116.541 Z-3.2843 I83.8908 J149.6923
G1 X162.1541 Y116.9815 Z-3.285
G2 X142.7733 Y132.3443 Z-3.3088 I96.4335 J141.5615
G2 X136.1123 Y138.8141 Z-3.3177 I112.3349 J122.3173
G3 X136.112 Y138.8145 I-1.4868 J-1.4474
G2 X130.5947 Y144.7766 Z-3.3255 I113.8798 J110.9168
G3 X130.5941 Y144.7772 I-1.5585 J-1.37
G2 X126.0232 Y150.2193 Z-3.3323 I116.3671 J102.38
G3 X126.0226 Y150.22 I-1.6191 J-1.2978
G2 X118.656 Y160.2317 Z-3.3443 I116.1518 J93.1806
G3 X118.6558 Y160.232 I-1.7212 J-1.1589
G2 X113.7141 Y168.1289 Z-3.3532 I114.8716 J77.3788
G3 X113.7136 Y168.1298 I-1.795 J-1.041
G2 X110.368 Y174.2591 Z-3.3599 I114.3542 J66.3949
G3 X110.3673 Y174.2605 I-1.847 J-0.9457
G2 X105.9828 Y183.7624 Z-3.37 I111.7776 J57.3408
G3 X105.9719 Y183.7884 I-1.9187 J-0.7902
G2 X105.9315 Y183.8868 Z-3.3701 I3.3912 J1.4507
G3 X105.9206 Y183.9138 I-1.9305 J-0.7608
G2 X102.4293 Y193.5946 Z-3.38 I109.9905 J45.1374
G3 X90.9017 Y202.075 Z-3.3947 I-11.5275 J-3.5946
G1 X12.6407 Z-3.4699
G3 X0.8489 Y187.4002 Z-3.4906 I0.0 J-12.075
G2 Y12.5998 Z-3.6597 I-396.4122 J-87.4002
G3 X12.6407 Y-2.075 Z-3.6805 I11.7918 J-2.5998
G1 X247.0 Z-3.9054
G3 X252.075 Y3.0 Z-3.9131 I0.0 J5.075
G1 Y82.4 Z-3.9893
G3 X245.0008 Y89.475 Z-4.0 I-7.075 J0.0
G1 X245.0007 Y89.225
G2 X233.3053 Y89.8026 I0.083 J120.3721
G1 X233.3052
G2 X227.8532 Y90.4539 I12.8288 J130.547
G2 X217.3875 Y92.3576 I18.9395 J133.8384
G2 X207.7294 Y94.861 I31.6007 J141.7941
G1 X207.167 Y95.0287
G1 X206.6071 Y95.1981
G2 X202.1909 Y96.6177 I42.0305 J138.3314
G1 X201.6543 Y96.8003
G2 X197.4383 Y98.3126 I48.5784 J142.065
G3 X197.4372 Y98.313 I-0.6417 J-1.7085
G2 X189.3908 Y101.5835 I55.6714 J148.5039
G1 Y101.5834
G1 Y101.5835
G2 X174.8082 Y108.849 I67.122 J152.987
G3 X174.8078 Y108.8492 I-0.8925 J-1.5919
G2 X162.6635 Y116.3339 I84.013 J149.9104
G1 X162.0136 Y116.7747
G2 X142.6042 Y132.1601 I96.574 J141.7683
G2 X135.9331 Y138.6397 I112.504 J122.5015
G3 X135.9329 Y138.64 I-1.3077 J-1.2731
G2 X130.4069 Y144.6115 I114.0588 J111.0912
G3 X130.4064 Y144.6121 I-1.3707 J-1.2049
G2 X125.8281 Y150.063 I116.5548 J102.5451
G3 X125.8276 Y150.0636 I-1.424 J-1.1414
G2 X118.4487 Y160.092 I116.3468 J93.3371
G3 X118.4485 Y160.0923 I-1.5138 J-1.0193
G2 X113.4979 Y168.0034 I115.079 J77.5185
G3 X113.4974 Y168.0043 I-1.5787 J-0.9155
G2 X110.1455 Y174.1452 I114.5704 J66.5205
G3 X110.1449 Y174.1464 I-1.6244 J-0.8318
G2 X105.7517 Y183.6672 I112.0 J57.4549
G3 X105.7421 Y183.69 I-1.6875 J-0.695
G2 X105.6989 Y183.7952 I3.621 J1.5491
G3 X105.6893 Y183.8189 I-1.6979 J-0.6691
G2 X102.1906 Y193.5201 I110.2217 J45.2324
G3 X90.9017 Y201.825 I-11.2889 J-3.5201
G1 X12.6407
G3 X1.093 Y187.454 I0.0 J-11.825
G2 Y12.546 I-396.6563 J-87.454
G3 X12.6407 Y-1.825 I11.5477 J-2.546
G1 X247.0
G3 X251.825 Y3.0 I0.0 J4.825
G1 Y82.4
G3 X245.0007 Y89.225 I-6.825 J0.0
G1 X245.0008 Y89.475
G2 X233.3297 Y90.0514 Z-4.0112 I0.0829 J120.1221
G1 X233.3296
G2 X227.8881 Y90.7014 Z-4.0165 I12.8044 J130.2982
G2 X217.4419 Y92.6016 Z-4.0267 I18.9046 J133.5908
G1 X217.4418
G2 X207.8006 Y95.1007 Z-4.0362 I31.5464 J141.5501
G1 X207.239 Y95.2682 Z-4.0368
G1 X206.6796 Y95.4373 Z-4.0374
G2 X202.2714 Y96.8544 Z-4.0418 I41.958 J138.0921
G1 X201.735 Y97.0369 Z-4.0424
G2 X197.5262 Y98.5466 Z-4.0467 I48.4977 J141.8284
G3 X197.5249 Y98.5471 I-0.7296 J-1.9425
G2 X189.4912 Y101.8124 Z-4.055 I55.5837 J148.2698
G2 X174.9304 Y109.0671 Z-4.0706 I67.0216 J152.7581
G3 X174.93 Y109.0673 I-1.0148 J-1.8099
G2 X162.8036 Y116.541 Z-4.0843 I83.8908 J149.6923
G1 X162.1541 Y116.9815 Z-4.085
G2 X142.7733 Y132.3443 Z-4.1088 I96.4335 J141.5615
G2 X136.1123 Y138.8141 Z-4.1177 I112.3349 J122.3173
G3 X136.112 Y138.8145 I-1.4868 J-1.4474
G2 X130.5947 Y144.7766 Z-4.1255 I113.8798 J110.9168
G3 X130.5941 Y144.7772 I-1.5585 J-1.37
G2 X126.0232 Y150.2193 Z-4.1323 I116.3671 J102.38
G3 X126.0226 Y150.22 I-1.6191 J-1.2978
G2 X118.656 Y160.2317 Z-4.1443 I116.1518 J93.1806
G3 X118.6558 Y160.232 I-1.7212 J-1.1589
G2 X113.7141 Y168.1289 Z-4.1532 I114.8716 J77.3788
G3 X113.7136 Y168.1298 I-1.795 J-1.041
G2 X110.368 Y174.2591 Z-4.1599 I114.3542 J66.3949
G3 X110.3673 Y174.2605 I-1.847 J-0.9457
G2 X105.9828 Y183.7624 Z-4.17 I111.7776 J57.3408
G3 X105.9719 Y183.7884 I-1.9187 J-0.7902
G2 X105.9315 Y183.8868 Z-4.1701 I3.3912 J1.4507
G3 X105.9206 Y183.9138 I-1.9305 J-0.7608
G2 X102.4293 Y193.5946 Z-4.18 I109.9905 J45.1374
G3 X90.9017 Y202.075 Z-4.1947 I-11.5275 J-3.5946
G1 X57.325 Z-4.227
G1 X55.825 Z-4.0
G1 X52.175
G1 X50.675 Z-4.2333
G1 X12.6407 Z-4.2699
G3 X0.8489 Y187.4002 Z-4.2906 I0.0 J-12.075
G2 Y12.5998 Z-4.4597 I-396.4122 J-87.4002
G3 X12.6407 Y-2.075 Z-4.4805 I11.7918 J-2.5998
G1 X27.675 Z-4.4949
G1 X29.175 Z-4.0
G1 X32.825
G1 X34.325 Z-4.5013
G1 X247.0 Z-4.7054
G3 X252.075 Y3.0 Z-4.7131 I0.0 J5.075
G1 Y42.675 Z-4.7512
G1 Y44.175 Z-4.0
G1 Y47.825
G1 Y49.325 Z-4.7576
G1 Y82.4 Z-4.7893
G3 X245.0008 Y89.475 Z-4.8 I-7.075 J0.0
G1 X245.0007 Y89.225
G2 X233.3053 Y89.8026 I0.083 J120.3721
G1 X233.3052
G2 X227.8532 Y90.4539 I12.8288 J130.547
G2 X217.3875 Y92.3576 I18.9395 J133.8384
G2 X207.7294 Y94.861 I31.6007 J141.7941
G1 X207.167 Y95.0287
G1 X206.6071 Y95.1981
G2 X202.1909 Y96.6177 I42.0305 J138.3314
G1 X201.6543 Y96.8003
G2 X197.4383 Y98.3126 I48.5784 J142.065
G3 X197.4372 Y98.313 I-0.6417 J-1.7085
G2 X189.3908 Y101.5835 I55.6714 J148.5039
G1 Y101.5834
G1 Y101.5835
G2 X174.8082 Y108.849 I67.122 J152.987
G3 X174.8078 Y108.8492 I-0.8925 J-1.5919
G2 X162.6635 Y116.3339 I84.013 J149.9104
G1 X162.0136 Y116.7747
G2 X142.6042 Y132.1601 I96.574 J141.7683
G2 X135.9331 Y138.6397 I112.504 J122.5015
G3 X135.9329 Y138.64 I-1.3077 J-1.2731
G2 X130.4069 Y144.6115 I114.0588 J111.0912
G3 X130.4064 Y144.6121 I-1.3707 J-1.2049
G2 X125.8281 Y150.063 I116.5548 J102.5451
G3 X125.8276 Y150.0636 I-1.424 J-1.1414
G2 X118.4487 Y160.092 I116.3468 J93.3371
G3 X118.4485 Y160.0923 I-1.5138 J-1.0193
G2 X113.4979 Y168.0034 I115.079 J77.5185
G3 X113.4974 Y168.0043 I-1.5787 J-0.9155
G2 X110.1455 Y174.1452 I114.5704 J66.5205
G3 X110.1449 Y174.1464 I-1.6244 J-0.8318
G2 X105.7517 Y183.6672 I112.0 J57.4549
G3 X105.7421 Y183.69 I-1.6875 J-0.695
G2 X105.6989 Y183.7952 I3.621 J1.5491
G3 X105.6893 Y183.8189 I-1.6979 J-0.6691
G2 X102.1906 Y193.5201 I110.2217 J45.2324
G3 X90.9017 Y201.825 I-11.2889 J-3.5201
G1 X57.325
G1 X55.825 Z-4.0
G1 X52.175
G1 X50.675 Z-4.8
G1 X12.6407
G3 X1.093 Y187.454 I0.0 J-11.825
G2 Y12.546 I-396.6563 J-87.454
G3 X12.6407 Y-1.825 I11.5477 J-2.546
G1 X27.675
G1 X29.175 Z-4.0
G1 X32.825
G1 X34.325 Z-4.8
G1 X247.0
G3 X251.825 Y3.0 I0.0 J4.825
G1 Y42.675
G1 Y44.175 Z-4.0
G1 Y47.825
G1 Y49.325 Z-4.8
G1 Y82.4
G3 X245.0007 Y89.225 I-6.825 J0.0
G1 X245.0008 Y89.475
G2 X233.3297 Y90.0514 Z-4.8112 I0.0829 J120.1221
G1 X233.3296
G2 X227.8881 Y90.7014 Z-4.8165 I12.8044 J130.2982
G2 X217.4419 Y92.6016 Z-4.8267 I18.9046 J133.5908
G1 X217.4418
G2 X207.8006 Y95.1007 Z-4.8362 I31.5464 J141.5501
G1 X207.239 Y95.2682 Z-4.8368
G1 X206.6796 Y95.4373 Z-4.8374
G2 X202.2714 Y96.8544 Z-4.8418 I41.958 J138.0921
G1 X201.735 Y97.0369 Z-4.8424
G2 X197.5262 Y98.5466 Z-4.8467 I48.4977 J141.8284
G3 X197.5249 Y98.5471 I-0.7296 J-1.9425
G2 X189.4912 Y101.8124 Z-4.855 I55.5837 J148.2698
G2 X174.9304 Y109.0671 Z-4.8706 I67.0216 J152.7581
G3 X174.93 Y109.0673 I-1.0148 J-1.8099
G2 X162.8036 Y116.541 Z-4.8843 I83.8908 J149.6923
G1 X162.1541 Y116.9815 Z-4.885
G2 X142.7733 Y132.3443 Z-4.9088 I96.4335 J141.5615
G2 X136.1123 Y138.8141 Z-4.9177 I112.3349 J122.3173
G3 X136.112 Y138.8145 I-1.4868 J-1.4474
G2 X130.5947 Y144.7766 Z-4.9255 I113.8798 J110.9168
G3 X130.5941 Y144.7772 I-1.5585 J-1.37
G2 X126.0232 Y150.2193 Z-4.9323 I116.3671 J102.38
G3 X126.0226 Y150.22 I-1.6191 J-1.2978
G2 X118.656 Y160.2317 Z-4.9443 I116.1518 J93.1806
G3 X118.6558 Y160.232 I-1.7212 J-1.1589
G2 X113.7141 Y168.1289 Z-4.9532 I114.8716 J77.3788
G3 X113.7136 Y168.1298 I-1.795 J-1.041
G2 X110.368 Y174.2591 Z-4.9599 I114.3542 J66.3949
G3 X110.3673 Y174.2605 I-1.847 J-0.9457
G2 X105.9828 Y183.7624 Z-4.97 I111.7776 J57.3408
G3 X105.9719 Y183.7884 I-1.9187 J-0.7902
G2 X105.9315 Y183.8868 Z-4.9701 I3.3912 J1.4507
G3 X105.9206 Y183.9138 I-1.9305 J-0.7608
G2 X102.4293 Y193.5946 Z-4.98 I109.9905 J45.1374
G3 X90.9017 Y202.075 Z-4.9947 I-11.5275 J-3.5946
G1 X57.325 Z-5.027
G1 X55.825 Z-4.0
G1 X52.175
G1 X50.675 Z-5.0333
G1 X12.6407 Z-5.0699
G3 X0.8489 Y187.4002 Z-5.0906 I0.0 J-12.075
G2 Y12.5998 Z-5.2597 I-396.4122 J-87.4002
G3 X12.6407 Y-2.075 Z-5.2805 I11.7918 J-2.5998
G1 X27.675 Z-5.2949
G1 X29.175 Z-4.0
G1 X32.825
G1 X34.325 Z-5.3013
G1 X247.0 Z-5.5054
G3 X252.075 Y3.0 Z-5.5131 I0.0 J5.075
G1 Y42.675 Z-5.5512
G1 Y44.175 Z-4.0
G1 Y47.825
G1 Y49.325 Z-5.5576
G1 Y82.4 Z-5.5893
G3 X245.0008 Y89.475 Z-5.6 I-7.075 J0.0
G1 X245.0007 Y89.225
G2 X233.3053 Y89.8026 I0.083 J120.3721
G1 X233.3052
G2 X227.8532 Y90.4539 I12.8288 J130.547
G2 X217.3875 Y92.3576 I18.9395 J133.8384
G2 X207.7294 Y94.861 I31.6007 J141.7941
G1 X207.167 Y95.0287
G1 X206.6071 Y95.1981
G2 X202.1909 Y96.6177 I42.0305 J138.3314
G1 X201.6543 Y96.8003
G2 X197.4383 Y98.3126 I48.5784 J142.065
G3 X197.4372 Y98.313 I-0.6417 J-1.7085
G2 X189.3908 Y101.5835 I55.6714 J148.5039
G1 Y101.5834
G1 Y101.5835
G2 X174.8082 Y108.849 I67.122 J152.987
G3 X174.8078 Y108.8492 I-0.8925 J-1.5919
G2 X162.6635 Y116.3339 I84.013 J149.9104
G1 X162.0136 Y116.7747
G2 X142.6042 Y132.1601 I96.574 J141.7683
G2 X135.9331 Y138.6397 I112.504 J122.5015
G3 X135.9329 Y138.64 I-1.3077 J-1.2731
G2 X130.4069 Y144.6115 I114.0588 J111.0912
G3 X130.4064 Y144.6121 I-1.3707 J-1.2049
G2 X125.8281 Y150.063 I116.5548 J102.5451
G3 X125.8276 Y150.0636 I-1.424 J-1.1414
G2 X118.4487 Y160.092 I116.3468 J93.3371
G3 X118.4485 Y160.0923 I-1.5138 J-1.0193
G2 X113.4979 Y168.0034 I115.079 J77.5185
G3 X113.4974 Y168.0043 I-1.5787 J-0.9155
G2 X110.1455 Y174.1452 I114.5704 J66.5205
G3 X110.1449 Y174.1464 I-1.6244 J-0.8318
G2 X105.7517 Y183.6672 I112.0 J57.4549
G3 X105.7421 Y183.69 I-1.6875 J-0.695
G2 X105.6989 Y183.7952 I3.621 J1.5491
G3 X105.6893 Y183.8189 I-1.6979 J-0.6691
G2 X102.1906 Y193.5201 I110.2217 J45.2324
G3 X90.9017 Y201.825 I-11.2889 J-3.5201
G1 X57.325
G1 X55.825 Z-4.0
G1 X52.175
G1 X50.675 Z-5.6
G1 X12.6407
G3 X1.093 Y187.454 I0.0 J-11.825
G2 Y12.546 I-396.6563 J-87.454
G3 X12.6407 Y-1.825 I11.5477 J-2.546
G1 X27.675
G1 X29.175 Z-4.0
G1 X32.825
G1 X34.325 Z-5.6
G1 X247.0
G3 X251.825 Y3.0 I0.0 J4.825
G1 Y42.675
G1 Y44.175 Z-4.0
G1 Y47.825
G1 Y49.325 Z-5.6
G1 Y82.4
G3 X245.0007 Y89.225 I-6.825 J0.0
G1 X245.0008 Y89.475
G2 X233.3297 Y90.0514 Z-5.6112 I0.0829 J120.1221
G1 X233.3296
G2 X227.8881 Y90.7014 Z-5.6165 I12.8044 J130.2982
G2 X217.4419 Y92.6016 Z-5.6267 I18.9046 J133.5908
G1 X217.4418
G2 X207.8006 Y95.1007 Z-5.6362 I31.5464 J141.5501
G1 X207.239 Y95.2682 Z-5.6368
G1 X206.6796 Y95.4373 Z-5.6374
G2 X202.2714 Y96.8544 Z-5.6418 I41.958 J138.0921
G1 X201.735 Y97.0369 Z-5.6424
G2 X197.5262 Y98.5466 Z-5.6467 I48.4977 J141.8284
G3 X197.5249 Y98.5471 I-0.7296 J-1.9425
G2 X189.4912 Y101.8124 Z-5.655 I55.5837 J148.2698
G2 X174.9304 Y109.0671 Z-5.6706 I67.0216 J152.7581
G3 X174.93 Y109.0673 I-1.0148 J-1.8099
G2 X162.8036 Y116.541 Z-5.6843 I83.8908 J149.6923
G1 X162.1541 Y116.9815 Z-5.685
G2 X142.7733 Y132.3443 Z-5.7088 I96.4335 J141.5615
G2 X136.1123 Y138.8141 Z-5.7177 I112.3349 J122.3173
G3 X136.112 Y138.8145 I-1.4868 J-1.4474
G2 X130.5947 Y144.7766 Z-5.7255 I113.8798 J110.9168
G3 X130.5941 Y144.7772 I-1.5585 J-1.37
G2 X126.0232 Y150.2193 Z-5.7323 I116.3671 J102.38
G3 X126.0226 Y150.22 I-1.6191 J-1.2978
G2 X118.656 Y160.2317 Z-5.7443 I116.1518 J93.1806
G3 X118.6558 Y160.232 I-1.7212 J-1.1589
G2 X113.7141 Y168.1289 Z-5.7532 I114.8716 J77.3788
G3 X113.7136 Y168.1298 I-1.795 J-1.041
G2 X110.368 Y174.2591 Z-5.7599 I114.3542 J66.3949
G3 X110.3673 Y174.2605 I-1.847 J-0.9457
G2 X105.9828 Y183.7624 Z-5.77 I111.7776 J57.3408
G3 X105.9719 Y183.7884 I-1.9187 J-0.7902
G2 X105.9315 Y183.8868 Z-5.7701 I3.3912 J1.4507
G3 X105.9206 Y183.9138 I-1.9305 J-0.7608
G2 X102.4293 Y193.5946 Z-5.78 I109.9905 J45.1374
G3 X90.9017 Y202.075 Z-5.7947 I-11.5275 J-3.5946
G1 X57.325 Z-5.827
G1 X55.825 Z-4.0
G1 X52.175
G1 X50.675 Z-5.8333
G1 X12.6407 Z-5.8699
G3 X0.8489 Y187.4002 Z-5.8906 I0.0 J-12.075
G2 Y12.5998 Z-6.0597 I-396.4122 J-87.4002
G3 X12.6407 Y-2.075 Z-6.0805 I11.7918 J-2.5998
G1 X27.675 Z-6.0949
G1 X29.175 Z-4.0
G1 X32.825
G1 X34.325 Z-6.1013
G1 X247.0 Z-6.3054
G3 X252.075 Y3.0 Z-6.3131 I0.0 J5.075
G1 Y42.675 Z-6.3512
G1 Y44.175 Z-4.0
G1 Y47.825
G1 Y49.325 Z-6.3576
G1 Y82.4 Z-6.3893
G3 X245.0008 Y89.475 Z-6.4 I-7.075 J0.0
G1 X245.0007 Y89.225
G2 X233.3053 Y89.8026 I0.083 J120.3721
G1 X233.3052
G2 X227.8532 Y90.4539 I12.8288 J130.547
G2 X217.3875 Y92.3576 I18.9395 J133.8384
G2 X207.7294 Y94.861 I31.6007 J141.7941
G1 X207.167 Y95.0287
G1 X206.6071 Y95.1981
G2 X202.1909 Y96.6177 I42.0305 J138.3314
G1 X201.6543 Y96.8003
G2 X197.4383 Y98.3126 I48.5784 J142.065
G3 X197.4372 Y98.313 I-0.6417 J-1.7085
G2 X189.3908 Y101.5835 I55.6714 J148.5039
G1 Y101.5834
G1 Y101.5835
G2 X174.8082 Y108.849 I67.122 J152.987
G3 X174.8078 Y108.8492 I-0.8925 J-1.5919
G2 X162.6635 Y116.3339 I84.013 J149.9104
G1 X162.0136 Y116.7747
G2 X142.6042 Y132.1601 I96.574 J141.7683
G2 X135.9331 Y138.6397 I112.504 J122.5015
G3 X135.9329 Y138.64 I-1.3077 J-1.2731
G2 X130.4069 Y144.6115 I114.0588 J111.0912
G3 X130.4064 Y144.6121 I-1.3707 J-1.2049
G2 X125.8281 Y150.063 I116.5548 J102.5451
G3 X125.8276 Y150.0636 I-1.424 J-1.1414
G2 X118.4487 Y160.092 I116.3468 J93.3371
G3 X118.4485 Y160.0923 I-1.5138 J-1.0193
G2 X113.4979 Y168.0034 I115.079 J77.5185
G3 X113.4974 Y168.0043 I-1.5787 J-0.9155
G2 X110.1455 Y174.1452 I114.5704 J66.5205
G3 X110.1449 Y174.1464 I-1.6244 J-0.8318
G2 X105.7517 Y183.6672 I112.0 J57.4549
G3 X105.7421 Y183.69 I-1.6875 J-0.695
G2 X105.6989 Y183.7952 I3.621 J1.5491
G3 X105.6893 Y183.8189 I-1.6979 J-0.6691
G2 X102.1906 Y193.5201 I110.2217 J45.2324
G3 X90.9017 Y201.825 I-11.2889 J-3.5201
G1 X57.325
G1 X55.825 Z-4.0
G1 X52.175
G1 X50.675 Z-6.4
G1 X12.6407
G3 X1.093 Y187.454 I0.0 J-11.825
G2 Y12.546 I-396.6563 J-87.454
G3 X12.6407 Y-1.825 I11.5477 J-2.546
G1 X27.675
G1 X29.175 Z-4.0
G1 X32.825
G1 X34.325 Z-6.4
G1 X247.0
G3 X251.825 Y3.0 I0.0 J4.825
G1 Y42.675
G1 Y44.175 Z-4.0
G1 Y47.825
G1 Y49.325 Z-6.4
G1 Y82.4
G3 X245.0007 Y89.225 I-6.825 J0.0
G1 X245.0008 Y89.475
G2 X233.3297 Y90.0514 Z-6.4084 I0.0829 J120.1221
G1 X233.3296
G2 X227.8881 Y90.7014 Z-6.4124 I12.8044 J130.2982
G2 X217.4419 Y92.6016 Z-6.42 I18.9046 J133.5908
G1 X217.4418
G2 X207.8006 Y95.1007 Z-6.4272 I31.5464 J141.5501
G1 X207.239 Y95.2682 Z-6.4276
G1 X206.6796 Y95.4373 Z-6.428
G2 X202.2714 Y96.8544 Z-6.4314 I41.958 J138.0921
G1 X201.735 Y97.0369 Z-6.4318
G2 X197.5262 Y98.5466 Z-6.435 I48.4977 J141.8284
G3 X197.5249 Y98.5471 I-0.7296 J-1.9425
G2 X189.4912 Y101.8124 Z-6.4412 I55.5837 J148.2698
G2 X174.9304 Y109.0671 Z-6.453 I67.0216 J152.7581
G3 X174.93 Y109.0673 I-1.0148 J-1.8099
G2 X162.8036 Y116.541 Z-6.4632 I83.8908 J149.6923
G1 X162.1541 Y116.9815 Z-6.4638
G2 X142.7733 Y132.3443 Z-6.4816 I96.4335 J141.5615
G2 X136.1123 Y138.8141 Z-6.4883 I112.3349 J122.3173
G3 X136.112 Y138.8145 I-1.4868 J-1.4474
G2 X130.5947 Y144.7766 Z-6.4941 I113.8798 J110.9168
G3 X130.5941 Y144.7772 I-1.5585 J-1.37
G2 X126.0232 Y150.2193 Z-6.4993 I116.3671 J102.38
G3 X126.0226 Y150.22 I-1.6191 J-1.2978
G2 X118.656 Y160.2317 Z-6.5082 I116.1518 J93.1806
G3 X118.6558 Y160.232 I-1.7212 J-1.1589
G2 X113.7141 Y168.1289 Z-6.5149 I114.8716 J77.3788
G3 X113.7136 Y168.1298 I-1.795 J-1.041
G2 X110.368 Y174.2591 Z-6.5199 I114.3542 J66.3949
G3 X110.3673 Y174.2605 I-1.847 J-0.9457
G2 X105.9828 Y183.7624 Z-6.5275 I111.7776 J57.3408
G3 X105.9719 Y183.7884 I-1.9187 J-0.7902
G2 X105.9315 Y183.8868 Z-6.5276 I3.3912 J1.4507
G3 X105.9206 Y183.9138 I-1.9305 J-0.7608
G2 X102.4293 Y193.5946 Z-6.535 I109.9905 J45.1374
G3 X90.9017 Y202.075 Z-6.546 I-11.5275 J-3.5946
G1 X57.325 Z-6.5702
G1 X55.825 Z-4.0
G1 X52.175
G1 X50.675 Z-6.575
G1 X12.6407 Z-6.6024
G3 X0.8489 Y187.4002 Z-6.6179 I0.0 J-12.075
G2 Y12.5998 Z-6.7448 I-396.4122 J-87.4002
G3 X12.6407 Y-2.075 Z-6.7603 I11.7918 J-2.5998
G1 X27.675 Z-6.7712
G1 X29.175 Z-4.0
G1 X32.825
G1 X34.325 Z-6.776
G1 X247.0 Z-6.9291
G3 X252.075 Y3.0 Z-6.9348 I0.0 J5.075
G1 Y42.675 Z-6.9634
G1 Y44.175 Z-4.0
G1 Y47.825
G1 Y49.325 Z-6.9682
G1 Y82.4 Z-6.992
G3 X245.0008 Y89.475 Z-7.0 I-7.075 J0.0
G2 X233.3297 Y90.0514 I0.0829 J120.1221
G1 X233.3296
G2 X227.8881 Y90.7014 I12.8044 J130.2982
G2 X217.4419 Y92.6016 I18.9046 J133.5908
G1 X217.4418
G2 X207.8006 Y95.1007 I31.5464 J141.5501
G1 X207.239 Y95.2682
G1 X206.6796 Y95.4373
G2 X202.2714 Y96.8544 I41.958 J138.0921
G1 X201.735 Y97.0369
G2 X197.5262 Y98.5466 I48.4977 J141.8284
G3 X197.5249 Y98.5471 I-0.7296 J-1.9425
G2 X189.4912 Y101.8124 I55.5837 J148.2698
G2 X174.9304 Y109.0671 I67.0216 J152.7581
G3 X174.93 Y109.0673 I-1.0148 J-1.8099
G2 X162.8036 Y116.541 I83.8908 J149.6923
G1 X162.1541 Y116.9815
G2 X142.7733 Y132.3443 I96.4335 J141.5615
G2 X136.1123 Y138.8141 I112.3349 J122.3173
G3 X136.112 Y138.8145 I-1.4868 J-1.4474
G2 X130.5947 Y144.7766 I113.8798 J110.9168
G3 X130.5941 Y144.7772 I-1.5585 J-1.37
G2 X126.0232 Y150.2193 I116.3671 J102.38
G3 X126.0226 Y150.22 I-1.6191 J-1.2978
G2 X118.656 Y160.2317 I116.1518 J93.1806
G3 X118.6558 Y160.232 I-1.7212 J-1.1589
G2 X113.7141 Y168.1289 I114.8716 J77.3788
G3 X113.7136 Y168.1298 I-1.795 J-1.041
G2 X110.368 Y174.2591 I114.3542 J66.3949
G3 X110.3673 Y174.2605 I-1.847 J-0.9457
G2 X105.9828 Y183.7624 I111.7776 J57.3408
G3 X105.9719 Y183.7884 I-1.9187 J-0.7902
G2 X105.9315 Y183.8868 I3.3912 J1.4507
G3 X105.9206 Y183.9138 I-1.9305 J-0.7608
G2 X102.4293 Y193.5946 I109.9905 J45.1374
G3 X90.9017 Y202.075 I-11.5275 J-3.5946
G1 X57.325
G1 X55.825 Z-4.0
G1 X52.175
G1 X50.675 Z-7.0
G1 X12.6407
G3 X0.8489 Y187.4002 I0.0 J-12.075
G2 Y12.5998 I-396.4122 J-87.4002
G3 X12.6407 Y-2.075 I11.7918 J-2.5998
G1 X27.675
G1 X29.175 Z-4.0
G1 X32.825
G1 X34.325 Z-7.0
G1 X247.0
G3 X252.075 Y3.0 I0.0 J5.075
G1 Y42.675
G1 Y44.175 Z-4.0
G1 Y47.825
G1 Y49.325 Z-7.0
G1 Y82.4
G3 X245.0008 Y89.475 I-7.075 J0.0
G1 X245.0007 Y89.225
G2 X233.3053 Y89.8026 I0.083 J120.3721
G1 X233.3052
G2 X227.8532 Y90.4539 I12.8288 J130.547
G2 X217.3875 Y92.3576 I18.9395 J133.8384
G2 X207.7294 Y94.861 I31.6007 J141.7941
G1 X207.167 Y95.0287
G1 X206.6071 Y95.1981
G2 X202.1909 Y96.6177 I42.0305 J138.3314
G1 X201.6543 Y96.8003
G2 X197.4383 Y98.3126 I48.5784 J142.065
G3 X197.4372 Y98.313 I-0.6417 J-1.7085
G2 X189.3908 Y101.5835 I55.6714 J148.5039
G1 Y101.5834
G1 Y101.5835
G2 X174.8082 Y108.849 I67.122 J152.987
G3 X174.8078 Y108.8492 I-0.8925 J-1.5919
G2 X162.6635 Y116.3339 I84.013 J149.9104
G1 X162.0136 Y116.7747
G2 X142.6042 Y132.1601 I96.574 J141.7683
G2 X135.9331 Y138.6397 I112.504 J122.5015
G3 X135.9329 Y138.64 I-1.3077 J-1.2731
G2 X130.4069 Y144.6115 I114.0588 J111.0912
G3 X130.4064 Y144.6121 I-1.3707 J-1.2049
G2 X125.8281 Y150.063 I116.5548 J102.5451
G3 X125.8276 Y150.0636 I-1.424 J-1.1414
G2 X118.4487 Y160.092 I116.3468 J93.3371
G3 X118.4485 Y160.0923 I-1.5138 J-1.0193
G2 X113.4979 Y168.0034 I115.079 J77.5185
G3 X113.4974 Y168.0043 I-1.5787 J-0.9155
G2 X110.1455 Y174.1452 I114.5704 J66.5205
G3 X110.1449 Y174.1464 I-1.6244 J-0.8318
G2 X105.7517 Y183.6672 I112.0 J57.4549
G3 X105.7421 Y183.69 I-1.6875 J-0.695
G2 X105.6989 Y183.7952 I3.621 J1.5491
G3 X105.6893 Y183.8189 I-1.6979 J-0.6691
G2 X102.1906 Y193.5201 I110.2217 J45.2324
G3 X90.9017 Y201.825 I-11.2889 J-3.5201
G1 X57.325
G1 X55.825 Z-4.0
G1 X52.175
G1 X50.675 Z-7.0
G1 X12.6407
G3 X1.093 Y187.454 I0.0 J-11.825
G2 Y12.546 I-396.6563 J-87.454
G3 X12.6407 Y-1.825 I11.5477 J-2.546
G1 X27.675
G1 X29.175 Z-4.0
G1 X32.825
G1 X34.325 Z-7.0
G1 X247.0
G3 X251.825 Y3.0 I0.0 J4.825
G1 Y42.675
G1 Y44.175 Z-4.0
G1 Y47.825
G1 Y49.325 Z-7.0
G1 Y82.4
G3 X245.0007 Y89.225 I-6.825 J0.0
G0 Z2.0
M5
M30
