( Made using CamBam - http://www.cambam.co.uk )
( Part_Save_RH OX-c side gantry TALL (Anti Backlash) 8/2/2015 9:34:41 PM )
( T0 : 3.65 )
G21 G90 G64 G40
G0 Z3.0
( T0 : 3.65 )
T0 M6
( Outside Profile )
G17
M3 S1000
G0 X4.9992 Y89.625
G0 Z1.0
G1 F10.0 Z0.0
G3 F750.0 X-2.225 Y82.4 Z-0.0054 I0.0008 J-7.225
G1 Y3.0 Z-0.0435
G3 X3.0 Y-2.225 Z-0.0474 I5.225 J0.0
G1 X237.3593 Z-0.1598
G3 X249.2976 Y12.6321 Z-0.1703 I0.0 J12.225
G2 Y187.3679 Z-0.2547 I396.2657 J87.3679
G3 X237.3593 Y202.225 Z-0.2652 I-11.9383 J2.6321
G1 X159.0983 Z-0.3027
G3 X147.4275 Y193.6393 Z-0.3102 I0.0 J-12.225
G2 X143.9406 Y183.9708 Z-0.3151 I-113.3386 J35.412
G3 X143.929 Y183.9418 I2.0584 J-0.8447
G2 X143.8902 Y183.8474 Z-0.3152 I-3.2921 J1.2973
G3 X143.8785 Y183.8195 I2.0457 J-0.8751
G2 X139.4992 Y174.329 Z-0.3202 I-116.0234 J47.7819
G3 X139.4984 Y174.3275 I1.9797 J-1.0156
G2 X136.1567 Y168.2051 Z-0.3235 I-117.5662 J60.1972
G3 X136.1561 Y168.2041 I1.9242 J-1.1172
G2 X131.2198 Y160.3158 Z-0.328 I-119.6836 J69.4067
G3 X131.2195 Y160.3154 I1.8454 J-1.2431
G2 X123.8604 Y150.3139 Z-0.334 I-123.394 J83.0852
G3 X123.8598 Y150.3131 I1.7355 J-1.3923
G2 X119.2933 Y144.8763 Z-0.3374 I-120.821 J96.8441
G3 X119.2927 Y144.8756 I1.6705 J-1.4697
G2 X113.7806 Y138.9191 Z-0.3413 I-119.2844 J104.8556
G3 X113.7802 Y138.9188 I1.5939 J-1.5524
G2 X107.1253 Y132.4548 Z-0.3457 I-118.8884 J115.7428
G2 X87.7616 Y117.1056 Z-0.3576 I-115.7129 J126.0883
G1 X87.1123 Y116.6652 Z-0.3579
G2 X74.9966 Y109.1981 Z-0.3648 I-95.9332 J142.0944
G3 X74.9962 Y109.1979 I1.0878 J-1.941
G2 X60.4485 Y101.9497 Z-0.3726 I-81.509 J145.3725
G1 Y101.9498
G1 Y101.9497
G2 X52.4224 Y98.6876 Z-0.3767 I-63.5571 J144.8672
G3 X52.4211 Y98.687 I0.781 J-2.0834
G2 X48.2165 Y97.1789 Z-0.3789 I-52.6538 J140.1783
G1 X47.6804 Y96.9964 Z-0.3791
G2 X43.2769 Y95.5809 Z-0.3814 I-46.318 J136.5331
G1 X42.7179 Y95.4118 Z-0.3816
G1 X42.1566 Y95.2445 Z-0.3819
G2 X32.5255 Y92.748 Z-0.3867 I-41.1448 J138.9073
G2 X22.0909 Y90.8499 Z-0.3918 I-29.3182 J131.5442
G2 X16.6557 Y90.2007 Z-0.3944 I-18.2249 J129.4997
G1 X16.6556
G2 X4.9992 Y89.625 Z-0.4 I-11.7393 J119.3964
G1 Y89.225
G3 X-1.825 Y82.4 I0.0008 J-6.825
G1 Y3.0
G3 X3.0 Y-1.825 I4.825 J0.0
G1 X237.3593
G3 X248.907 Y12.546 I0.0 J11.825
G2 Y187.454 I396.6563 J87.454
G3 X237.3593 Y201.825 I-11.5477 J2.546
G1 X159.0983
G3 X147.8094 Y193.5201 I0.0 J-11.825
G2 X144.3107 Y183.8189 I-113.7204 J35.5311
G3 X144.3011 Y183.7952 I1.6884 J-0.6929
G2 X144.2579 Y183.69 I-3.6642 J1.4439
G3 X144.2483 Y183.6672 I1.6779 J-0.7178
G2 X139.8551 Y174.1464 I-116.3933 J47.9342
G3 X139.8545 Y174.1452 I1.6238 J-0.833
G2 X136.5026 Y168.0043 I-117.9223 J60.3795
G3 X136.5021 Y168.0034 I1.5783 J-0.9164
G2 X131.5515 Y160.0923 I-120.0296 J69.6074
G3 X131.5513 Y160.092 I1.5136 J-1.0196
G2 X124.1724 Y150.0636 I-123.7258 J83.3086
G3 X124.1719 Y150.063 I1.4235 J-1.142
G2 X119.5936 Y144.6121 I-121.1331 J97.0943
G3 X119.5931 Y144.6115 I1.3702 J-1.2055
G2 X114.0671 Y138.64 I-119.5848 J105.1197
G3 X114.0669 Y138.6397 I1.3074 J-1.2734
G2 X107.3958 Y132.1601 I-119.1751 J116.0219
G2 X87.9864 Y116.7747 I-115.9834 J126.3829
G1 X87.3365 Y116.3339
G2 X75.1922 Y108.8492 I-96.1574 J142.4256
G3 X75.1918 Y108.849 I0.8922 J-1.592
G2 X60.6092 Y101.5835 I-81.7047 J145.7214
G1 Y101.5834
G1 Y101.5835
G2 X52.5628 Y98.313 I-63.7178 J145.2335
G3 X52.5617 Y98.3126 I0.6406 J-1.7089
G2 X48.3457 Y96.8003 I-52.7945 J140.5527
G1 X47.8091 Y96.6177
G2 X43.3929 Y95.1981 I-46.4467 J136.9118
G1 X42.833 Y95.0287
G1 X42.2706 Y94.861
G2 X32.6125 Y92.3576 I-41.2588 J139.2907
G2 X22.1468 Y90.4539 I-29.4052 J131.9346
G2 X16.6948 Y89.8026 I-18.2808 J129.8958
G1 X16.6947
G2 X4.9993 Y89.225 I-11.7784 J119.7945
G1 X4.9992
G1 Y89.625
G3 X-2.225 Y82.4 Z-0.4054 I0.0008 J-7.225
G1 Y3.0 Z-0.4435
G3 X3.0 Y-2.225 Z-0.4474 I5.225 J0.0
G1 X237.3593 Z-0.5598
G3 X249.2976 Y12.6321 Z-0.5703 I0.0 J12.225
G2 Y187.3679 Z-0.6547 I396.2657 J87.3679
G3 X237.3593 Y202.225 Z-0.6652 I-11.9383 J2.6321
G1 X159.0983 Z-0.7027
G3 X147.4275 Y193.6393 Z-0.7102 I0.0 J-12.225
G2 X143.9406 Y183.9708 Z-0.7151 I-113.3386 J35.412
G3 X143.929 Y183.9418 I2.0584 J-0.8447
G2 X143.8902 Y183.8474 Z-0.7152 I-3.2921 J1.2973
G3 X143.8785 Y183.8195 I2.0457 J-0.8751
G2 X139.4992 Y174.329 Z-0.7202 I-116.0234 J47.7819
G3 X139.4984 Y174.3275 I1.9797 J-1.0156
G2 X136.1567 Y168.2051 Z-0.7235 I-117.5662 J60.1972
G3 X136.1561 Y168.2041 I1.9242 J-1.1172
G2 X131.2198 Y160.3158 Z-0.728 I-119.6836 J69.4067
G3 X131.2195 Y160.3154 I1.8454 J-1.2431
G2 X123.8604 Y150.3139 Z-0.734 I-123.394 J83.0852
G3 X123.8598 Y150.3131 I1.7355 J-1.3923
G2 X119.2933 Y144.8763 Z-0.7374 I-120.821 J96.8441
G3 X119.2927 Y144.8756 I1.6705 J-1.4697
G2 X113.7806 Y138.9191 Z-0.7413 I-119.2844 J104.8556
G3 X113.7802 Y138.9188 I1.5939 J-1.5524
G2 X107.1253 Y132.4548 Z-0.7457 I-118.8884 J115.7428
G2 X87.7616 Y117.1056 Z-0.7576 I-115.7129 J126.0883
G1 X87.1123 Y116.6652 Z-0.7579
G2 X74.9966 Y109.1981 Z-0.7648 I-95.9332 J142.0944
G3 X74.9962 Y109.1979 I1.0878 J-1.941
G2 X60.4485 Y101.9497 Z-0.7726 I-81.509 J145.3725
G1 Y101.9498
G1 Y101.9497
G2 X52.4224 Y98.6876 Z-0.7767 I-63.5571 J144.8672
G3 X52.4211 Y98.687 I0.781 J-2.0834
G2 X48.2165 Y97.1789 Z-0.7789 I-52.6538 J140.1783
G1 X47.6804 Y96.9964 Z-0.7791
G2 X43.2769 Y95.5809 Z-0.7814 I-46.318 J136.5331
G1 X42.7179 Y95.4118 Z-0.7816
G1 X42.1566 Y95.2445 Z-0.7819
G2 X32.5255 Y92.748 Z-0.7867 I-41.1448 J138.9073
G2 X22.0909 Y90.8499 Z-0.7918 I-29.3182 J131.5442
G2 X16.6557 Y90.2007 Z-0.7944 I-18.2249 J129.4997
G1 X16.6556
G2 X4.9992 Y89.625 Z-0.8 I-11.7393 J119.3964
G1 Y89.225
G3 X-1.825 Y82.4 I0.0008 J-6.825
G1 Y3.0
G3 X3.0 Y-1.825 I4.825 J0.0
G1 X237.3593
G3 X248.907 Y12.546 I0.0 J11.825
G2 Y187.454 I396.6563 J87.454
G3 X237.3593 Y201.825 I-11.5477 J2.546
G1 X159.0983
G3 X147.8094 Y193.5201 I0.0 J-11.825
G2 X144.3107 Y183.8189 I-113.7204 J35.5311
G3 X144.3011 Y183.7952 I1.6884 J-0.6929
G2 X144.2579 Y183.69 I-3.6642 J1.4439
G3 X144.2483 Y183.6672 I1.6779 J-0.7178
G2 X139.8551 Y174.1464 I-116.3933 J47.9342
G3 X139.8545 Y174.1452 I1.6238 J-0.833
G2 X136.5026 Y168.0043 I-117.9223 J60.3795
G3 X136.5021 Y168.0034 I1.5783 J-0.9164
G2 X131.5515 Y160.0923 I-120.0296 J69.6074
G3 X131.5513 Y160.092 I1.5136 J-1.0196
G2 X124.1724 Y150.0636 I-123.7258 J83.3086
G3 X124.1719 Y150.063 I1.4235 J-1.142
G2 X119.5936 Y144.6121 I-121.1331 J97.0943
G3 X119.5931 Y144.6115 I1.3702 J-1.2055
G2 X114.0671 Y138.64 I-119.5848 J105.1197
G3 X114.0669 Y138.6397 I1.3074 J-1.2734
G2 X107.3958 Y132.1601 I-119.1751 J116.0219
G2 X87.9864 Y116.7747 I-115.9834 J126.3829
G1 X87.3365 Y116.3339
G2 X75.1922 Y108.8492 I-96.1574 J142.4256
G3 X75.1918 Y108.849 I0.8922 J-1.592
G2 X60.6092 Y101.5835 I-81.7047 J145.7214
G1 Y101.5834
G1 Y101.5835
G2 X52.5628 Y98.313 I-63.7178 J145.2335
G3 X52.5617 Y98.3126 I0.6406 J-1.7089
G2 X48.3457 Y96.8003 I-52.7945 J140.5527
G1 X47.8091 Y96.6177
G2 X43.3929 Y95.1981 I-46.4467 J136.9118
G1 X42.833 Y95.0287
G1 X42.2706 Y94.861
G2 X32.6125 Y92.3576 I-41.2588 J139.2907
G2 X22.1468 Y90.4539 I-29.4052 J131.9346
G2 X16.6948 Y89.8026 I-18.2808 J129.8958
G1 X16.6947
G2 X4.9993 Y89.225 I-11.7784 J119.7945
G1 X4.9992
G1 Y89.625
G3 X-2.225 Y82.4 Z-0.8054 I0.0008 J-7.225
G1 Y3.0 Z-0.8435
G3 X3.0 Y-2.225 Z-0.8474 I5.225 J0.0
G1 X237.3593 Z-0.9598
G3 X249.2976 Y12.6321 Z-0.9703 I0.0 J12.225
G2 Y187.3679 Z-1.0547 I396.2657 J87.3679
G3 X237.3593 Y202.225 Z-1.0652 I-11.9383 J2.6321
G1 X159.0983 Z-1.1027
G3 X147.4275 Y193.6393 Z-1.1102 I0.0 J-12.225
G2 X143.9406 Y183.9708 Z-1.1151 I-113.3386 J35.412
G3 X143.929 Y183.9418 I2.0584 J-0.8447
G2 X143.8902 Y183.8474 Z-1.1152 I-3.2921 J1.2973
G3 X143.8785 Y183.8195 I2.0457 J-0.8751
G2 X139.4992 Y174.329 Z-1.1202 I-116.0234 J47.7819
G3 X139.4984 Y174.3275 I1.9797 J-1.0156
G2 X136.1567 Y168.2051 Z-1.1235 I-117.5662 J60.1972
G3 X136.1561 Y168.2041 I1.9242 J-1.1172
G2 X131.2198 Y160.3158 Z-1.128 I-119.6836 J69.4067
G3 X131.2195 Y160.3154 I1.8454 J-1.2431
G2 X123.8604 Y150.3139 Z-1.134 I-123.394 J83.0852
G3 X123.8598 Y150.3131 I1.7355 J-1.3923
G2 X119.2933 Y144.8763 Z-1.1374 I-120.821 J96.8441
G3 X119.2927 Y144.8756 I1.6705 J-1.4697
G2 X113.7806 Y138.9191 Z-1.1413 I-119.2844 J104.8556
G3 X113.7802 Y138.9188 I1.5939 J-1.5524
G2 X107.1253 Y132.4548 Z-1.1457 I-118.8884 J115.7428
G2 X87.7616 Y117.1056 Z-1.1576 I-115.7129 J126.0883
G1 X87.1123 Y116.6652 Z-1.1579
G2 X74.9966 Y109.1981 Z-1.1648 I-95.9332 J142.0944
G3 X74.9962 Y109.1979 I1.0878 J-1.941
G2 X60.4485 Y101.9497 Z-1.1726 I-81.509 J145.3725
G1 Y101.9498
G1 Y101.9497
G2 X52.4224 Y98.6876 Z-1.1767 I-63.5571 J144.8672
G3 X52.4211 Y98.687 I0.781 J-2.0834
G2 X48.2165 Y97.1789 Z-1.1789 I-52.6538 J140.1783
G1 X47.6804 Y96.9964 Z-1.1791
G2 X43.2769 Y95.5809 Z-1.1814 I-46.318 J136.5331
G1 X42.7179 Y95.4118 Z-1.1816
G1 X42.1566 Y95.2445 Z-1.1819
G2 X32.5255 Y92.748 Z-1.1867 I-41.1448 J138.9073
G2 X22.0909 Y90.8499 Z-1.1918 I-29.3182 J131.5442
G2 X16.6557 Y90.2007 Z-1.1944 I-18.2249 J129.4997
G1 X16.6556
G2 X4.9992 Y89.625 Z-1.2 I-11.7393 J119.3964
G1 Y89.225
G3 X-1.825 Y82.4 I0.0008 J-6.825
G1 Y3.0
G3 X3.0 Y-1.825 I4.825 J0.0
G1 X237.3593
G3 X248.907 Y12.546 I0.0 J11.825
G2 Y187.454 I396.6563 J87.454
G3 X237.3593 Y201.825 I-11.5477 J2.546
G1 X159.0983
G3 X147.8094 Y193.5201 I0.0 J-11.825
G2 X144.3107 Y183.8189 I-113.7204 J35.5311
G3 X144.3011 Y183.7952 I1.6884 J-0.6929
G2 X144.2579 Y183.69 I-3.6642 J1.4439
G3 X144.2483 Y183.6672 I1.6779 J-0.7178
G2 X139.8551 Y174.1464 I-116.3933 J47.9342
G3 X139.8545 Y174.1452 I1.6238 J-0.833
G2 X136.5026 Y168.0043 I-117.9223 J60.3795
G3 X136.5021 Y168.0034 I1.5783 J-0.9164
G2 X131.5515 Y160.0923 I-120.0296 J69.6074
G3 X131.5513 Y160.092 I1.5136 J-1.0196
G2 X124.1724 Y150.0636 I-123.7258 J83.3086
G3 X124.1719 Y150.063 I1.4235 J-1.142
G2 X119.5936 Y144.6121 I-121.1331 J97.0943
G3 X119.5931 Y144.6115 I1.3702 J-1.2055
G2 X114.0671 Y138.64 I-119.5848 J105.1197
G3 X114.0669 Y138.6397 I1.3074 J-1.2734
G2 X107.3958 Y132.1601 I-119.1751 J116.0219
G2 X87.9864 Y116.7747 I-115.9834 J126.3829
G1 X87.3365 Y116.3339
G2 X75.1922 Y108.8492 I-96.1574 J142.4256
G3 X75.1918 Y108.849 I0.8922 J-1.592
G2 X60.6092 Y101.5835 I-81.7047 J145.7214
G1 Y101.5834
G1 Y101.5835
G2 X52.5628 Y98.313 I-63.7178 J145.2335
G3 X52.5617 Y98.3126 I0.6406 J-1.7089
G2 X48.3457 Y96.8003 I-52.7945 J140.5527
G1 X47.8091 Y96.6177
G2 X43.3929 Y95.1981 I-46.4467 J136.9118
G1 X42.833 Y95.0287
G1 X42.2706 Y94.861
G2 X32.6125 Y92.3576 I-41.2588 J139.2907
G2 X22.1468 Y90.4539 I-29.4052 J131.9346
G2 X16.6948 Y89.8026 I-18.2808 J129.8958
G1 X16.6947
G2 X4.9993 Y89.225 I-11.7784 J119.7945
G1 X4.9992
G1 Y89.625
G3 X-2.225 Y82.4 Z-1.2054 I0.0008 J-7.225
G1 Y3.0 Z-1.2435
G3 X3.0 Y-2.225 Z-1.2474 I5.225 J0.0
G1 X237.3593 Z-1.3598
G3 X249.2976 Y12.6321 Z-1.3703 I0.0 J12.225
G2 Y187.3679 Z-1.4547 I396.2657 J87.3679
G3 X237.3593 Y202.225 Z-1.4652 I-11.9383 J2.6321
G1 X159.0983 Z-1.5027
G3 X147.4275 Y193.6393 Z-1.5102 I0.0 J-12.225
G2 X143.9406 Y183.9708 Z-1.5151 I-113.3386 J35.412
G3 X143.929 Y183.9418 I2.0584 J-0.8447
G2 X143.8902 Y183.8474 Z-1.5152 I-3.2921 J1.2973
G3 X143.8785 Y183.8195 I2.0457 J-0.8751
G2 X139.4992 Y174.329 Z-1.5202 I-116.0234 J47.7819
G3 X139.4984 Y174.3275 I1.9797 J-1.0156
G2 X136.1567 Y168.2051 Z-1.5235 I-117.5662 J60.1972
G3 X136.1561 Y168.2041 I1.9242 J-1.1172
G2 X131.2198 Y160.3158 Z-1.528 I-119.6836 J69.4067
G3 X131.2195 Y160.3154 I1.8454 J-1.2431
G2 X123.8604 Y150.3139 Z-1.534 I-123.394 J83.0852
G3 X123.8598 Y150.3131 I1.7355 J-1.3923
G2 X119.2933 Y144.8763 Z-1.5374 I-120.821 J96.8441
G3 X119.2927 Y144.8756 I1.6705 J-1.4697
G2 X113.7806 Y138.9191 Z-1.5413 I-119.2844 J104.8556
G3 X113.7802 Y138.9188 I1.5939 J-1.5524
G2 X107.1253 Y132.4548 Z-1.5457 I-118.8884 J115.7428
G2 X87.7616 Y117.1056 Z-1.5576 I-115.7129 J126.0883
G1 X87.1123 Y116.6652 Z-1.5579
G2 X74.9966 Y109.1981 Z-1.5648 I-95.9332 J142.0944
G3 X74.9962 Y109.1979 I1.0878 J-1.941
G2 X60.4485 Y101.9497 Z-1.5726 I-81.509 J145.3725
G1 Y101.9498
G1 Y101.9497
G2 X52.4224 Y98.6876 Z-1.5767 I-63.5571 J144.8672
G3 X52.4211 Y98.687 I0.781 J-2.0834
G2 X48.2165 Y97.1789 Z-1.5789 I-52.6538 J140.1783
G1 X47.6804 Y96.9964 Z-1.5791
G2 X43.2769 Y95.5809 Z-1.5814 I-46.318 J136.5331
G1 X42.7179 Y95.4118 Z-1.5816
G1 X42.1566 Y95.2445 Z-1.5819
G2 X32.5255 Y92.748 Z-1.5867 I-41.1448 J138.9073
G2 X22.0909 Y90.8499 Z-1.5918 I-29.3182 J131.5442
G2 X16.6557 Y90.2007 Z-1.5944 I-18.2249 J129.4997
G1 X16.6556
G2 X4.9992 Y89.625 Z-1.6 I-11.7393 J119.3964
G1 Y89.225
G3 X-1.825 Y82.4 I0.0008 J-6.825
G1 Y3.0
G3 X3.0 Y-1.825 I4.825 J0.0
G1 X237.3593
G3 X248.907 Y12.546 I0.0 J11.825
G2 Y187.454 I396.6563 J87.454
G3 X237.3593 Y201.825 I-11.5477 J2.546
G1 X159.0983
G3 X147.8094 Y193.5201 I0.0 J-11.825
G2 X144.3107 Y183.8189 I-113.7204 J35.5311
G3 X144.3011 Y183.7952 I1.6884 J-0.6929
G2 X144.2579 Y183.69 I-3.6642 J1.4439
G3 X144.2483 Y183.6672 I1.6779 J-0.7178
G2 X139.8551 Y174.1464 I-116.3933 J47.9342
G3 X139.8545 Y174.1452 I1.6238 J-0.833
G2 X136.5026 Y168.0043 I-117.9223 J60.3795
G3 X136.5021 Y168.0034 I1.5783 J-0.9164
G2 X131.5515 Y160.0923 I-120.0296 J69.6074
G3 X131.5513 Y160.092 I1.5136 J-1.0196
G2 X124.1724 Y150.0636 I-123.7258 J83.3086
G3 X124.1719 Y150.063 I1.4235 J-1.142
G2 X119.5936 Y144.6121 I-121.1331 J97.0943
G3 X119.5931 Y144.6115 I1.3702 J-1.2055
G2 X114.0671 Y138.64 I-119.5848 J105.1197
G3 X114.0669 Y138.6397 I1.3074 J-1.2734
G2 X107.3958 Y132.1601 I-119.1751 J116.0219
G2 X87.9864 Y116.7747 I-115.9834 J126.3829
G1 X87.3365 Y116.3339
G2 X75.1922 Y108.8492 I-96.1574 J142.4256
G3 X75.1918 Y108.849 I0.8922 J-1.592
G2 X60.6092 Y101.5835 I-81.7047 J145.7214
G1 Y101.5834
G1 Y101.5835
G2 X52.5628 Y98.313 I-63.7178 J145.2335
G3 X52.5617 Y98.3126 I0.6406 J-1.7089
G2 X48.3457 Y96.8003 I-52.7945 J140.5527
G1 X47.8091 Y96.6177
G2 X43.3929 Y95.1981 I-46.4467 J136.9118
G1 X42.833 Y95.0287
G1 X42.2706 Y94.861
G2 X32.6125 Y92.3576 I-41.2588 J139.2907
G2 X22.1468 Y90.4539 I-29.4052 J131.9346
G2 X16.6948 Y89.8026 I-18.2808 J129.8958
G1 X16.6947
G2 X4.9993 Y89.225 I-11.7784 J119.7945
G1 X4.9992
G1 Y89.625
G3 X-2.225 Y82.4 Z-1.6054 I0.0008 J-7.225
G1 Y3.0 Z-1.6435
G3 X3.0 Y-2.225 Z-1.6474 I5.225 J0.0
G1 X237.3593 Z-1.7598
G3 X249.2976 Y12.6321 Z-1.7703 I0.0 J12.225
G2 Y187.3679 Z-1.8547 I396.2657 J87.3679
G3 X237.3593 Y202.225 Z-1.8652 I-11.9383 J2.6321
G1 X159.0983 Z-1.9027
G3 X147.4275 Y193.6393 Z-1.9102 I0.0 J-12.225
G2 X143.9406 Y183.9708 Z-1.9151 I-113.3386 J35.412
G3 X143.929 Y183.9418 I2.0584 J-0.8447
G2 X143.8902 Y183.8474 Z-1.9152 I-3.2921 J1.2973
G3 X143.8785 Y183.8195 I2.0457 J-0.8751
G2 X139.4992 Y174.329 Z-1.9202 I-116.0234 J47.7819
G3 X139.4984 Y174.3275 I1.9797 J-1.0156
G2 X136.1567 Y168.2051 Z-1.9235 I-117.5662 J60.1972
G3 X136.1561 Y168.2041 I1.9242 J-1.1172
G2 X131.2198 Y160.3158 Z-1.928 I-119.6836 J69.4067
G3 X131.2195 Y160.3154 I1.8454 J-1.2431
G2 X123.8604 Y150.3139 Z-1.934 I-123.394 J83.0852
G3 X123.8598 Y150.3131 I1.7355 J-1.3923
G2 X119.2933 Y144.8763 Z-1.9374 I-120.821 J96.8441
G3 X119.2927 Y144.8756 I1.6705 J-1.4697
G2 X113.7806 Y138.9191 Z-1.9413 I-119.2844 J104.8556
G3 X113.7802 Y138.9188 I1.5939 J-1.5524
G2 X107.1253 Y132.4548 Z-1.9457 I-118.8884 J115.7428
G2 X87.7616 Y117.1056 Z-1.9576 I-115.7129 J126.0883
G1 X87.1123 Y116.6652 Z-1.9579
G2 X74.9966 Y109.1981 Z-1.9648 I-95.9332 J142.0944
G3 X74.9962 Y109.1979 I1.0878 J-1.941
G2 X60.4485 Y101.9497 Z-1.9726 I-81.509 J145.3725
G1 Y101.9498
G1 Y101.9497
G2 X52.4224 Y98.6876 Z-1.9767 I-63.5571 J144.8672
G3 X52.4211 Y98.687 I0.781 J-2.0834
G2 X48.2165 Y97.1789 Z-1.9789 I-52.6538 J140.1783
G1 X47.6804 Y96.9964 Z-1.9791
G2 X43.2769 Y95.5809 Z-1.9814 I-46.318 J136.5331
G1 X42.7179 Y95.4118 Z-1.9816
G1 X42.1566 Y95.2445 Z-1.9819
G2 X32.5255 Y92.748 Z-1.9867 I-41.1448 J138.9073
G2 X22.0909 Y90.8499 Z-1.9918 I-29.3182 J131.5442
G2 X16.6557 Y90.2007 Z-1.9944 I-18.2249 J129.4997
G1 X16.6556
G2 X4.9992 Y89.625 Z-2.0 I-11.7393 J119.3964
G1 Y89.225
G3 X-1.825 Y82.4 I0.0008 J-6.825
G1 Y3.0
G3 X3.0 Y-1.825 I4.825 J0.0
G1 X237.3593
G3 X248.907 Y12.546 I0.0 J11.825
G2 Y187.454 I396.6563 J87.454
G3 X237.3593 Y201.825 I-11.5477 J2.546
G1 X159.0983
G3 X147.8094 Y193.5201 I0.0 J-11.825
G2 X144.3107 Y183.8189 I-113.7204 J35.5311
G3 X144.3011 Y183.7952 I1.6884 J-0.6929
G2 X144.2579 Y183.69 I-3.6642 J1.4439
G3 X144.2483 Y183.6672 I1.6779 J-0.7178
G2 X139.8551 Y174.1464 I-116.3933 J47.9342
G3 X139.8545 Y174.1452 I1.6238 J-0.833
G2 X136.5026 Y168.0043 I-117.9223 J60.3795
G3 X136.5021 Y168.0034 I1.5783 J-0.9164
G2 X131.5515 Y160.0923 I-120.0296 J69.6074
G3 X131.5513 Y160.092 I1.5136 J-1.0196
G2 X124.1724 Y150.0636 I-123.7258 J83.3086
G3 X124.1719 Y150.063 I1.4235 J-1.142
G2 X119.5936 Y144.6121 I-121.1331 J97.0943
G3 X119.5931 Y144.6115 I1.3702 J-1.2055
G2 X114.0671 Y138.64 I-119.5848 J105.1197
G3 X114.0669 Y138.6397 I1.3074 J-1.2734
G2 X107.3958 Y132.1601 I-119.1751 J116.0219
G2 X87.9864 Y116.7747 I-115.9834 J126.3829
G1 X87.3365 Y116.3339
G2 X75.1922 Y108.8492 I-96.1574 J142.4256
G3 X75.1918 Y108.849 I0.8922 J-1.592
G2 X60.6092 Y101.5835 I-81.7047 J145.7214
G1 Y101.5834
G1 Y101.5835
G2 X52.5628 Y98.313 I-63.7178 J145.2335
G3 X52.5617 Y98.3126 I0.6406 J-1.7089
G2 X48.3457 Y96.8003 I-52.7945 J140.5527
G1 X47.8091 Y96.6177
G2 X43.3929 Y95.1981 I-46.4467 J136.9118
G1 X42.833 Y95.0287
G1 X42.2706 Y94.861
G2 X32.6125 Y92.3576 I-41.2588 J139.2907
G2 X22.1468 Y90.4539 I-29.4052 J131.9346
G2 X16.6948 Y89.8026 I-18.2808 J129.8958
G1 X16.6947
G2 X4.9993 Y89.225 I-11.7784 J119.7945
G1 X4.9992
G1 Y89.625
G3 X-2.225 Y82.4 Z-2.0054 I0.0008 J-7.225
G1 Y3.0 Z-2.0435
G3 X3.0 Y-2.225 Z-2.0474 I5.225 J0.0
G1 X237.3593 Z-2.1598
G3 X249.2976 Y12.6321 Z-2.1703 I0.0 J12.225
G2 Y187.3679 Z-2.2547 I396.2657 J87.3679
G3 X237.3593 Y202.225 Z-2.2652 I-11.9383 J2.6321
G1 X159.0983 Z-2.3027
G3 X147.4275 Y193.6393 Z-2.3102 I0.0 J-12.225
G2 X143.9406 Y183.9708 Z-2.3151 I-113.3386 J35.412
G3 X143.929 Y183.9418 I2.0584 J-0.8447
G2 X143.8902 Y183.8474 Z-2.3152 I-3.2921 J1.2973
G3 X143.8785 Y183.8195 I2.0457 J-0.8751
G2 X139.4992 Y174.329 Z-2.3202 I-116.0234 J47.7819
G3 X139.4984 Y174.3275 I1.9797 J-1.0156
G2 X136.1567 Y168.2051 Z-2.3235 I-117.5662 J60.1972
G3 X136.1561 Y168.2041 I1.9242 J-1.1172
G2 X131.2198 Y160.3158 Z-2.328 I-119.6836 J69.4067
G3 X131.2195 Y160.3154 I1.8454 J-1.2431
G2 X123.8604 Y150.3139 Z-2.334 I-123.394 J83.0852
G3 X123.8598 Y150.3131 I1.7355 J-1.3923
G2 X119.2933 Y144.8763 Z-2.3374 I-120.821 J96.8441
G3 X119.2927 Y144.8756 I1.6705 J-1.4697
G2 X113.7806 Y138.9191 Z-2.3413 I-119.2844 J104.8556
G3 X113.7802 Y138.9188 I1.5939 J-1.5524
G2 X107.1253 Y132.4548 Z-2.3457 I-118.8884 J115.7428
G2 X87.7616 Y117.1056 Z-2.3576 I-115.7129 J126.0883
G1 X87.1123 Y116.6652 Z-2.3579
G2 X74.9966 Y109.1981 Z-2.3648 I-95.9332 J142.0944
G3 X74.9962 Y109.1979 I1.0878 J-1.941
G2 X60.4485 Y101.9497 Z-2.3726 I-81.509 J145.3725
G1 Y101.9498
G1 Y101.9497
G2 X52.4224 Y98.6876 Z-2.3767 I-63.5571 J144.8672
G3 X52.4211 Y98.687 I0.781 J-2.0834
G2 X48.2165 Y97.1789 Z-2.3789 I-52.6538 J140.1783
G1 X47.6804 Y96.9964 Z-2.3791
G2 X43.2769 Y95.5809 Z-2.3814 I-46.318 J136.5331
G1 X42.7179 Y95.4118 Z-2.3816
G1 X42.1566 Y95.2445 Z-2.3819
G2 X32.5255 Y92.748 Z-2.3867 I-41.1448 J138.9073
G2 X22.0909 Y90.8499 Z-2.3918 I-29.3182 J131.5442
G2 X16.6557 Y90.2007 Z-2.3944 I-18.2249 J129.4997
G1 X16.6556
G2 X4.9992 Y89.625 Z-2.4 I-11.7393 J119.3964
G1 Y89.225
G3 X-1.825 Y82.4 I0.0008 J-6.825
G1 Y3.0
G3 X3.0 Y-1.825 I4.825 J0.0
G1 X237.3593
G3 X248.907 Y12.546 I0.0 J11.825
G2 Y187.454 I396.6563 J87.454
G3 X237.3593 Y201.825 I-11.5477 J2.546
G1 X159.0983
G3 X147.8094 Y193.5201 I0.0 J-11.825
G2 X144.3107 Y183.8189 I-113.7204 J35.5311
G3 X144.3011 Y183.7952 I1.6884 J-0.6929
G2 X144.2579 Y183.69 I-3.6642 J1.4439
G3 X144.2483 Y183.6672 I1.6779 J-0.7178
G2 X139.8551 Y174.1464 I-116.3933 J47.9342
G3 X139.8545 Y174.1452 I1.6238 J-0.833
G2 X136.5026 Y168.0043 I-117.9223 J60.3795
G3 X136.5021 Y168.0034 I1.5783 J-0.9164
G2 X131.5515 Y160.0923 I-120.0296 J69.6074
G3 X131.5513 Y160.092 I1.5136 J-1.0196
G2 X124.1724 Y150.0636 I-123.7258 J83.3086
G3 X124.1719 Y150.063 I1.4235 J-1.142
G2 X119.5936 Y144.6121 I-121.1331 J97.0943
G3 X119.5931 Y144.6115 I1.3702 J-1.2055
G2 X114.0671 Y138.64 I-119.5848 J105.1197
G3 X114.0669 Y138.6397 I1.3074 J-1.2734
G2 X107.3958 Y132.1601 I-119.1751 J116.0219
G2 X87.9864 Y116.7747 I-115.9834 J126.3829
G1 X87.3365 Y116.3339
G2 X75.1922 Y108.8492 I-96.1574 J142.4256
G3 X75.1918 Y108.849 I0.8922 J-1.592
G2 X60.6092 Y101.5835 I-81.7047 J145.7214
G1 Y101.5834
G1 Y101.5835
G2 X52.5628 Y98.313 I-63.7178 J145.2335
G3 X52.5617 Y98.3126 I0.6406 J-1.7089
G2 X48.3457 Y96.8003 I-52.7945 J140.5527
G1 X47.8091 Y96.6177
G2 X43.3929 Y95.1981 I-46.4467 J136.9118
G1 X42.833 Y95.0287
G1 X42.2706 Y94.861
G2 X32.6125 Y92.3576 I-41.2588 J139.2907
G2 X22.1468 Y90.4539 I-29.4052 J131.9346
G2 X16.6948 Y89.8026 I-18.2808 J129.8958
G1 X16.6947
G2 X4.9993 Y89.225 I-11.7784 J119.7945
G1 X4.9992
G1 Y89.625
G3 X-2.225 Y82.4 Z-2.4054 I0.0008 J-7.225
G1 Y3.0 Z-2.4435
G3 X3.0 Y-2.225 Z-2.4474 I5.225 J0.0
G1 X237.3593 Z-2.5598
G3 X249.2976 Y12.6321 Z-2.5703 I0.0 J12.225
G2 Y187.3679 Z-2.6547 I396.2657 J87.3679
G3 X237.3593 Y202.225 Z-2.6652 I-11.9383 J2.6321
G1 X159.0983 Z-2.7027
G3 X147.4275 Y193.6393 Z-2.7102 I0.0 J-12.225
G2 X143.9406 Y183.9708 Z-2.7151 I-113.3386 J35.412
G3 X143.929 Y183.9418 I2.0584 J-0.8447
G2 X143.8902 Y183.8474 Z-2.7152 I-3.2921 J1.2973
G3 X143.8785 Y183.8195 I2.0457 J-0.8751
G2 X139.4992 Y174.329 Z-2.7202 I-116.0234 J47.7819
G3 X139.4984 Y174.3275 I1.9797 J-1.0156
G2 X136.1567 Y168.2051 Z-2.7235 I-117.5662 J60.1972
G3 X136.1561 Y168.2041 I1.9242 J-1.1172
G2 X131.2198 Y160.3158 Z-2.728 I-119.6836 J69.4067
G3 X131.2195 Y160.3154 I1.8454 J-1.2431
G2 X123.8604 Y150.3139 Z-2.734 I-123.394 J83.0852
G3 X123.8598 Y150.3131 I1.7355 J-1.3923
G2 X119.2933 Y144.8763 Z-2.7374 I-120.821 J96.8441
G3 X119.2927 Y144.8756 I1.6705 J-1.4697
G2 X113.7806 Y138.9191 Z-2.7413 I-119.2844 J104.8556
G3 X113.7802 Y138.9188 I1.5939 J-1.5524
G2 X107.1253 Y132.4548 Z-2.7457 I-118.8884 J115.7428
G2 X87.7616 Y117.1056 Z-2.7576 I-115.7129 J126.0883
G1 X87.1123 Y116.6652 Z-2.7579
G2 X74.9966 Y109.1981 Z-2.7648 I-95.9332 J142.0944
G3 X74.9962 Y109.1979 I1.0878 J-1.941
G2 X60.4485 Y101.9497 Z-2.7726 I-81.509 J145.3725
G1 Y101.9498
G1 Y101.9497
G2 X52.4224 Y98.6876 Z-2.7767 I-63.5571 J144.8672
G3 X52.4211 Y98.687 I0.781 J-2.0834
G2 X48.2165 Y97.1789 Z-2.7789 I-52.6538 J140.1783
G1 X47.6804 Y96.9964 Z-2.7791
G2 X43.2769 Y95.5809 Z-2.7814 I-46.318 J136.5331
G1 X42.7179 Y95.4118 Z-2.7816
G1 X42.1566 Y95.2445 Z-2.7819
G2 X32.5255 Y92.748 Z-2.7867 I-41.1448 J138.9073
G2 X22.0909 Y90.8499 Z-2.7918 I-29.3182 J131.5442
G2 X16.6557 Y90.2007 Z-2.7944 I-18.2249 J129.4997
G1 X16.6556
G2 X4.9992 Y89.625 Z-2.8 I-11.7393 J119.3964
G1 Y89.225
G3 X-1.825 Y82.4 I0.0008 J-6.825
G1 Y3.0
G3 X3.0 Y-1.825 I4.825 J0.0
G1 X237.3593
G3 X248.907 Y12.546 I0.0 J11.825
G2 Y187.454 I396.6563 J87.454
G3 X237.3593 Y201.825 I-11.5477 J2.546
G1 X159.0983
G3 X147.8094 Y193.5201 I0.0 J-11.825
G2 X144.3107 Y183.8189 I-113.7204 J35.5311
G3 X144.3011 Y183.7952 I1.6884 J-0.6929
G2 X144.2579 Y183.69 I-3.6642 J1.4439
G3 X144.2483 Y183.6672 I1.6779 J-0.7178
G2 X139.8551 Y174.1464 I-116.3933 J47.9342
G3 X139.8545 Y174.1452 I1.6238 J-0.833
G2 X136.5026 Y168.0043 I-117.9223 J60.3795
G3 X136.5021 Y168.0034 I1.5783 J-0.9164
G2 X131.5515 Y160.0923 I-120.0296 J69.6074
G3 X131.5513 Y160.092 I1.5136 J-1.0196
G2 X124.1724 Y150.0636 I-123.7258 J83.3086
G3 X124.1719 Y150.063 I1.4235 J-1.142
G2 X119.5936 Y144.6121 I-121.1331 J97.0943
G3 X119.5931 Y144.6115 I1.3702 J-1.2055
G2 X114.0671 Y138.64 I-119.5848 J105.1197
G3 X114.0669 Y138.6397 I1.3074 J-1.2734
G2 X107.3958 Y132.1601 I-119.1751 J116.0219
G2 X87.9864 Y116.7747 I-115.9834 J126.3829
G1 X87.3365 Y116.3339
G2 X75.1922 Y108.8492 I-96.1574 J142.4256
G3 X75.1918 Y108.849 I0.8922 J-1.592
G2 X60.6092 Y101.5835 I-81.7047 J145.7214
G1 Y101.5834
G1 Y101.5835
G2 X52.5628 Y98.313 I-63.7178 J145.2335
G3 X52.5617 Y98.3126 I0.6406 J-1.7089
G2 X48.3457 Y96.8003 I-52.7945 J140.5527
G1 X47.8091 Y96.6177
G2 X43.3929 Y95.1981 I-46.4467 J136.9118
G1 X42.833 Y95.0287
G1 X42.2706 Y94.861
G2 X32.6125 Y92.3576 I-41.2588 J139.2907
G2 X22.1468 Y90.4539 I-29.4052 J131.9346
G2 X16.6948 Y89.8026 I-18.2808 J129.8958
G1 X16.6947
G2 X4.9993 Y89.225 I-11.7784 J119.7945
G1 X4.9992
G1 Y89.625
G3 X-2.225 Y82.4 Z-2.8054 I0.0008 J-7.225
G1 Y3.0 Z-2.8435
G3 X3.0 Y-2.225 Z-2.8474 I5.225 J0.0
G1 X237.3593 Z-2.9598
G3 X249.2976 Y12.6321 Z-2.9703 I0.0 J12.225
G2 Y187.3679 Z-3.0547 I396.2657 J87.3679
G3 X237.3593 Y202.225 Z-3.0652 I-11.9383 J2.6321
G1 X159.0983 Z-3.1027
G3 X147.4275 Y193.6393 Z-3.1102 I0.0 J-12.225
G2 X143.9406 Y183.9708 Z-3.1151 I-113.3386 J35.412
G3 X143.929 Y183.9418 I2.0584 J-0.8447
G2 X143.8902 Y183.8474 Z-3.1152 I-3.2921 J1.2973
G3 X143.8785 Y183.8195 I2.0457 J-0.8751
G2 X139.4992 Y174.329 Z-3.1202 I-116.0234 J47.7819
G3 X139.4984 Y174.3275 I1.9797 J-1.0156
G2 X136.1567 Y168.2051 Z-3.1235 I-117.5662 J60.1972
G3 X136.1561 Y168.2041 I1.9242 J-1.1172
G2 X131.2198 Y160.3158 Z-3.128 I-119.6836 J69.4067
G3 X131.2195 Y160.3154 I1.8454 J-1.2431
G2 X123.8604 Y150.3139 Z-3.134 I-123.394 J83.0852
G3 X123.8598 Y150.3131 I1.7355 J-1.3923
G2 X119.2933 Y144.8763 Z-3.1374 I-120.821 J96.8441
G3 X119.2927 Y144.8756 I1.6705 J-1.4697
G2 X113.7806 Y138.9191 Z-3.1413 I-119.2844 J104.8556
G3 X113.7802 Y138.9188 I1.5939 J-1.5524
G2 X107.1253 Y132.4548 Z-3.1457 I-118.8884 J115.7428
G2 X87.7616 Y117.1056 Z-3.1576 I-115.7129 J126.0883
G1 X87.1123 Y116.6652 Z-3.1579
G2 X74.9966 Y109.1981 Z-3.1648 I-95.9332 J142.0944
G3 X74.9962 Y109.1979 I1.0878 J-1.941
G2 X60.4485 Y101.9497 Z-3.1726 I-81.509 J145.3725
G1 Y101.9498
G1 Y101.9497
G2 X52.4224 Y98.6876 Z-3.1767 I-63.5571 J144.8672
G3 X52.4211 Y98.687 I0.781 J-2.0834
G2 X48.2165 Y97.1789 Z-3.1789 I-52.6538 J140.1783
G1 X47.6804 Y96.9964 Z-3.1791
G2 X43.2769 Y95.5809 Z-3.1814 I-46.318 J136.5331
G1 X42.7179 Y95.4118 Z-3.1816
G1 X42.1566 Y95.2445 Z-3.1819
G2 X32.5255 Y92.748 Z-3.1867 I-41.1448 J138.9073
G2 X22.0909 Y90.8499 Z-3.1918 I-29.3182 J131.5442
G2 X16.6557 Y90.2007 Z-3.1944 I-18.2249 J129.4997
G1 X16.6556
G2 X4.9992 Y89.625 Z-3.2 I-11.7393 J119.3964
G1 Y89.225
G3 X-1.825 Y82.4 I0.0008 J-6.825
G1 Y3.0
G3 X3.0 Y-1.825 I4.825 J0.0
G1 X237.3593
G3 X248.907 Y12.546 I0.0 J11.825
G2 Y187.454 I396.6563 J87.454
G3 X237.3593 Y201.825 I-11.5477 J2.546
G1 X159.0983
G3 X147.8094 Y193.5201 I0.0 J-11.825
G2 X144.3107 Y183.8189 I-113.7204 J35.5311
G3 X144.3011 Y183.7952 I1.6884 J-0.6929
G2 X144.2579 Y183.69 I-3.6642 J1.4439
G3 X144.2483 Y183.6672 I1.6779 J-0.7178
G2 X139.8551 Y174.1464 I-116.3933 J47.9342
G3 X139.8545 Y174.1452 I1.6238 J-0.833
G2 X136.5026 Y168.0043 I-117.9223 J60.3795
G3 X136.5021 Y168.0034 I1.5783 J-0.9164
G2 X131.5515 Y160.0923 I-120.0296 J69.6074
G3 X131.5513 Y160.092 I1.5136 J-1.0196
G2 X124.1724 Y150.0636 I-123.7258 J83.3086
G3 X124.1719 Y150.063 I1.4235 J-1.142
G2 X119.5936 Y144.6121 I-121.1331 J97.0943
G3 X119.5931 Y144.6115 I1.3702 J-1.2055
G2 X114.0671 Y138.64 I-119.5848 J105.1197
G3 X114.0669 Y138.6397 I1.3074 J-1.2734
G2 X107.3958 Y132.1601 I-119.1751 J116.0219
G2 X87.9864 Y116.7747 I-115.9834 J126.3829
G1 X87.3365 Y116.3339
G2 X75.1922 Y108.8492 I-96.1574 J142.4256
G3 X75.1918 Y108.849 I0.8922 J-1.592
G2 X60.6092 Y101.5835 I-81.7047 J145.7214
G1 Y101.5834
G1 Y101.5835
G2 X52.5628 Y98.313 I-63.7178 J145.2335
G3 X52.5617 Y98.3126 I0.6406 J-1.7089
G2 X48.3457 Y96.8003 I-52.7945 J140.5527
G1 X47.8091 Y96.6177
G2 X43.3929 Y95.1981 I-46.4467 J136.9118
G1 X42.833 Y95.0287
G1 X42.2706 Y94.861
G2 X32.6125 Y92.3576 I-41.2588 J139.2907
G2 X22.1468 Y90.4539 I-29.4052 J131.9346
G2 X16.6948 Y89.8026 I-18.2808 J129.8958
G1 X16.6947
G2 X4.9993 Y89.225 I-11.7784 J119.7945
G1 X4.9992
G1 Y89.625
G3 X-2.225 Y82.4 Z-3.2054 I0.0008 J-7.225
G1 Y3.0 Z-3.2435
G3 X3.0 Y-2.225 Z-3.2474 I5.225 J0.0
G1 X237.3593 Z-3.3598
G3 X249.2976 Y12.6321 Z-3.3703 I0.0 J12.225
G2 Y187.3679 Z-3.4547 I396.2657 J87.3679
G3 X237.3593 Y202.225 Z-3.4652 I-11.9383 J2.6321
G1 X159.0983 Z-3.5027
G3 X147.4275 Y193.6393 Z-3.5102 I0.0 J-12.225
G2 X143.9406 Y183.9708 Z-3.5151 I-113.3386 J35.412
G3 X143.929 Y183.9418 I2.0584 J-0.8447
G2 X143.8902 Y183.8474 Z-3.5152 I-3.2921 J1.2973
G3 X143.8785 Y183.8195 I2.0457 J-0.8751
G2 X139.4992 Y174.329 Z-3.5202 I-116.0234 J47.7819
G3 X139.4984 Y174.3275 I1.9797 J-1.0156
G2 X136.1567 Y168.2051 Z-3.5235 I-117.5662 J60.1972
G3 X136.1561 Y168.2041 I1.9242 J-1.1172
G2 X131.2198 Y160.3158 Z-3.528 I-119.6836 J69.4067
G3 X131.2195 Y160.3154 I1.8454 J-1.2431
G2 X123.8604 Y150.3139 Z-3.534 I-123.394 J83.0852
G3 X123.8598 Y150.3131 I1.7355 J-1.3923
G2 X119.2933 Y144.8763 Z-3.5374 I-120.821 J96.8441
G3 X119.2927 Y144.8756 I1.6705 J-1.4697
G2 X113.7806 Y138.9191 Z-3.5413 I-119.2844 J104.8556
G3 X113.7802 Y138.9188 I1.5939 J-1.5524
G2 X107.1253 Y132.4548 Z-3.5457 I-118.8884 J115.7428
G2 X87.7616 Y117.1056 Z-3.5576 I-115.7129 J126.0883
G1 X87.1123 Y116.6652 Z-3.5579
G2 X74.9966 Y109.1981 Z-3.5648 I-95.9332 J142.0944
G3 X74.9962 Y109.1979 I1.0878 J-1.941
G2 X60.4485 Y101.9497 Z-3.5726 I-81.509 J145.3725
G1 Y101.9498
G1 Y101.9497
G2 X52.4224 Y98.6876 Z-3.5767 I-63.5571 J144.8672
G3 X52.4211 Y98.687 I0.781 J-2.0834
G2 X48.2165 Y97.1789 Z-3.5789 I-52.6538 J140.1783
G1 X47.6804 Y96.9964 Z-3.5791
G2 X43.2769 Y95.5809 Z-3.5814 I-46.318 J136.5331
G1 X42.7179 Y95.4118 Z-3.5816
G1 X42.1566 Y95.2445 Z-3.5819
G2 X32.5255 Y92.748 Z-3.5867 I-41.1448 J138.9073
G2 X22.0909 Y90.8499 Z-3.5918 I-29.3182 J131.5442
G2 X16.6557 Y90.2007 Z-3.5944 I-18.2249 J129.4997
G1 X16.6556
G2 X4.9992 Y89.625 Z-3.6 I-11.7393 J119.3964
G1 Y89.225
G3 X-1.825 Y82.4 I0.0008 J-6.825
G1 Y3.0
G3 X3.0 Y-1.825 I4.825 J0.0
G1 X237.3593
G3 X248.907 Y12.546 I0.0 J11.825
G2 Y187.454 I396.6563 J87.454
G3 X237.3593 Y201.825 I-11.5477 J2.546
G1 X159.0983
G3 X147.8094 Y193.5201 I0.0 J-11.825
G2 X144.3107 Y183.8189 I-113.7204 J35.5311
G3 X144.3011 Y183.7952 I1.6884 J-0.6929
G2 X144.2579 Y183.69 I-3.6642 J1.4439
G3 X144.2483 Y183.6672 I1.6779 J-0.7178
G2 X139.8551 Y174.1464 I-116.3933 J47.9342
G3 X139.8545 Y174.1452 I1.6238 J-0.833
G2 X136.5026 Y168.0043 I-117.9223 J60.3795
G3 X136.5021 Y168.0034 I1.5783 J-0.9164
G2 X131.5515 Y160.0923 I-120.0296 J69.6074
G3 X131.5513 Y160.092 I1.5136 J-1.0196
G2 X124.1724 Y150.0636 I-123.7258 J83.3086
G3 X124.1719 Y150.063 I1.4235 J-1.142
G2 X119.5936 Y144.6121 I-121.1331 J97.0943
G3 X119.5931 Y144.6115 I1.3702 J-1.2055
G2 X114.0671 Y138.64 I-119.5848 J105.1197
G3 X114.0669 Y138.6397 I1.3074 J-1.2734
G2 X107.3958 Y132.1601 I-119.1751 J116.0219
G2 X87.9864 Y116.7747 I-115.9834 J126.3829
G1 X87.3365 Y116.3339
G2 X75.1922 Y108.8492 I-96.1574 J142.4256
G3 X75.1918 Y108.849 I0.8922 J-1.592
G2 X60.6092 Y101.5835 I-81.7047 J145.7214
G1 Y101.5834
G1 Y101.5835
G2 X52.5628 Y98.313 I-63.7178 J145.2335
G3 X52.5617 Y98.3126 I0.6406 J-1.7089
G2 X48.3457 Y96.8003 I-52.7945 J140.5527
G1 X47.8091 Y96.6177
G2 X43.3929 Y95.1981 I-46.4467 J136.9118
G1 X42.833 Y95.0287
G1 X42.2706 Y94.861
G2 X32.6125 Y92.3576 I-41.2588 J139.2907
G2 X22.1468 Y90.4539 I-29.4052 J131.9346
G2 X16.6948 Y89.8026 I-18.2808 J129.8958
G1 X16.6947
G2 X4.9993 Y89.225 I-11.7784 J119.7945
G1 X4.9992
G1 Y89.625
G3 X-2.225 Y82.4 Z-3.6054 I0.0008 J-7.225
G1 Y3.0 Z-3.6435
G3 X3.0 Y-2.225 Z-3.6474 I5.225 J0.0
G1 X237.3593 Z-3.7598
G3 X249.2976 Y12.6321 Z-3.7703 I0.0 J12.225
G2 Y187.3679 Z-3.8547 I396.2657 J87.3679
G3 X237.3593 Y202.225 Z-3.8652 I-11.9383 J2.6321
G1 X159.0983 Z-3.9027
G3 X147.4275 Y193.6393 Z-3.9102 I0.0 J-12.225
G2 X143.9406 Y183.9708 Z-3.9151 I-113.3386 J35.412
G3 X143.929 Y183.9418 I2.0584 J-0.8447
G2 X143.8902 Y183.8474 Z-3.9152 I-3.2921 J1.2973
G3 X143.8785 Y183.8195 I2.0457 J-0.8751
G2 X139.4992 Y174.329 Z-3.9202 I-116.0234 J47.7819
G3 X139.4984 Y174.3275 I1.9797 J-1.0156
G2 X136.1567 Y168.2051 Z-3.9235 I-117.5662 J60.1972
G3 X136.1561 Y168.2041 I1.9242 J-1.1172
G2 X131.2198 Y160.3158 Z-3.928 I-119.6836 J69.4067
G3 X131.2195 Y160.3154 I1.8454 J-1.2431
G2 X123.8604 Y150.3139 Z-3.934 I-123.394 J83.0852
G3 X123.8598 Y150.3131 I1.7355 J-1.3923
G2 X119.2933 Y144.8763 Z-3.9374 I-120.821 J96.8441
G3 X119.2927 Y144.8756 I1.6705 J-1.4697
G2 X113.7806 Y138.9191 Z-3.9413 I-119.2844 J104.8556
G3 X113.7802 Y138.9188 I1.5939 J-1.5524
G2 X107.1253 Y132.4548 Z-3.9457 I-118.8884 J115.7428
G2 X87.7616 Y117.1056 Z-3.9576 I-115.7129 J126.0883
G1 X87.1123 Y116.6652 Z-3.9579
G2 X74.9966 Y109.1981 Z-3.9648 I-95.9332 J142.0944
G3 X74.9962 Y109.1979 I1.0878 J-1.941
G2 X60.4485 Y101.9497 Z-3.9726 I-81.509 J145.3725
G1 Y101.9498
G1 Y101.9497
G2 X52.4224 Y98.6876 Z-3.9767 I-63.5571 J144.8672
G3 X52.4211 Y98.687 I0.781 J-2.0834
G2 X48.2165 Y97.1789 Z-3.9789 I-52.6538 J140.1783
G1 X47.6804 Y96.9964 Z-3.9791
G2 X43.2769 Y95.5809 Z-3.9814 I-46.318 J136.5331
G1 X42.7179 Y95.4118 Z-3.9816
G1 X42.1566 Y95.2445 Z-3.9819
G2 X32.5255 Y92.748 Z-3.9867 I-41.1448 J138.9073
G2 X22.0909 Y90.8499 Z-3.9918 I-29.3182 J131.5442
G2 X16.6557 Y90.2007 Z-3.9944 I-18.2249 J129.4997
G1 X16.6556
G2 X4.9992 Y89.625 Z-4.0 I-11.7393 J119.3964
G1 Y89.225
G3 X-1.825 Y82.4 I0.0008 J-6.825
G1 Y3.0
G3 X3.0 Y-1.825 I4.825 J0.0
G1 X237.3593
G3 X248.907 Y12.546 I0.0 J11.825
G2 Y187.454 I396.6563 J87.454
G3 X237.3593 Y201.825 I-11.5477 J2.546
G1 X159.0983
G3 X147.8094 Y193.5201 I0.0 J-11.825
G2 X144.3107 Y183.8189 I-113.7204 J35.5311
G3 X144.3011 Y183.7952 I1.6884 J-0.6929
G2 X144.2579 Y183.69 I-3.6642 J1.4439
G3 X144.2483 Y183.6672 I1.6779 J-0.7178
G2 X139.8551 Y174.1464 I-116.3933 J47.9342
G3 X139.8545 Y174.1452 I1.6238 J-0.833
G2 X136.5026 Y168.0043 I-117.9223 J60.3795
G3 X136.5021 Y168.0034 I1.5783 J-0.9164
G2 X131.5515 Y160.0923 I-120.0296 J69.6074
G3 X131.5513 Y160.092 I1.5136 J-1.0196
G2 X124.1724 Y150.0636 I-123.7258 J83.3086
G3 X124.1719 Y150.063 I1.4235 J-1.142
G2 X119.5936 Y144.6121 I-121.1331 J97.0943
G3 X119.5931 Y144.6115 I1.3702 J-1.2055
G2 X114.0671 Y138.64 I-119.5848 J105.1197
G3 X114.0669 Y138.6397 I1.3074 J-1.2734
G2 X107.3958 Y132.1601 I-119.1751 J116.0219
G2 X87.9864 Y116.7747 I-115.9834 J126.3829
G1 X87.3365 Y116.3339
G2 X75.1922 Y108.8492 I-96.1574 J142.4256
G3 X75.1918 Y108.849 I0.8922 J-1.592
G2 X60.6092 Y101.5835 I-81.7047 J145.7214
G1 Y101.5834
G1 Y101.5835
G2 X52.5628 Y98.313 I-63.7178 J145.2335
G3 X52.5617 Y98.3126 I0.6406 J-1.7089
G2 X48.3457 Y96.8003 I-52.7945 J140.5527
G1 X47.8091 Y96.6177
G2 X43.3929 Y95.1981 I-46.4467 J136.9118
G1 X42.833 Y95.0287
G1 X42.2706 Y94.861
G2 X32.6125 Y92.3576 I-41.2588 J139.2907
G2 X22.1468 Y90.4539 I-29.4052 J131.9346
G2 X16.6948 Y89.8026 I-18.2808 J129.8958
G1 X16.6947
G2 X4.9993 Y89.225 I-11.7784 J119.7945
G1 X4.9992
G1 Y89.625
G3 X-2.225 Y82.4 Z-4.0054 I0.0008 J-7.225
G1 Y49.325 Z-4.0213
G1 Y47.825 Z-4.0
G1 Y44.175
G1 Y42.675 Z-4.0245
G1 Y3.0 Z-4.0435
G3 X3.0 Y-2.225 Z-4.0474 I5.225 J0.0
G1 X215.675 Z-4.1494
G1 X217.175 Z-4.0
G1 X220.825
G1 X222.325 Z-4.1526
G1 X237.3593 Z-4.1598
G3 X249.2976 Y12.6321 Z-4.1703 I0.0 J12.225
G2 Y187.3679 Z-4.2547 I396.2657 J87.3679
G3 X237.3593 Y202.225 Z-4.2652 I-11.9383 J2.6321
G1 X199.325 Z-4.2835
G1 X197.825 Z-4.0
G1 X194.175
G1 X192.675 Z-4.2866
G1 X159.0983 Z-4.3027
G3 X147.4275 Y193.6393 Z-4.3102 I0.0 J-12.225
G2 X143.9406 Y183.9708 Z-4.3151 I-113.3386 J35.412
G3 X143.929 Y183.9418 I2.0584 J-0.8447
G2 X143.8902 Y183.8474 Z-4.3152 I-3.2921 J1.2973
G3 X143.8785 Y183.8195 I2.0457 J-0.8751
G2 X139.4992 Y174.329 Z-4.3202 I-116.0234 J47.7819
G3 X139.4984 Y174.3275 I1.9797 J-1.0156
G2 X136.1567 Y168.2051 Z-4.3235 I-117.5662 J60.1972
G3 X136.1561 Y168.2041 I1.9242 J-1.1172
G2 X131.2198 Y160.3158 Z-4.328 I-119.6836 J69.4067
G3 X131.2195 Y160.3154 I1.8454 J-1.2431
G2 X123.8604 Y150.3139 Z-4.334 I-123.394 J83.0852
G3 X123.8598 Y150.3131 I1.7355 J-1.3923
G2 X119.2933 Y144.8763 Z-4.3374 I-120.821 J96.8441
G3 X119.2927 Y144.8756 I1.6705 J-1.4697
G2 X113.7806 Y138.9191 Z-4.3413 I-119.2844 J104.8556
G3 X113.7802 Y138.9188 I1.5939 J-1.5524
G2 X107.1253 Y132.4548 Z-4.3457 I-118.8884 J115.7428
G2 X87.7616 Y117.1056 Z-4.3576 I-115.7129 J126.0883
G1 X87.1123 Y116.6652 Z-4.3579
G2 X74.9966 Y109.1981 Z-4.3648 I-95.9332 J142.0944
G3 X74.9962 Y109.1979 I1.0878 J-1.941
G2 X60.4485 Y101.9497 Z-4.3726 I-81.509 J145.3725
G1 Y101.9498
G1 Y101.9497
G2 X52.4224 Y98.6876 Z-4.3767 I-63.5571 J144.8672
G3 X52.4211 Y98.687 I0.781 J-2.0834
G2 X48.2165 Y97.1789 Z-4.3789 I-52.6538 J140.1783
G1 X47.6804 Y96.9964 Z-4.3791
G2 X43.2769 Y95.5809 Z-4.3814 I-46.318 J136.5331
G1 X42.7179 Y95.4118 Z-4.3816
G1 X42.1566 Y95.2445 Z-4.3819
G2 X32.5255 Y92.748 Z-4.3867 I-41.1448 J138.9073
G2 X22.0909 Y90.8499 Z-4.3918 I-29.3182 J131.5442
G2 X16.6557 Y90.2007 Z-4.3944 I-18.2249 J129.4997
G1 X16.6556
G2 X4.9992 Y89.625 Z-4.4 I-11.7393 J119.3964
G1 Y89.225
G3 X-1.825 Y82.4 I0.0008 J-6.825
G1 Y49.325
G1 Y47.825 Z-4.0
G1 Y44.175
G1 Y42.675 Z-4.4
G1 Y3.0
G3 X3.0 Y-1.825 I4.825 J0.0
G1 X215.675
G1 X217.175 Z-4.0
G1 X220.825
G1 X222.325 Z-4.4
G1 X237.3593
G3 X248.907 Y12.546 I0.0 J11.825
G2 Y187.454 I396.6563 J87.454
G3 X237.3593 Y201.825 I-11.5477 J2.546
G1 X199.325
G1 X197.825 Z-4.0
G1 X194.175
G1 X192.675 Z-4.4
G1 X159.0983
G3 X147.8094 Y193.5201 I0.0 J-11.825
G2 X144.3107 Y183.8189 I-113.7204 J35.5311
G3 X144.3011 Y183.7952 I1.6884 J-0.6929
G2 X144.2579 Y183.69 I-3.6642 J1.4439
G3 X144.2483 Y183.6672 I1.6779 J-0.7178
G2 X139.8551 Y174.1464 I-116.3933 J47.9342
G3 X139.8545 Y174.1452 I1.6238 J-0.833
G2 X136.5026 Y168.0043 I-117.9223 J60.3795
G3 X136.5021 Y168.0034 I1.5783 J-0.9164
G2 X131.5515 Y160.0923 I-120.0296 J69.6074
G3 X131.5513 Y160.092 I1.5136 J-1.0196
G2 X124.1724 Y150.0636 I-123.7258 J83.3086
G3 X124.1719 Y150.063 I1.4235 J-1.142
G2 X119.5936 Y144.6121 I-121.1331 J97.0943
G3 X119.5931 Y144.6115 I1.3702 J-1.2055
G2 X114.0671 Y138.64 I-119.5848 J105.1197
G3 X114.0669 Y138.6397 I1.3074 J-1.2734
G2 X107.3958 Y132.1601 I-119.1751 J116.0219
G2 X87.9864 Y116.7747 I-115.9834 J126.3829
G1 X87.3365 Y116.3339
G2 X75.1922 Y108.8492 I-96.1574 J142.4256
G3 X75.1918 Y108.849 I0.8922 J-1.592
G2 X60.6092 Y101.5835 I-81.7047 J145.7214
G1 Y101.5834
G1 Y101.5835
G2 X52.5628 Y98.313 I-63.7178 J145.2335
G3 X52.5617 Y98.3126 I0.6406 J-1.7089
G2 X48.3457 Y96.8003 I-52.7945 J140.5527
G1 X47.8091 Y96.6177
G2 X43.3929 Y95.1981 I-46.4467 J136.9118
G1 X42.833 Y95.0287
G1 X42.2706 Y94.861
G2 X32.6125 Y92.3576 I-41.2588 J139.2907
G2 X22.1468 Y90.4539 I-29.4052 J131.9346
G2 X16.6948 Y89.8026 I-18.2808 J129.8958
G1 X16.6947
G2 X4.9993 Y89.225 I-11.7784 J119.7945
G1 X4.9992
G1 Y89.625
G3 X-2.225 Y82.4 Z-4.4054 I0.0008 J-7.225
G1 Y49.325 Z-4.4213
G1 Y47.825 Z-4.0
G1 Y44.175
G1 Y42.675 Z-4.4245
G1 Y3.0 Z-4.4435
G3 X3.0 Y-2.225 Z-4.4474 I5.225 J0.0
G1 X215.675 Z-4.5494
G1 X217.175 Z-4.0
G1 X220.825
G1 X222.325 Z-4.5526
G1 X237.3593 Z-4.5598
G3 X249.2976 Y12.6321 Z-4.5703 I0.0 J12.225
G2 Y187.3679 Z-4.6547 I396.2657 J87.3679
G3 X237.3593 Y202.225 Z-4.6652 I-11.9383 J2.6321
G1 X199.325 Z-4.6835
G1 X197.825 Z-4.0
G1 X194.175
G1 X192.675 Z-4.6866
G1 X159.0983 Z-4.7027
G3 X147.4275 Y193.6393 Z-4.7102 I0.0 J-12.225
G2 X143.9406 Y183.9708 Z-4.7151 I-113.3386 J35.412
G3 X143.929 Y183.9418 I2.0584 J-0.8447
G2 X143.8902 Y183.8474 Z-4.7152 I-3.2921 J1.2973
G3 X143.8785 Y183.8195 I2.0457 J-0.8751
G2 X139.4992 Y174.329 Z-4.7202 I-116.0234 J47.7819
G3 X139.4984 Y174.3275 I1.9797 J-1.0156
G2 X136.1567 Y168.2051 Z-4.7235 I-117.5662 J60.1972
G3 X136.1561 Y168.2041 I1.9242 J-1.1172
G2 X131.2198 Y160.3158 Z-4.728 I-119.6836 J69.4067
G3 X131.2195 Y160.3154 I1.8454 J-1.2431
G2 X123.8604 Y150.3139 Z-4.734 I-123.394 J83.0852
G3 X123.8598 Y150.3131 I1.7355 J-1.3923
G2 X119.2933 Y144.8763 Z-4.7374 I-120.821 J96.8441
G3 X119.2927 Y144.8756 I1.6705 J-1.4697
G2 X113.7806 Y138.9191 Z-4.7413 I-119.2844 J104.8556
G3 X113.7802 Y138.9188 I1.5939 J-1.5524
G2 X107.1253 Y132.4548 Z-4.7457 I-118.8884 J115.7428
G2 X87.7616 Y117.1056 Z-4.7576 I-115.7129 J126.0883
G1 X87.1123 Y116.6652 Z-4.7579
G2 X74.9966 Y109.1981 Z-4.7648 I-95.9332 J142.0944
G3 X74.9962 Y109.1979 I1.0878 J-1.941
G2 X60.4485 Y101.9497 Z-4.7726 I-81.509 J145.3725
G1 Y101.9498
G1 Y101.9497
G2 X52.4224 Y98.6876 Z-4.7767 I-63.5571 J144.8672
G3 X52.4211 Y98.687 I0.781 J-2.0834
G2 X48.2165 Y97.1789 Z-4.7789 I-52.6538 J140.1783
G1 X47.6804 Y96.9964 Z-4.7791
G2 X43.2769 Y95.5809 Z-4.7814 I-46.318 J136.5331
G1 X42.7179 Y95.4118 Z-4.7816
G1 X42.1566 Y95.2445 Z-4.7819
G2 X32.5255 Y92.748 Z-4.7867 I-41.1448 J138.9073
G2 X22.0909 Y90.8499 Z-4.7918 I-29.3182 J131.5442
G2 X16.6557 Y90.2007 Z-4.7944 I-18.2249 J129.4997
G1 X16.6556
G2 X4.9992 Y89.625 Z-4.8 I-11.7393 J119.3964
G1 Y89.225
G3 X-1.825 Y82.4 I0.0008 J-6.825
G1 Y49.325
G1 Y47.825 Z-4.0
G1 Y44.175
G1 Y42.675 Z-4.8
G1 Y3.0
G3 X3.0 Y-1.825 I4.825 J0.0
G1 X215.675
G1 X217.175 Z-4.0
G1 X220.825
G1 X222.325 Z-4.8
G1 X237.3593
G3 X248.907 Y12.546 I0.0 J11.825
G2 Y187.454 I396.6563 J87.454
G3 X237.3593 Y201.825 I-11.5477 J2.546
G1 X199.325
G1 X197.825 Z-4.0
G1 X194.175
G1 X192.675 Z-4.8
G1 X159.0983
G3 X147.8094 Y193.5201 I0.0 J-11.825
G2 X144.3107 Y183.8189 I-113.7204 J35.5311
G3 X144.3011 Y183.7952 I1.6884 J-0.6929
G2 X144.2579 Y183.69 I-3.6642 J1.4439
G3 X144.2483 Y183.6672 I1.6779 J-0.7178
G2 X139.8551 Y174.1464 I-116.3933 J47.9342
G3 X139.8545 Y174.1452 I1.6238 J-0.833
G2 X136.5026 Y168.0043 I-117.9223 J60.3795
G3 X136.5021 Y168.0034 I1.5783 J-0.9164
G2 X131.5515 Y160.0923 I-120.0296 J69.6074
G3 X131.5513 Y160.092 I1.5136 J-1.0196
G2 X124.1724 Y150.0636 I-123.7258 J83.3086
G3 X124.1719 Y150.063 I1.4235 J-1.142
G2 X119.5936 Y144.6121 I-121.1331 J97.0943
G3 X119.5931 Y144.6115 I1.3702 J-1.2055
G2 X114.0671 Y138.64 I-119.5848 J105.1197
G3 X114.0669 Y138.6397 I1.3074 J-1.2734
G2 X107.3958 Y132.1601 I-119.1751 J116.0219
G2 X87.9864 Y116.7747 I-115.9834 J126.3829
G1 X87.3365 Y116.3339
G2 X75.1922 Y108.8492 I-96.1574 J142.4256
G3 X75.1918 Y108.849 I0.8922 J-1.592
G2 X60.6092 Y101.5835 I-81.7047 J145.7214
G1 Y101.5834
G1 Y101.5835
G2 X52.5628 Y98.313 I-63.7178 J145.2335
G3 X52.5617 Y98.3126 I0.6406 J-1.7089
G2 X48.3457 Y96.8003 I-52.7945 J140.5527
G1 X47.8091 Y96.6177
G2 X43.3929 Y95.1981 I-46.4467 J136.9118
G1 X42.833 Y95.0287
G1 X42.2706 Y94.861
G2 X32.6125 Y92.3576 I-41.2588 J139.2907
G2 X22.1468 Y90.4539 I-29.4052 J131.9346
G2 X16.6948 Y89.8026 I-18.2808 J129.8958
G1 X16.6947
G2 X4.9993 Y89.225 I-11.7784 J119.7945
G1 X4.9992
G1 Y89.625
G3 X-2.225 Y82.4 Z-4.8054 I0.0008 J-7.225
G1 Y49.325 Z-4.8213
G1 Y47.825 Z-4.0
G1 Y44.175
G1 Y42.675 Z-4.8245
G1 Y3.0 Z-4.8435
G3 X3.0 Y-2.225 Z-4.8474 I5.225 J0.0
G1 X215.675 Z-4.9494
G1 X217.175 Z-4.0
G1 X220.825
G1 X222.325 Z-4.9526
G1 X237.3593 Z-4.9598
G3 X249.2976 Y12.6321 Z-4.9703 I0.0 J12.225
G2 Y187.3679 Z-5.0547 I396.2657 J87.3679
G3 X237.3593 Y202.225 Z-5.0652 I-11.9383 J2.6321
G1 X199.325 Z-5.0835
G1 X197.825 Z-4.0
G1 X194.175
G1 X192.675 Z-5.0866
G1 X159.0983 Z-5.1027
G3 X147.4275 Y193.6393 Z-5.1102 I0.0 J-12.225
G2 X143.9406 Y183.9708 Z-5.1151 I-113.3386 J35.412
G3 X143.929 Y183.9418 I2.0584 J-0.8447
G2 X143.8902 Y183.8474 Z-5.1152 I-3.2921 J1.2973
G3 X143.8785 Y183.8195 I2.0457 J-0.8751
G2 X139.4992 Y174.329 Z-5.1202 I-116.0234 J47.7819
G3 X139.4984 Y174.3275 I1.9797 J-1.0156
G2 X136.1567 Y168.2051 Z-5.1235 I-117.5662 J60.1972
G3 X136.1561 Y168.2041 I1.9242 J-1.1172
G2 X131.2198 Y160.3158 Z-5.128 I-119.6836 J69.4067
G3 X131.2195 Y160.3154 I1.8454 J-1.2431
G2 X123.8604 Y150.3139 Z-5.134 I-123.394 J83.0852
G3 X123.8598 Y150.3131 I1.7355 J-1.3923
G2 X119.2933 Y144.8763 Z-5.1374 I-120.821 J96.8441
G3 X119.2927 Y144.8756 I1.6705 J-1.4697
G2 X113.7806 Y138.9191 Z-5.1413 I-119.2844 J104.8556
G3 X113.7802 Y138.9188 I1.5939 J-1.5524
G2 X107.1253 Y132.4548 Z-5.1457 I-118.8884 J115.7428
G2 X87.7616 Y117.1056 Z-5.1576 I-115.7129 J126.0883
G1 X87.1123 Y116.6652 Z-5.1579
G2 X74.9966 Y109.1981 Z-5.1648 I-95.9332 J142.0944
G3 X74.9962 Y109.1979 I1.0878 J-1.941
G2 X60.4485 Y101.9497 Z-5.1726 I-81.509 J145.3725
G1 Y101.9498
G1 Y101.9497
G2 X52.4224 Y98.6876 Z-5.1767 I-63.5571 J144.8672
G3 X52.4211 Y98.687 I0.781 J-2.0834
G2 X48.2165 Y97.1789 Z-5.1789 I-52.6538 J140.1783
G1 X47.6804 Y96.9964 Z-5.1791
G2 X43.2769 Y95.5809 Z-5.1814 I-46.318 J136.5331
G1 X42.7179 Y95.4118 Z-5.1816
G1 X42.1566 Y95.2445 Z-5.1819
G2 X32.5255 Y92.748 Z-5.1867 I-41.1448 J138.9073
G2 X22.0909 Y90.8499 Z-5.1918 I-29.3182 J131.5442
G2 X16.6557 Y90.2007 Z-5.1944 I-18.2249 J129.4997
G1 X16.6556
G2 X4.9992 Y89.625 Z-5.2 I-11.7393 J119.3964
G1 Y89.225
G3 X-1.825 Y82.4 I0.0008 J-6.825
G1 Y49.325
G1 Y47.825 Z-4.0
G1 Y44.175
G1 Y42.675 Z-5.2
G1 Y3.0
G3 X3.0 Y-1.825 I4.825 J0.0
G1 X215.675
G1 X217.175 Z-4.0
G1 X220.825
G1 X222.325 Z-5.2
G1 X237.3593
G3 X248.907 Y12.546 I0.0 J11.825
G2 Y187.454 I396.6563 J87.454
G3 X237.3593 Y201.825 I-11.5477 J2.546
G1 X199.325
G1 X197.825 Z-4.0
G1 X194.175
G1 X192.675 Z-5.2
G1 X159.0983
G3 X147.8094 Y193.5201 I0.0 J-11.825
G2 X144.3107 Y183.8189 I-113.7204 J35.5311
G3 X144.3011 Y183.7952 I1.6884 J-0.6929
G2 X144.2579 Y183.69 I-3.6642 J1.4439
G3 X144.2483 Y183.6672 I1.6779 J-0.7178
G2 X139.8551 Y174.1464 I-116.3933 J47.9342
G3 X139.8545 Y174.1452 I1.6238 J-0.833
G2 X136.5026 Y168.0043 I-117.9223 J60.3795
G3 X136.5021 Y168.0034 I1.5783 J-0.9164
G2 X131.5515 Y160.0923 I-120.0296 J69.6074
G3 X131.5513 Y160.092 I1.5136 J-1.0196
G2 X124.1724 Y150.0636 I-123.7258 J83.3086
G3 X124.1719 Y150.063 I1.4235 J-1.142
G2 X119.5936 Y144.6121 I-121.1331 J97.0943
G3 X119.5931 Y144.6115 I1.3702 J-1.2055
G2 X114.0671 Y138.64 I-119.5848 J105.1197
G3 X114.0669 Y138.6397 I1.3074 J-1.2734
G2 X107.3958 Y132.1601 I-119.1751 J116.0219
G2 X87.9864 Y116.7747 I-115.9834 J126.3829
G1 X87.3365 Y116.3339
G2 X75.1922 Y108.8492 I-96.1574 J142.4256
G3 X75.1918 Y108.849 I0.8922 J-1.592
G2 X60.6092 Y101.5835 I-81.7047 J145.7214
G1 Y101.5834
G1 Y101.5835
G2 X52.5628 Y98.313 I-63.7178 J145.2335
G3 X52.5617 Y98.3126 I0.6406 J-1.7089
G2 X48.3457 Y96.8003 I-52.7945 J140.5527
G1 X47.8091 Y96.6177
G2 X43.3929 Y95.1981 I-46.4467 J136.9118
G1 X42.833 Y95.0287
G1 X42.2706 Y94.861
G2 X32.6125 Y92.3576 I-41.2588 J139.2907
G2 X22.1468 Y90.4539 I-29.4052 J131.9346
G2 X16.6948 Y89.8026 I-18.2808 J129.8958
G1 X16.6947
G2 X4.9993 Y89.225 I-11.7784 J119.7945
G1 X4.9992
G1 Y89.625
G3 X-2.225 Y82.4 Z-5.2054 I0.0008 J-7.225
G1 Y49.325 Z-5.2213
G1 Y47.825 Z-4.0
G1 Y44.175
G1 Y42.675 Z-5.2245
G1 Y3.0 Z-5.2435
G3 X3.0 Y-2.225 Z-5.2474 I5.225 J0.0
G1 X215.675 Z-5.3494
G1 X217.175 Z-4.0
G1 X220.825
G1 X222.325 Z-5.3526
G1 X237.3593 Z-5.3598
G3 X249.2976 Y12.6321 Z-5.3703 I0.0 J12.225
G2 Y187.3679 Z-5.4547 I396.2657 J87.3679
G3 X237.3593 Y202.225 Z-5.4652 I-11.9383 J2.6321
G1 X199.325 Z-5.4835
G1 X197.825 Z-4.0
G1 X194.175
G1 X192.675 Z-5.4866
G1 X159.0983 Z-5.5027
G3 X147.4275 Y193.6393 Z-5.5102 I0.0 J-12.225
G2 X143.9406 Y183.9708 Z-5.5151 I-113.3386 J35.412
G3 X143.929 Y183.9418 I2.0584 J-0.8447
G2 X143.8902 Y183.8474 Z-5.5152 I-3.2921 J1.2973
G3 X143.8785 Y183.8195 I2.0457 J-0.8751
G2 X139.4992 Y174.329 Z-5.5202 I-116.0234 J47.7819
G3 X139.4984 Y174.3275 I1.9797 J-1.0156
G2 X136.1567 Y168.2051 Z-5.5235 I-117.5662 J60.1972
G3 X136.1561 Y168.2041 I1.9242 J-1.1172
G2 X131.2198 Y160.3158 Z-5.528 I-119.6836 J69.4067
G3 X131.2195 Y160.3154 I1.8454 J-1.2431
G2 X123.8604 Y150.3139 Z-5.534 I-123.394 J83.0852
G3 X123.8598 Y150.3131 I1.7355 J-1.3923
G2 X119.2933 Y144.8763 Z-5.5374 I-120.821 J96.8441
G3 X119.2927 Y144.8756 I1.6705 J-1.4697
G2 X113.7806 Y138.9191 Z-5.5413 I-119.2844 J104.8556
G3 X113.7802 Y138.9188 I1.5939 J-1.5524
G2 X107.1253 Y132.4548 Z-5.5457 I-118.8884 J115.7428
G2 X87.7616 Y117.1056 Z-5.5576 I-115.7129 J126.0883
G1 X87.1123 Y116.6652 Z-5.5579
G2 X74.9966 Y109.1981 Z-5.5648 I-95.9332 J142.0944
G3 X74.9962 Y109.1979 I1.0878 J-1.941
G2 X60.4485 Y101.9497 Z-5.5726 I-81.509 J145.3725
G1 Y101.9498
G1 Y101.9497
G2 X52.4224 Y98.6876 Z-5.5767 I-63.5571 J144.8672
G3 X52.4211 Y98.687 I0.781 J-2.0834
G2 X48.2165 Y97.1789 Z-5.5789 I-52.6538 J140.1783
G1 X47.6804 Y96.9964 Z-5.5791
G2 X43.2769 Y95.5809 Z-5.5814 I-46.318 J136.5331
G1 X42.7179 Y95.4118 Z-5.5816
G1 X42.1566 Y95.2445 Z-5.5819
G2 X32.5255 Y92.748 Z-5.5867 I-41.1448 J138.9073
G2 X22.0909 Y90.8499 Z-5.5918 I-29.3182 J131.5442
G2 X16.6557 Y90.2007 Z-5.5944 I-18.2249 J129.4997
G1 X16.6556
G2 X4.9992 Y89.625 Z-5.6 I-11.7393 J119.3964
G1 Y89.225
G3 X-1.825 Y82.4 I0.0008 J-6.825
G1 Y49.325
G1 Y47.825 Z-4.0
G1 Y44.175
G1 Y42.675 Z-5.6
G1 Y3.0
G3 X3.0 Y-1.825 I4.825 J0.0
G1 X215.675
G1 X217.175 Z-4.0
G1 X220.825
G1 X222.325 Z-5.6
G1 X237.3593
G3 X248.907 Y12.546 I0.0 J11.825
G2 Y187.454 I396.6563 J87.454
G3 X237.3593 Y201.825 I-11.5477 J2.546
G1 X199.325
G1 X197.825 Z-4.0
G1 X194.175
G1 X192.675 Z-5.6
G1 X159.0983
G3 X147.8094 Y193.5201 I0.0 J-11.825
G2 X144.3107 Y183.8189 I-113.7204 J35.5311
G3 X144.3011 Y183.7952 I1.6884 J-0.6929
G2 X144.2579 Y183.69 I-3.6642 J1.4439
G3 X144.2483 Y183.6672 I1.6779 J-0.7178
G2 X139.8551 Y174.1464 I-116.3933 J47.9342
G3 X139.8545 Y174.1452 I1.6238 J-0.833
G2 X136.5026 Y168.0043 I-117.9223 J60.3795
G3 X136.5021 Y168.0034 I1.5783 J-0.9164
G2 X131.5515 Y160.0923 I-120.0296 J69.6074
G3 X131.5513 Y160.092 I1.5136 J-1.0196
G2 X124.1724 Y150.0636 I-123.7258 J83.3086
G3 X124.1719 Y150.063 I1.4235 J-1.142
G2 X119.5936 Y144.6121 I-121.1331 J97.0943
G3 X119.5931 Y144.6115 I1.3702 J-1.2055
G2 X114.0671 Y138.64 I-119.5848 J105.1197
G3 X114.0669 Y138.6397 I1.3074 J-1.2734
G2 X107.3958 Y132.1601 I-119.1751 J116.0219
G2 X87.9864 Y116.7747 I-115.9834 J126.3829
G1 X87.3365 Y116.3339
G2 X75.1922 Y108.8492 I-96.1574 J142.4256
G3 X75.1918 Y108.849 I0.8922 J-1.592
G2 X60.6092 Y101.5835 I-81.7047 J145.7214
G1 Y101.5834
G1 Y101.5835
G2 X52.5628 Y98.313 I-63.7178 J145.2335
G3 X52.5617 Y98.3126 I0.6406 J-1.7089
G2 X48.3457 Y96.8003 I-52.7945 J140.5527
G1 X47.8091 Y96.6177
G2 X43.3929 Y95.1981 I-46.4467 J136.9118
G1 X42.833 Y95.0287
G1 X42.2706 Y94.861
G2 X32.6125 Y92.3576 I-41.2588 J139.2907
G2 X22.1468 Y90.4539 I-29.4052 J131.9346
G2 X16.6948 Y89.8026 I-18.2808 J129.8958
G1 X16.6947
G2 X4.9993 Y89.225 I-11.7784 J119.7945
G1 X4.9992
G1 Y89.625
G3 X-2.225 Y82.4 Z-5.6054 I0.0008 J-7.225
G1 Y49.325 Z-5.6213
G1 Y47.825 Z-4.0
G1 Y44.175
G1 Y42.675 Z-5.6245
G1 Y3.0 Z-5.6435
G3 X3.0 Y-2.225 Z-5.6474 I5.225 J0.0
G1 X215.675 Z-5.7494
G1 X217.175 Z-4.0
G1 X220.825
G1 X222.325 Z-5.7526
G1 X237.3593 Z-5.7598
G3 X249.2976 Y12.6321 Z-5.7703 I0.0 J12.225
G2 Y187.3679 Z-5.8547 I396.2657 J87.3679
G3 X237.3593 Y202.225 Z-5.8652 I-11.9383 J2.6321
G1 X199.325 Z-5.8835
G1 X197.825 Z-4.0
G1 X194.175
G1 X192.675 Z-5.8866
G1 X159.0983 Z-5.9027
G3 X147.4275 Y193.6393 Z-5.9102 I0.0 J-12.225
G2 X143.9406 Y183.9708 Z-5.9151 I-113.3386 J35.412
G3 X143.929 Y183.9418 I2.0584 J-0.8447
G2 X143.8902 Y183.8474 Z-5.9152 I-3.2921 J1.2973
G3 X143.8785 Y183.8195 I2.0457 J-0.8751
G2 X139.4992 Y174.329 Z-5.9202 I-116.0234 J47.7819
G3 X139.4984 Y174.3275 I1.9797 J-1.0156
G2 X136.1567 Y168.2051 Z-5.9235 I-117.5662 J60.1972
G3 X136.1561 Y168.2041 I1.9242 J-1.1172
G2 X131.2198 Y160.3158 Z-5.928 I-119.6836 J69.4067
G3 X131.2195 Y160.3154 I1.8454 J-1.2431
G2 X123.8604 Y150.3139 Z-5.934 I-123.394 J83.0852
G3 X123.8598 Y150.3131 I1.7355 J-1.3923
G2 X119.2933 Y144.8763 Z-5.9374 I-120.821 J96.8441
G3 X119.2927 Y144.8756 I1.6705 J-1.4697
G2 X113.7806 Y138.9191 Z-5.9413 I-119.2844 J104.8556
G3 X113.7802 Y138.9188 I1.5939 J-1.5524
G2 X107.1253 Y132.4548 Z-5.9457 I-118.8884 J115.7428
G2 X87.7616 Y117.1056 Z-5.9576 I-115.7129 J126.0883
G1 X87.1123 Y116.6652 Z-5.9579
G2 X74.9966 Y109.1981 Z-5.9648 I-95.9332 J142.0944
G3 X74.9962 Y109.1979 I1.0878 J-1.941
G2 X60.4485 Y101.9497 Z-5.9726 I-81.509 J145.3725
G1 Y101.9498
G1 Y101.9497
G2 X52.4224 Y98.6876 Z-5.9767 I-63.5571 J144.8672
G3 X52.4211 Y98.687 I0.781 J-2.0834
G2 X48.2165 Y97.1789 Z-5.9789 I-52.6538 J140.1783
G1 X47.6804 Y96.9964 Z-5.9791
G2 X43.2769 Y95.5809 Z-5.9814 I-46.318 J136.5331
G1 X42.7179 Y95.4118 Z-5.9816
G1 X42.1566 Y95.2445 Z-5.9819
G2 X32.5255 Y92.748 Z-5.9867 I-41.1448 J138.9073
G2 X22.0909 Y90.8499 Z-5.9918 I-29.3182 J131.5442
G2 X16.6557 Y90.2007 Z-5.9944 I-18.2249 J129.4997
G1 X16.6556
G2 X4.9992 Y89.625 Z-6.0 I-11.7393 J119.3964
G1 Y89.225
G3 X-1.825 Y82.4 I0.0008 J-6.825
G1 Y49.325
G1 Y47.825 Z-4.0
G1 Y44.175
G1 Y42.675 Z-6.0
G1 Y3.0
G3 X3.0 Y-1.825 I4.825 J0.0
G1 X215.675
G1 X217.175 Z-4.0
G1 X220.825
G1 X222.325 Z-6.0
G1 X237.3593
G3 X248.907 Y12.546 I0.0 J11.825
G2 Y187.454 I396.6563 J87.454
G3 X237.3593 Y201.825 I-11.5477 J2.546
G1 X199.325
G1 X197.825 Z-4.0
G1 X194.175
G1 X192.675 Z-6.0
G1 X159.0983
G3 X147.8094 Y193.5201 I0.0 J-11.825
G2 X144.3107 Y183.8189 I-113.7204 J35.5311
G3 X144.3011 Y183.7952 I1.6884 J-0.6929
G2 X144.2579 Y183.69 I-3.6642 J1.4439
G3 X144.2483 Y183.6672 I1.6779 J-0.7178
G2 X139.8551 Y174.1464 I-116.3933 J47.9342
G3 X139.8545 Y174.1452 I1.6238 J-0.833
G2 X136.5026 Y168.0043 I-117.9223 J60.3795
G3 X136.5021 Y168.0034 I1.5783 J-0.9164
G2 X131.5515 Y160.0923 I-120.0296 J69.6074
G3 X131.5513 Y160.092 I1.5136 J-1.0196
G2 X124.1724 Y150.0636 I-123.7258 J83.3086
G3 X124.1719 Y150.063 I1.4235 J-1.142
G2 X119.5936 Y144.6121 I-121.1331 J97.0943
G3 X119.5931 Y144.6115 I1.3702 J-1.2055
G2 X114.0671 Y138.64 I-119.5848 J105.1197
G3 X114.0669 Y138.6397 I1.3074 J-1.2734
G2 X107.3958 Y132.1601 I-119.1751 J116.0219
G2 X87.9864 Y116.7747 I-115.9834 J126.3829
G1 X87.3365 Y116.3339
G2 X75.1922 Y108.8492 I-96.1574 J142.4256
G3 X75.1918 Y108.849 I0.8922 J-1.592
G2 X60.6092 Y101.5835 I-81.7047 J145.7214
G1 Y101.5834
G1 Y101.5835
G2 X52.5628 Y98.313 I-63.7178 J145.2335
G3 X52.5617 Y98.3126 I0.6406 J-1.7089
G2 X48.3457 Y96.8003 I-52.7945 J140.5527
G1 X47.8091 Y96.6177
G2 X43.3929 Y95.1981 I-46.4467 J136.9118
G1 X42.833 Y95.0287
G1 X42.2706 Y94.861
G2 X32.6125 Y92.3576 I-41.2588 J139.2907
G2 X22.1468 Y90.4539 I-29.4052 J131.9346
G2 X16.6948 Y89.8026 I-18.2808 J129.8958
G1 X16.6947
G2 X4.9993 Y89.225 I-11.7784 J119.7945
G1 X4.9992
G1 Y89.625
G3 X-2.225 Y82.4 Z-6.0054 I0.0008 J-7.225
G1 Y49.325 Z-6.0213
G1 Y47.825 Z-4.0
G1 Y44.175
G1 Y42.675 Z-6.0245
G1 Y3.0 Z-6.0435
G3 X3.0 Y-2.225 Z-6.0474 I5.225 J0.0
G1 X215.675 Z-6.1494
G1 X217.175 Z-4.0
G1 X220.825
G1 X222.325 Z-6.1526
G1 X237.3593 Z-6.1598
G3 X249.2976 Y12.6321 Z-6.1703 I0.0 J12.225
G2 Y187.3679 Z-6.2547 I396.2657 J87.3679
G3 X237.3593 Y202.225 Z-6.2652 I-11.9383 J2.6321
G1 X199.325 Z-6.2835
G1 X197.825 Z-4.0
G1 X194.175
G1 X192.675 Z-6.2866
G1 X159.0983 Z-6.3027
G3 X147.4275 Y193.6393 Z-6.3102 I0.0 J-12.225
G2 X143.9406 Y183.9708 Z-6.3151 I-113.3386 J35.412
G3 X143.929 Y183.9418 I2.0584 J-0.8447
G2 X143.8902 Y183.8474 Z-6.3152 I-3.2921 J1.2973
G3 X143.8785 Y183.8195 I2.0457 J-0.8751
G2 X139.4992 Y174.329 Z-6.3202 I-116.0234 J47.7819
G3 X139.4984 Y174.3275 I1.9797 J-1.0156
G2 X136.1567 Y168.2051 Z-6.3235 I-117.5662 J60.1972
G3 X136.1561 Y168.2041 I1.9242 J-1.1172
G2 X131.2198 Y160.3158 Z-6.328 I-119.6836 J69.4067
G3 X131.2195 Y160.3154 I1.8454 J-1.2431
G2 X123.8604 Y150.3139 Z-6.334 I-123.394 J83.0852
G3 X123.8598 Y150.3131 I1.7355 J-1.3923
G2 X119.2933 Y144.8763 Z-6.3374 I-120.821 J96.8441
G3 X119.2927 Y144.8756 I1.6705 J-1.4697
G2 X113.7806 Y138.9191 Z-6.3413 I-119.2844 J104.8556
G3 X113.7802 Y138.9188 I1.5939 J-1.5524
G2 X107.1253 Y132.4548 Z-6.3457 I-118.8884 J115.7428
G2 X87.7616 Y117.1056 Z-6.3576 I-115.7129 J126.0883
G1 X87.1123 Y116.6652 Z-6.3579
G2 X74.9966 Y109.1981 Z-6.3648 I-95.9332 J142.0944
G3 X74.9962 Y109.1979 I1.0878 J-1.941
G2 X60.4485 Y101.9497 Z-6.3726 I-81.509 J145.3725
G1 Y101.9498
G1 Y101.9497
G2 X52.4224 Y98.6876 Z-6.3767 I-63.5571 J144.8672
G3 X52.4211 Y98.687 I0.781 J-2.0834
G2 X48.2165 Y97.1789 Z-6.3789 I-52.6538 J140.1783
G1 X47.6804 Y96.9964 Z-6.3791
G2 X43.2769 Y95.5809 Z-6.3814 I-46.318 J136.5331
G1 X42.7179 Y95.4118 Z-6.3816
G1 X42.1566 Y95.2445 Z-6.3819
G2 X32.5255 Y92.748 Z-6.3867 I-41.1448 J138.9073
G2 X22.0909 Y90.8499 Z-6.3918 I-29.3182 J131.5442
G2 X16.6557 Y90.2007 Z-6.3944 I-18.2249 J129.4997
G1 X16.6556
G2 X4.9992 Y89.625 Z-6.4 I-11.7393 J119.3964
G1 Y89.225
G3 X-1.825 Y82.4 I0.0008 J-6.825
G1 Y49.325
G1 Y47.825 Z-4.0
G1 Y44.175
G1 Y42.675 Z-6.4
G1 Y3.0
G3 X3.0 Y-1.825 I4.825 J0.0
G1 X215.675
G1 X217.175 Z-4.0
G1 X220.825
G1 X222.325 Z-6.4
G1 X237.3593
G3 X248.907 Y12.546 I0.0 J11.825
G2 Y187.454 I396.6563 J87.454
G3 X237.3593 Y201.825 I-11.5477 J2.546
G1 X199.325
G1 X197.825 Z-4.0
G1 X194.175
G1 X192.675 Z-6.4
G1 X159.0983
G3 X147.8094 Y193.5201 I0.0 J-11.825
G2 X144.3107 Y183.8189 I-113.7204 J35.5311
G3 X144.3011 Y183.7952 I1.6884 J-0.6929
G2 X144.2579 Y183.69 I-3.6642 J1.4439
G3 X144.2483 Y183.6672 I1.6779 J-0.7178
G2 X139.8551 Y174.1464 I-116.3933 J47.9342
G3 X139.8545 Y174.1452 I1.6238 J-0.833
G2 X136.5026 Y168.0043 I-117.9223 J60.3795
G3 X136.5021 Y168.0034 I1.5783 J-0.9164
G2 X131.5515 Y160.0923 I-120.0296 J69.6074
G3 X131.5513 Y160.092 I1.5136 J-1.0196
G2 X124.1724 Y150.0636 I-123.7258 J83.3086
G3 X124.1719 Y150.063 I1.4235 J-1.142
G2 X119.5936 Y144.6121 I-121.1331 J97.0943
G3 X119.5931 Y144.6115 I1.3702 J-1.2055
G2 X114.0671 Y138.64 I-119.5848 J105.1197
G3 X114.0669 Y138.6397 I1.3074 J-1.2734
G2 X107.3958 Y132.1601 I-119.1751 J116.0219
G2 X87.9864 Y116.7747 I-115.9834 J126.3829
G1 X87.3365 Y116.3339
G2 X75.1922 Y108.8492 I-96.1574 J142.4256
G3 X75.1918 Y108.849 I0.8922 J-1.592
G2 X60.6092 Y101.5835 I-81.7047 J145.7214
G1 Y101.5834
G1 Y101.5835
G2 X52.5628 Y98.313 I-63.7178 J145.2335
G3 X52.5617 Y98.3126 I0.6406 J-1.7089
G2 X48.3457 Y96.8003 I-52.7945 J140.5527
G1 X47.8091 Y96.6177
G2 X43.3929 Y95.1981 I-46.4467 J136.9118
G1 X42.833 Y95.0287
G1 X42.2706 Y94.861
G2 X32.6125 Y92.3576 I-41.2588 J139.2907
G2 X22.1468 Y90.4539 I-29.4052 J131.9346
G2 X16.6948 Y89.8026 I-18.2808 J129.8958
G1 X16.6947
G2 X4.9993 Y89.225 I-11.7784 J119.7945
G1 X4.9992
G1 Y89.625
G3 X-2.225 Y82.4 Z-6.4054 I0.0008 J-7.225
G1 Y49.325 Z-6.4213
G1 Y47.825 Z-4.0
G1 Y44.175
G1 Y42.675 Z-6.4245
G1 Y3.0 Z-6.4435
G3 X3.0 Y-2.225 Z-6.4474 I5.225 J0.0
G1 X215.675 Z-6.5494
G1 X217.175 Z-4.0
G1 X220.825
G1 X222.325 Z-6.5526
G1 X237.3593 Z-6.5598
G3 X249.2976 Y12.6321 Z-6.5703 I0.0 J12.225
G2 Y187.3679 Z-6.6547 I396.2657 J87.3679
G3 X237.3593 Y202.225 Z-6.6652 I-11.9383 J2.6321
G1 X199.325 Z-6.6835
G1 X197.825 Z-4.0
G1 X194.175
G1 X192.675 Z-6.6866
G1 X159.0983 Z-6.7027
G3 X147.4275 Y193.6393 Z-6.7102 I0.0 J-12.225
G2 X143.9406 Y183.9708 Z-6.7151 I-113.3386 J35.412
G3 X143.929 Y183.9418 I2.0584 J-0.8447
G2 X143.8902 Y183.8474 Z-6.7152 I-3.2921 J1.2973
G3 X143.8785 Y183.8195 I2.0457 J-0.8751
G2 X139.4992 Y174.329 Z-6.7202 I-116.0234 J47.7819
G3 X139.4984 Y174.3275 I1.9797 J-1.0156
G2 X136.1567 Y168.2051 Z-6.7235 I-117.5662 J60.1972
G3 X136.1561 Y168.2041 I1.9242 J-1.1172
G2 X131.2198 Y160.3158 Z-6.728 I-119.6836 J69.4067
G3 X131.2195 Y160.3154 I1.8454 J-1.2431
G2 X123.8604 Y150.3139 Z-6.734 I-123.394 J83.0852
G3 X123.8598 Y150.3131 I1.7355 J-1.3923
G2 X119.2933 Y144.8763 Z-6.7374 I-120.821 J96.8441
G3 X119.2927 Y144.8756 I1.6705 J-1.4697
G2 X113.7806 Y138.9191 Z-6.7413 I-119.2844 J104.8556
G3 X113.7802 Y138.9188 I1.5939 J-1.5524
G2 X107.1253 Y132.4548 Z-6.7457 I-118.8884 J115.7428
G2 X87.7616 Y117.1056 Z-6.7576 I-115.7129 J126.0883
G1 X87.1123 Y116.6652 Z-6.7579
G2 X74.9966 Y109.1981 Z-6.7648 I-95.9332 J142.0944
G3 X74.9962 Y109.1979 I1.0878 J-1.941
G2 X60.4485 Y101.9497 Z-6.7726 I-81.509 J145.3725
G1 Y101.9498
G1 Y101.9497
G2 X52.4224 Y98.6876 Z-6.7767 I-63.5571 J144.8672
G3 X52.4211 Y98.687 I0.781 J-2.0834
G2 X48.2165 Y97.1789 Z-6.7789 I-52.6538 J140.1783
G1 X47.6804 Y96.9964 Z-6.7791
G2 X43.2769 Y95.5809 Z-6.7814 I-46.318 J136.5331
G1 X42.7179 Y95.4118 Z-6.7816
G1 X42.1566 Y95.2445 Z-6.7819
G2 X32.5255 Y92.748 Z-6.7867 I-41.1448 J138.9073
G2 X22.0909 Y90.8499 Z-6.7918 I-29.3182 J131.5442
G2 X16.6557 Y90.2007 Z-6.7944 I-18.2249 J129.4997
G1 X16.6556
G2 X4.9992 Y89.625 Z-6.8 I-11.7393 J119.3964
G1 Y89.225
G3 X-1.825 Y82.4 I0.0008 J-6.825
G1 Y49.325
G1 Y47.825 Z-4.0
G1 Y44.175
G1 Y42.675 Z-6.8
G1 Y3.0
G3 X3.0 Y-1.825 I4.825 J0.0
G1 X215.675
G1 X217.175 Z-4.0
G1 X220.825
G1 X222.325 Z-6.8
G1 X237.3593
G3 X248.907 Y12.546 I0.0 J11.825
G2 Y187.454 I396.6563 J87.454
G3 X237.3593 Y201.825 I-11.5477 J2.546
G1 X199.325
G1 X197.825 Z-4.0
G1 X194.175
G1 X192.675 Z-6.8
G1 X159.0983
G3 X147.8094 Y193.5201 I0.0 J-11.825
G2 X144.3107 Y183.8189 I-113.7204 J35.5311
G3 X144.3011 Y183.7952 I1.6884 J-0.6929
G2 X144.2579 Y183.69 I-3.6642 J1.4439
G3 X144.2483 Y183.6672 I1.6779 J-0.7178
G2 X139.8551 Y174.1464 I-116.3933 J47.9342
G3 X139.8545 Y174.1452 I1.6238 J-0.833
G2 X136.5026 Y168.0043 I-117.9223 J60.3795
G3 X136.5021 Y168.0034 I1.5783 J-0.9164
G2 X131.5515 Y160.0923 I-120.0296 J69.6074
G3 X131.5513 Y160.092 I1.5136 J-1.0196
G2 X124.1724 Y150.0636 I-123.7258 J83.3086
G3 X124.1719 Y150.063 I1.4235 J-1.142
G2 X119.5936 Y144.6121 I-121.1331 J97.0943
G3 X119.5931 Y144.6115 I1.3702 J-1.2055
G2 X114.0671 Y138.64 I-119.5848 J105.1197
G3 X114.0669 Y138.6397 I1.3074 J-1.2734
G2 X107.3958 Y132.1601 I-119.1751 J116.0219
G2 X87.9864 Y116.7747 I-115.9834 J126.3829
G1 X87.3365 Y116.3339
G2 X75.1922 Y108.8492 I-96.1574 J142.4256
G3 X75.1918 Y108.849 I0.8922 J-1.592
G2 X60.6092 Y101.5835 I-81.7047 J145.7214
G1 Y101.5834
G1 Y101.5835
G2 X52.5628 Y98.313 I-63.7178 J145.2335
G3 X52.5617 Y98.3126 I0.6406 J-1.7089
G2 X48.3457 Y96.8003 I-52.7945 J140.5527
G1 X47.8091 Y96.6177
G2 X43.3929 Y95.1981 I-46.4467 J136.9118
G1 X42.833 Y95.0287
G1 X42.2706 Y94.861
G2 X32.6125 Y92.3576 I-41.2588 J139.2907
G2 X22.1468 Y90.4539 I-29.4052 J131.9346
G2 X16.6948 Y89.8026 I-18.2808 J129.8958
G1 X16.6947
G2 X4.9993 Y89.225 I-11.7784 J119.7945
G1 X4.9992
G1 Y89.625
G3 X-2.225 Y82.4 Z-6.8027 I0.0008 J-7.225
G1 Y49.325 Z-6.8107
G1 Y47.825 Z-4.0
G1 Y44.175
G1 Y42.675 Z-6.8122
G1 Y3.0 Z-6.8218
G3 X3.0 Y-2.225 Z-6.8237 I5.225 J0.0
G1 X215.675 Z-6.8747
G1 X217.175 Z-4.0
G1 X220.825
G1 X222.325 Z-6.8763
G1 X237.3593 Z-6.8799
G3 X249.2976 Y12.6321 Z-6.8851 I0.0 J12.225
G2 Y187.3679 Z-6.9274 I396.2657 J87.3679
G3 X237.3593 Y202.225 Z-6.9326 I-11.9383 J2.6321
G1 X199.325 Z-6.9417
G1 X197.825 Z-4.0
G1 X194.175
G1 X192.675 Z-6.9433
G1 X159.0983 Z-6.9514
G3 X147.4275 Y193.6393 Z-6.9551 I0.0 J-12.225
G2 X143.9406 Y183.9708 Z-6.9576 I-113.3386 J35.412
G3 X143.929 Y183.9418 I2.0584 J-0.8447
G2 X143.8902 Y183.8474 I-3.2921 J1.2973
G3 X143.8785 Y183.8195 I2.0457 J-0.8751
G2 X139.4992 Y174.329 Z-6.9601 I-116.0234 J47.7819
G3 X139.4984 Y174.3275 I1.9797 J-1.0156
G2 X136.1567 Y168.2051 Z-6.9618 I-117.5662 J60.1972
G3 X136.1561 Y168.2041 I1.9242 J-1.1172
G2 X131.2198 Y160.3158 Z-6.964 I-119.6836 J69.4067
G3 X131.2195 Y160.3154 I1.8454 J-1.2431
G2 X123.8604 Y150.3139 Z-6.967 I-123.394 J83.0852
G3 X123.8598 Y150.3131 I1.7355 J-1.3923
G2 X119.2933 Y144.8763 Z-6.9687 I-120.821 J96.8441
G3 X119.2927 Y144.8756 I1.6705 J-1.4697
G2 X113.7806 Y138.9191 Z-6.9706 I-119.2844 J104.8556
G3 X113.7802 Y138.9188 I1.5939 J-1.5524
G2 X107.1253 Y132.4548 Z-6.9729 I-118.8884 J115.7428
G2 X87.7616 Y117.1056 Z-6.9788 I-115.7129 J126.0883
G1 X87.1123 Y116.6652 Z-6.979
G2 X74.9966 Y109.1981 Z-6.9824 I-95.9332 J142.0944
G3 X74.9962 Y109.1979 I1.0878 J-1.941
G2 X60.4485 Y101.9497 Z-6.9863 I-81.509 J145.3725
G1 Y101.9498
G1 Y101.9497
G2 X52.4224 Y98.6876 Z-6.9884 I-63.5571 J144.8672
G3 X52.4211 Y98.687 I0.781 J-2.0834
G2 X48.2165 Y97.1789 Z-6.9894 I-52.6538 J140.1783
G1 X47.6804 Y96.9964 Z-6.9896
G2 X43.2769 Y95.5809 Z-6.9907 I-46.318 J136.5331
G1 X42.7179 Y95.4118 Z-6.9908
G1 X42.1566 Y95.2445 Z-6.991
G2 X32.5255 Y92.748 Z-6.9933 I-41.1448 J138.9073
G2 X22.0909 Y90.8499 Z-6.9959 I-29.3182 J131.5442
G2 X16.6557 Y90.2007 Z-6.9972 I-18.2249 J129.4997
G1 X16.6556
G2 X4.9992 Y89.625 Z-7.0 I-11.7393 J119.3964
G3 X-2.225 Y82.4 I0.0008 J-7.225
G1 Y49.325
G1 Y47.825 Z-4.0
G1 Y44.175
G1 Y42.675 Z-7.0
G1 Y3.0
G3 X3.0 Y-2.225 I5.225 J0.0
G1 X215.675
G1 X217.175 Z-4.0
G1 X220.825
G1 X222.325 Z-7.0
G1 X237.3593
G3 X249.2976 Y12.6321 I0.0 J12.225
G2 Y187.3679 I396.2657 J87.3679
G3 X237.3593 Y202.225 I-11.9383 J2.6321
G1 X199.325
G1 X197.825 Z-4.0
G1 X194.175
G1 X192.675 Z-7.0
G1 X159.0983
G3 X147.4275 Y193.6393 I0.0 J-12.225
G2 X143.9406 Y183.9708 I-113.3386 J35.412
G3 X143.929 Y183.9418 I2.0584 J-0.8447
G2 X143.8902 Y183.8474 I-3.2921 J1.2973
G3 X143.8785 Y183.8195 I2.0457 J-0.8751
G2 X139.4992 Y174.329 I-116.0234 J47.7819
G3 X139.4984 Y174.3275 I1.9797 J-1.0156
G2 X136.1567 Y168.2051 I-117.5662 J60.1972
G3 X136.1561 Y168.2041 I1.9242 J-1.1172
G2 X131.2198 Y160.3158 I-119.6836 J69.4067
G3 X131.2195 Y160.3154 I1.8454 J-1.2431
G2 X123.8604 Y150.3139 I-123.394 J83.0852
G3 X123.8598 Y150.3131 I1.7355 J-1.3923
G2 X119.2933 Y144.8763 I-120.821 J96.8441
G3 X119.2927 Y144.8756 I1.6705 J-1.4697
G2 X113.7806 Y138.9191 I-119.2844 J104.8556
G3 X113.7802 Y138.9188 I1.5939 J-1.5524
G2 X107.1253 Y132.4548 I-118.8884 J115.7428
G2 X87.7616 Y117.1056 I-115.7129 J126.0883
G1 X87.1123 Y116.6652
G2 X74.9966 Y109.1981 I-95.9332 J142.0944
G3 X74.9962 Y109.1979 I1.0878 J-1.941
G2 X60.4485 Y101.9497 I-81.509 J145.3725
G1 Y101.9498
G1 Y101.9497
G2 X52.4224 Y98.6876 I-63.5571 J144.8672
G3 X52.4211 Y98.687 I0.781 J-2.0834
G2 X48.2165 Y97.1789 I-52.6538 J140.1783
G1 X47.6804 Y96.9964
G2 X43.2769 Y95.5809 I-46.318 J136.5331
G1 X42.7179 Y95.4118
G1 X42.1566 Y95.2445
G2 X32.5255 Y92.748 I-41.1448 J138.9073
G2 X22.0909 Y90.8499 I-29.3182 J131.5442
G2 X16.6557 Y90.2007 I-18.2249 J129.4997
G1 X16.6556
G2 X4.9992 Y89.625 I-11.7393 J119.3964
G1 Y89.225
G3 X-1.825 Y82.4 I0.0008 J-6.825
G1 Y49.325
G1 Y47.825 Z-4.0
G1 Y44.175
G1 Y42.675 Z-7.0
G1 Y3.0
G3 X3.0 Y-1.825 I4.825 J0.0
G1 X215.675
G1 X217.175 Z-4.0
G1 X220.825
G1 X222.325 Z-7.0
G1 X237.3593
G3 X248.907 Y12.546 I0.0 J11.825
G2 Y187.454 I396.6563 J87.454
G3 X237.3593 Y201.825 I-11.5477 J2.546
G1 X199.325
G1 X197.825 Z-4.0
G1 X194.175
G1 X192.675 Z-7.0
G1 X159.0983
G3 X147.8094 Y193.5201 I0.0 J-11.825
G2 X144.3107 Y183.8189 I-113.7204 J35.5311
G3 X144.3011 Y183.7952 I1.6884 J-0.6929
G2 X144.2579 Y183.69 I-3.6642 J1.4439
G3 X144.2483 Y183.6672 I1.6779 J-0.7178
G2 X139.8551 Y174.1464 I-116.3933 J47.9342
G3 X139.8545 Y174.1452 I1.6238 J-0.833
G2 X136.5026 Y168.0043 I-117.9223 J60.3795
G3 X136.5021 Y168.0034 I1.5783 J-0.9164
G2 X131.5515 Y160.0923 I-120.0296 J69.6074
G3 X131.5513 Y160.092 I1.5136 J-1.0196
G2 X124.1724 Y150.0636 I-123.7258 J83.3086
G3 X124.1719 Y150.063 I1.4235 J-1.142
G2 X119.5936 Y144.6121 I-121.1331 J97.0943
G3 X119.5931 Y144.6115 I1.3702 J-1.2055
G2 X114.0671 Y138.64 I-119.5848 J105.1197
G3 X114.0669 Y138.6397 I1.3074 J-1.2734
G2 X107.3958 Y132.1601 I-119.1751 J116.0219
G2 X87.9864 Y116.7747 I-115.9834 J126.3829
G1 X87.3365 Y116.3339
G2 X75.1922 Y108.8492 I-96.1574 J142.4256
G3 X75.1918 Y108.849 I0.8922 J-1.592
G2 X60.6092 Y101.5835 I-81.7047 J145.7214
G1 Y101.5834
G1 Y101.5835
G2 X52.5628 Y98.313 I-63.7178 J145.2335
G3 X52.5617 Y98.3126 I0.6406 J-1.7089
G2 X48.3457 Y96.8003 I-52.7945 J140.5527
G1 X47.8091 Y96.6177
G2 X43.3929 Y95.1981 I-46.4467 J136.9118
G1 X42.833 Y95.0287
G1 X42.2706 Y94.861
G2 X32.6125 Y92.3576 I-41.2588 J139.2907
G2 X22.1468 Y90.4539 I-29.4052 J131.9346
G2 X16.6948 Y89.8026 I-18.2808 J129.8958
G1 X16.6947
G2 X4.9993 Y89.225 I-11.7784 J119.7945
G1 X4.9992
G0 Z3.0
M5
M30
