( Made using CamBam - http://www.cambam.co.uk )
( RH OX-c side gantry TALL (Anti Backlash) 8/2/2015 8:26:09 PM )
( T0 : 3.65 )
G21 G90 G64 G40
G0 Z3.0
( T0 : 3.65 )
T0 M6
( Main Holes )
G17
M3 S1000
G0 X16.8425 Y73.57
G0 Z1.0
G1 F10.0 Z0.0
G2 F750.0 X16.2238 Y73.2128 Z-0.3333 I-0.4125 J0.0
G2 Y73.9272 Z-0.6667 I0.2063 J0.3572
G2 X16.8425 Y73.57 Z-1.0 I0.2062 J-0.3572
G2 X16.2238 Y73.2128 Z-1.3333 I-0.4125 J0.0
G2 Y73.9272 Z-1.6667 I0.2063 J0.3572
G2 X16.8425 Y73.57 Z-2.0 I0.2062 J-0.3572
G2 X16.2238 Y73.2128 Z-2.3333 I-0.4125 J0.0
G2 Y73.9272 Z-2.6667 I0.2063 J0.3572
G2 X16.8425 Y73.57 Z-3.0 I0.2062 J-0.3572
G2 X16.2238 Y73.2128 Z-3.3333 I-0.4125 J0.0
G2 Y73.9272 Z-3.6667 I0.2063 J0.3572
G2 X16.8425 Y73.57 Z-4.0 I0.2062 J-0.3572
G2 X16.2238 Y73.2128 Z-4.3333 I-0.4125 J0.0
G2 Y73.9272 Z-4.6667 I0.2063 J0.3572
G2 X16.8425 Y73.57 Z-5.0 I0.2062 J-0.3572
G2 X16.2238 Y73.2128 Z-5.3333 I-0.4125 J0.0
G2 Y73.9272 Z-5.6667 I0.2063 J0.3572
G2 X16.8425 Y73.57 Z-6.0 I0.2062 J-0.3572
G2 X16.2238 Y73.2128 Z-6.3333 I-0.4125 J0.0
G2 Y73.9272 Z-6.6667 I0.2063 J0.3572
G2 X16.8425 Y73.57 Z-7.0 I0.2062 J-0.3572
G2 X16.2238 Y73.2128 I-0.4125 J0.0
G2 Y73.9272 I0.2063 J0.3572
G2 X16.8425 Y73.57 I0.2062 J-0.3572
G0 Z3.0
G0 X29.3277 Y72.4598
G0 Z1.0
G1 F10.0 Z0.0
G2 F750.0 X29.6625 Y72.9846 Z-0.1526 I0.6723 J-0.0598
G2 X30.675 Y72.4 Z-0.4859 I0.3375 J-0.5846
G2 X29.6625 Y71.8154 Z-0.8192 I-0.675 J0.0
G2 X29.3277 Y72.4598 Z-1.0 I0.3375 J0.5846
G2 X29.6625 Y72.9846 Z-1.1526 I0.6723 J-0.0598
G2 X30.675 Y72.4 Z-1.4859 I0.3375 J-0.5846
G2 X29.6625 Y71.8154 Z-1.8192 I-0.675 J0.0
G2 X29.3277 Y72.4598 Z-2.0 I0.3375 J0.5846
G2 X29.6625 Y72.9846 Z-2.1526 I0.6723 J-0.0598
G2 X30.675 Y72.4 Z-2.4859 I0.3375 J-0.5846
G2 X29.6625 Y71.8154 Z-2.8192 I-0.675 J0.0
G2 X29.3277 Y72.4598 Z-3.0 I0.3375 J0.5846
G2 X29.6625 Y72.9846 Z-3.1526 I0.6723 J-0.0598
G2 X30.675 Y72.4 Z-3.4859 I0.3375 J-0.5846
G2 X29.6625 Y71.8154 Z-3.8192 I-0.675 J0.0
G2 X29.3277 Y72.4598 Z-4.0 I0.3375 J0.5846
G2 X29.6625 Y72.9846 Z-4.1526 I0.6723 J-0.0598
G2 X30.675 Y72.4 Z-4.4859 I0.3375 J-0.5846
G2 X29.6625 Y71.8154 Z-4.8192 I-0.675 J0.0
G2 X29.3277 Y72.4598 Z-5.0 I0.3375 J0.5846
G2 X29.6625 Y72.9846 Z-5.1526 I0.6723 J-0.0598
G2 X30.675 Y72.4 Z-5.4859 I0.3375 J-0.5846
G2 X29.6625 Y71.8154 Z-5.8192 I-0.675 J0.0
G2 X29.3277 Y72.4598 Z-6.0 I0.3375 J0.5846
G2 X29.6625 Y72.9846 Z-6.1526 I0.6723 J-0.0598
G2 X30.675 Y72.4 Z-6.4859 I0.3375 J-0.5846
G2 X29.6625 Y71.8154 Z-6.8192 I-0.675 J0.0
G2 X29.3277 Y72.4598 Z-7.0 I0.3375 J0.5846
G2 X29.6625 Y72.9846 I0.6723 J-0.0598
G2 X30.675 Y72.4 I0.3375 J-0.5846
G2 X29.6625 Y71.8154 I-0.675 J0.0
G2 X29.3277 Y72.4598 I0.3375 J0.5846
G0 Z3.0
G0 X49.325 Y72.402
G0 Z1.0
G1 F10.0 Z0.0
G2 F750.0 X49.6625 Y72.9846 Z-0.1662 I0.675 J-0.002
G2 X50.675 Y72.4 Z-0.4995 I0.3375 J-0.5846
G2 X49.6625 Y71.8154 Z-0.8329 I-0.675 J0.0
G2 X49.325 Y72.402 Z-1.0 I0.3375 J0.5846
G2 X49.6625 Y72.9846 Z-1.1662 I0.675 J-0.002
G2 X50.675 Y72.4 Z-1.4995 I0.3375 J-0.5846
G2 X49.6625 Y71.8154 Z-1.8329 I-0.675 J0.0
G2 X49.325 Y72.402 Z-2.0 I0.3375 J0.5846
G2 X49.6625 Y72.9846 Z-2.1662 I0.675 J-0.002
G2 X50.675 Y72.4 Z-2.4995 I0.3375 J-0.5846
G2 X49.6625 Y71.8154 Z-2.8329 I-0.675 J0.0
G2 X49.325 Y72.402 Z-3.0 I0.3375 J0.5846
G2 X49.6625 Y72.9846 Z-3.1662 I0.675 J-0.002
G2 X50.675 Y72.4 Z-3.4995 I0.3375 J-0.5846
G2 X49.6625 Y71.8154 Z-3.8329 I-0.675 J0.0
G2 X49.325 Y72.402 Z-4.0 I0.3375 J0.5846
G2 X49.6625 Y72.9846 Z-4.1662 I0.675 J-0.002
G2 X50.675 Y72.4 Z-4.4995 I0.3375 J-0.5846
G2 X49.6625 Y71.8154 Z-4.8329 I-0.675 J0.0
G2 X49.325 Y72.402 Z-5.0 I0.3375 J0.5846
G2 X49.6625 Y72.9846 Z-5.1662 I0.675 J-0.002
G2 X50.675 Y72.4 Z-5.4995 I0.3375 J-0.5846
G2 X49.6625 Y71.8154 Z-5.8329 I-0.675 J0.0
G2 X49.325 Y72.402 Z-6.0 I0.3375 J0.5846
G2 X49.6625 Y72.9846 Z-6.1662 I0.675 J-0.002
G2 X50.675 Y72.4 Z-6.4995 I0.3375 J-0.5846
G2 X49.6625 Y71.8154 Z-6.8329 I-0.675 J0.0
G2 X49.325 Y72.402 Z-7.0 I0.3375 J0.5846
G2 X49.6625 Y72.9846 I0.675 J-0.002
G2 X50.675 Y72.4 I0.3375 J-0.5846
G2 X49.6625 Y71.8154 I-0.675 J0.0
G2 X49.325 Y72.402 I0.3375 J0.5846
G0 Z3.0
G0 X63.1589 Y73.5363
G0 Z1.0
G1 F10.0 Z0.0
G2 F750.0 X63.3638 Y73.9272 Z-0.1797 I0.4111 J0.0337
G2 X63.9825 Y73.57 Z-0.513 I0.2062 J-0.3572
G2 X63.3638 Y73.2128 Z-0.8464 I-0.4125 J0.0
G2 X63.1589 Y73.5363 Z-1.0 I0.2063 J0.3572
G2 X63.3638 Y73.9272 Z-1.1797 I0.4111 J0.0337
G2 X63.9825 Y73.57 Z-1.513 I0.2062 J-0.3572
G2 X63.3638 Y73.2128 Z-1.8464 I-0.4125 J0.0
G2 X63.1589 Y73.5363 Z-2.0 I0.2063 J0.3572
G2 X63.3638 Y73.9272 Z-2.1797 I0.4111 J0.0337
G2 X63.9825 Y73.57 Z-2.513 I0.2062 J-0.3572
G2 X63.3638 Y73.2128 Z-2.8464 I-0.4125 J0.0
G2 X63.1589 Y73.5363 Z-3.0 I0.2063 J0.3572
G2 X63.3638 Y73.9272 Z-3.1797 I0.4111 J0.0337
G2 X63.9825 Y73.57 Z-3.513 I0.2062 J-0.3572
G2 X63.3638 Y73.2128 Z-3.8464 I-0.4125 J0.0
G2 X63.1589 Y73.5363 Z-4.0 I0.2063 J0.3572
G2 X63.3638 Y73.9272 Z-4.1797 I0.4111 J0.0337
G2 X63.9825 Y73.57 Z-4.513 I0.2062 J-0.3572
G2 X63.3638 Y73.2128 Z-4.8464 I-0.4125 J0.0
G2 X63.1589 Y73.5363 Z-5.0 I0.2063 J0.3572
G2 X63.3638 Y73.9272 Z-5.1797 I0.4111 J0.0337
G2 X63.9825 Y73.57 Z-5.513 I0.2062 J-0.3572
G2 X63.3638 Y73.2128 Z-5.8464 I-0.4125 J0.0
G2 X63.1589 Y73.5363 Z-6.0 I0.2063 J0.3572
G2 X63.3638 Y73.9272 Z-6.1797 I0.4111 J0.0337
G2 X63.9825 Y73.57 Z-6.513 I0.2062 J-0.3572
G2 X63.3638 Y73.2128 Z-6.8464 I-0.4125 J0.0
G2 X63.1589 Y73.5363 Z-7.0 I0.2063 J0.3572
G2 X63.3638 Y73.9272 I0.4111 J0.0337
G2 X63.9825 Y73.57 I0.2062 J-0.3572
G2 X63.3638 Y73.2128 I-0.4125 J0.0
G2 X63.1589 Y73.5363 I0.2063 J0.3572
G0 Z3.0
G0 X69.7921 Y53.0422
G0 Z1.0
G1 F10.0 Z0.0
G2 F750.0 X70.675 Y52.4 Z-0.2998 I0.2079 J-0.6422
G2 X69.6625 Y51.8154 Z-0.6332 I-0.675 J0.0
G2 Y52.9846 Z-0.9665 I0.3375 J0.5846
G2 X69.7921 Y53.0422 Z-1.0 I0.3375 J-0.5846
G2 X70.675 Y52.4 Z-1.2998 I0.2079 J-0.6422
G2 X69.6625 Y51.8154 Z-1.6332 I-0.675 J0.0
G2 Y52.9846 Z-1.9665 I0.3375 J0.5846
G2 X69.7921 Y53.0422 Z-2.0 I0.3375 J-0.5846
G2 X70.675 Y52.4 Z-2.2998 I0.2079 J-0.6422
G2 X69.6625 Y51.8154 Z-2.6332 I-0.675 J0.0
G2 Y52.9846 Z-2.9665 I0.3375 J0.5846
G2 X69.7921 Y53.0422 Z-3.0 I0.3375 J-0.5846
G2 X70.675 Y52.4 Z-3.2998 I0.2079 J-0.6422
G2 X69.6625 Y51.8154 Z-3.6332 I-0.675 J0.0
G2 Y52.9846 Z-3.9665 I0.3375 J0.5846
G2 X69.7921 Y53.0422 Z-4.0 I0.3375 J-0.5846
G2 X70.675 Y52.4 Z-4.2998 I0.2079 J-0.6422
G2 X69.6625 Y51.8154 Z-4.6332 I-0.675 J0.0
G2 Y52.9846 Z-4.9665 I0.3375 J0.5846
G2 X69.7921 Y53.0422 Z-5.0 I0.3375 J-0.5846
G2 X70.675 Y52.4 Z-5.2998 I0.2079 J-0.6422
G2 X69.6625 Y51.8154 Z-5.6332 I-0.675 J0.0
G2 Y52.9846 Z-5.9665 I0.3375 J0.5846
G2 X69.7921 Y53.0422 Z-6.0 I0.3375 J-0.5846
G2 X70.675 Y52.4 Z-6.2998 I0.2079 J-0.6422
G2 X69.6625 Y51.8154 Z-6.6332 I-0.675 J0.0
G2 Y52.9846 Z-6.9665 I0.3375 J0.5846
G2 X69.7921 Y53.0422 Z-7.0 I0.3375 J-0.5846
G2 X70.675 Y52.4 I0.2079 J-0.6422
G2 X69.6625 Y51.8154 I-0.675 J0.0
G2 Y52.9846 I0.3375 J0.5846
G2 X69.7921 Y53.0422 I0.3375 J-0.5846
G0 Z3.0
G0 X69.9967 Y10.675
G0 Z1.0
G1 F10.0 Z0.0
G2 F750.0 X70.675 Y10.0 Z-0.2508 I0.0033 J-0.675
G2 X69.6625 Y9.4154 Z-0.5841 I-0.675 J0.0
G2 Y10.5846 Z-0.9174 I0.3375 J0.5846
G2 X69.9967 Y10.675 Z-1.0 I0.3375 J-0.5846
G2 X70.675 Y10.0 Z-1.2508 I0.0033 J-0.675
G2 X69.6625 Y9.4154 Z-1.5841 I-0.675 J0.0
G2 Y10.5846 Z-1.9174 I0.3375 J0.5846
G2 X69.9967 Y10.675 Z-2.0 I0.3375 J-0.5846
G2 X70.675 Y10.0 Z-2.2508 I0.0033 J-0.675
G2 X69.6625 Y9.4154 Z-2.5841 I-0.675 J0.0
G2 Y10.5846 Z-2.9174 I0.3375 J0.5846
G2 X69.9967 Y10.675 Z-3.0 I0.3375 J-0.5846
G2 X70.675 Y10.0 Z-3.2508 I0.0033 J-0.675
G2 X69.6625 Y9.4154 Z-3.5841 I-0.675 J0.0
G2 Y10.5846 Z-3.9174 I0.3375 J0.5846
G2 X69.9967 Y10.675 Z-4.0 I0.3375 J-0.5846
G2 X70.675 Y10.0 Z-4.2508 I0.0033 J-0.675
G2 X69.6625 Y9.4154 Z-4.5841 I-0.675 J0.0
G2 Y10.5846 Z-4.9174 I0.3375 J0.5846
G2 X69.9967 Y10.675 Z-5.0 I0.3375 J-0.5846
G2 X70.675 Y10.0 Z-5.2508 I0.0033 J-0.675
G2 X69.6625 Y9.4154 Z-5.5841 I-0.675 J0.0
G2 Y10.5846 Z-5.9174 I0.3375 J0.5846
G2 X69.9967 Y10.675 Z-6.0 I0.3375 J-0.5846
G2 X70.675 Y10.0 Z-6.2508 I0.0033 J-0.675
G2 X69.6625 Y9.4154 Z-6.5841 I-0.675 J0.0
G2 Y10.5846 Z-6.9174 I0.3375 J0.5846
G2 X69.9967 Y10.675 Z-7.0 I0.3375 J-0.5846
G2 X70.675 Y10.0 I0.0033 J-0.675
G2 X69.6625 Y9.4154 I-0.675 J0.0
G2 Y10.5846 I0.3375 J0.5846
G2 X69.9967 Y10.675 I0.3375 J-0.5846
G0 Z3.0
G0 X50.6746 Y10.0228
G0 Z1.0
G1 F10.0 Z0.0
G2 F750.0 X50.675 Y10.0 Z-0.0054 I-0.6746 J-0.0228
G2 X49.6625 Y9.4154 Z-0.3387 I-0.675 J0.0
G2 Y10.5846 Z-0.672 I0.3375 J0.5846
G2 X50.6746 Y10.0228 Z-1.0 I0.3375 J-0.5846
G2 X50.675 Y10.0 Z-1.0054 I-0.6746 J-0.0228
G2 X49.6625 Y9.4154 Z-1.3387 I-0.675 J0.0
G2 Y10.5846 Z-1.672 I0.3375 J0.5846
G2 X50.6746 Y10.0228 Z-2.0 I0.3375 J-0.5846
G2 X50.675 Y10.0 Z-2.0054 I-0.6746 J-0.0228
G2 X49.6625 Y9.4154 Z-2.3387 I-0.675 J0.0
G2 Y10.5846 Z-2.672 I0.3375 J0.5846
G2 X50.6746 Y10.0228 Z-3.0 I0.3375 J-0.5846
G2 X50.675 Y10.0 Z-3.0054 I-0.6746 J-0.0228
G2 X49.6625 Y9.4154 Z-3.3387 I-0.675 J0.0
G2 Y10.5846 Z-3.672 I0.3375 J0.5846
G2 X50.6746 Y10.0228 Z-4.0 I0.3375 J-0.5846
G2 X50.675 Y10.0 Z-4.0054 I-0.6746 J-0.0228
G2 X49.6625 Y9.4154 Z-4.3387 I-0.675 J0.0
G2 Y10.5846 Z-4.672 I0.3375 J0.5846
G2 X50.6746 Y10.0228 Z-5.0 I0.3375 J-0.5846
G2 X50.675 Y10.0 Z-5.0054 I-0.6746 J-0.0228
G2 X49.6625 Y9.4154 Z-5.3387 I-0.675 J0.0
G2 Y10.5846 Z-5.672 I0.3375 J0.5846
G2 X50.6746 Y10.0228 Z-6.0 I0.3375 J-0.5846
G2 X50.675 Y10.0 Z-6.0054 I-0.6746 J-0.0228
G2 X49.6625 Y9.4154 Z-6.3387 I-0.675 J0.0
G2 Y10.5846 Z-6.672 I0.3375 J0.5846
G2 X50.6746 Y10.0228 Z-7.0 I0.3375 J-0.5846
G2 X50.675 Y10.0 I-0.6746 J-0.0228
G2 X49.6625 Y9.4154 I-0.675 J0.0
G2 Y10.5846 I0.3375 J0.5846
G2 X50.6746 Y10.0228 I0.3375 J-0.5846
G0 Z3.0
G0 X30.675 Y10.0007
G0 Z1.0
G1 F10.0 Z0.0
G2 F750.0 Y10.0 Z-0.0002 I-0.675 J-0.0007
G2 X29.6625 Y9.4154 Z-0.3335 I-0.675 J0.0
G2 Y10.5846 Z-0.6668 I0.3375 J0.5846
G2 X30.675 Y10.0007 Z-1.0 I0.3375 J-0.5846
G2 Y10.0 Z-1.0002 I-0.675 J-0.0007
G2 X29.6625 Y9.4154 Z-1.3335 I-0.675 J0.0
G2 Y10.5846 Z-1.6668 I0.3375 J0.5846
G2 X30.675 Y10.0007 Z-2.0 I0.3375 J-0.5846
G2 Y10.0 Z-2.0002 I-0.675 J-0.0007
G2 X29.6625 Y9.4154 Z-2.3335 I-0.675 J0.0
G2 Y10.5846 Z-2.6668 I0.3375 J0.5846
G2 X30.675 Y10.0007 Z-3.0 I0.3375 J-0.5846
G2 Y10.0 Z-3.0002 I-0.675 J-0.0007
G2 X29.6625 Y9.4154 Z-3.3335 I-0.675 J0.0
G2 Y10.5846 Z-3.6668 I0.3375 J0.5846
G2 X30.675 Y10.0007 Z-4.0 I0.3375 J-0.5846
G2 Y10.0 Z-4.0002 I-0.675 J-0.0007
G2 X29.6625 Y9.4154 Z-4.3335 I-0.675 J0.0
G2 Y10.5846 Z-4.6668 I0.3375 J0.5846
G2 X30.675 Y10.0007 Z-5.0 I0.3375 J-0.5846
G2 Y10.0 Z-5.0002 I-0.675 J-0.0007
G2 X29.6625 Y9.4154 Z-5.3335 I-0.675 J0.0
G2 Y10.5846 Z-5.6668 I0.3375 J0.5846
G2 X30.675 Y10.0007 Z-6.0 I0.3375 J-0.5846
G2 Y10.0 Z-6.0002 I-0.675 J-0.0007
G2 X29.6625 Y9.4154 Z-6.3335 I-0.675 J0.0
G2 Y10.5846 Z-6.6668 I0.3375 J0.5846
G2 X30.675 Y10.0007 Z-7.0 I0.3375 J-0.5846
G2 Y10.0 I-0.675 J-0.0007
G2 X29.6625 Y9.4154 I-0.675 J0.0
G2 Y10.5846 I0.3375 J0.5846
G2 X30.675 Y10.0007 I0.3375 J-0.5846
G0 Z3.0
G0 X10.675 Y10.0
G0 Z1.0
G1 F10.0 Z0.0
G2 F750.0 X9.6625 Y9.4154 Z-0.3333 I-0.675 J0.0
G2 Y10.5846 Z-0.6667 I0.3375 J0.5846
G2 X10.675 Y10.0 Z-1.0 I0.3375 J-0.5846
G2 X9.6625 Y9.4154 Z-1.3333 I-0.675 J0.0
G2 Y10.5846 Z-1.6667 I0.3375 J0.5846
G2 X10.675 Y10.0 Z-2.0 I0.3375 J-0.5846
G2 X9.6625 Y9.4154 Z-2.3333 I-0.675 J0.0
G2 Y10.5846 Z-2.6667 I0.3375 J0.5846
G2 X10.675 Y10.0 Z-3.0 I0.3375 J-0.5846
G2 X9.6625 Y9.4154 Z-3.3333 I-0.675 J0.0
G2 Y10.5846 Z-3.6667 I0.3375 J0.5846
G2 X10.675 Y10.0 Z-4.0 I0.3375 J-0.5846
G2 X9.6625 Y9.4154 Z-4.3333 I-0.675 J0.0
G2 Y10.5846 Z-4.6667 I0.3375 J0.5846
G2 X10.675 Y10.0 Z-5.0 I0.3375 J-0.5846
G2 X9.6625 Y9.4154 Z-5.3333 I-0.675 J0.0
G2 Y10.5846 Z-5.6667 I0.3375 J0.5846
G2 X10.675 Y10.0 Z-6.0 I0.3375 J-0.5846
G2 X9.6625 Y9.4154 Z-6.3333 I-0.675 J0.0
G2 Y10.5846 Z-6.6667 I0.3375 J0.5846
G2 X10.675 Y10.0 Z-7.0 I0.3375 J-0.5846
G2 X9.6625 Y9.4154 I-0.675 J0.0
G2 Y10.5846 I0.3375 J0.5846
G2 X10.675 Y10.0 I0.3375 J-0.5846
G0 Z3.0
G0 X10.0107 Y51.7251
G0 Z1.0
G1 F10.0 Z0.0
G2 F750.0 X9.6625 Y51.8154 Z-0.0859 I-0.0107 J0.6749
G2 Y52.9846 Z-0.4192 I0.3375 J0.5846
G2 X10.675 Y52.4 Z-0.7525 I0.3375 J-0.5846
G2 X10.0107 Y51.7251 Z-1.0 I-0.675 J0.0
G2 X9.6625 Y51.8154 Z-1.0859 I-0.0107 J0.6749
G2 Y52.9846 Z-1.4192 I0.3375 J0.5846
G2 X10.675 Y52.4 Z-1.7525 I0.3375 J-0.5846
G2 X10.0107 Y51.7251 Z-2.0 I-0.675 J0.0
G2 X9.6625 Y51.8154 Z-2.0859 I-0.0107 J0.6749
G2 Y52.9846 Z-2.4192 I0.3375 J0.5846
G2 X10.675 Y52.4 Z-2.7525 I0.3375 J-0.5846
G2 X10.0107 Y51.7251 Z-3.0 I-0.675 J0.0
G2 X9.6625 Y51.8154 Z-3.0859 I-0.0107 J0.6749
G2 Y52.9846 Z-3.4192 I0.3375 J0.5846
G2 X10.675 Y52.4 Z-3.7525 I0.3375 J-0.5846
G2 X10.0107 Y51.7251 Z-4.0 I-0.675 J0.0
G2 X9.6625 Y51.8154 Z-4.0859 I-0.0107 J0.6749
G2 Y52.9846 Z-4.4192 I0.3375 J0.5846
G2 X10.675 Y52.4 Z-4.7525 I0.3375 J-0.5846
G2 X10.0107 Y51.7251 Z-5.0 I-0.675 J0.0
G2 X9.6625 Y51.8154 Z-5.0859 I-0.0107 J0.6749
G2 Y52.9846 Z-5.4192 I0.3375 J0.5846
G2 X10.675 Y52.4 Z-5.7525 I0.3375 J-0.5846
G2 X10.0107 Y51.7251 Z-6.0 I-0.675 J0.0
G2 X9.6625 Y51.8154 Z-6.0859 I-0.0107 J0.6749
G2 Y52.9846 Z-6.4192 I0.3375 J0.5846
G2 X10.675 Y52.4 Z-6.7525 I0.3375 J-0.5846
G2 X10.0107 Y51.7251 Z-7.0 I-0.675 J0.0
G2 X9.6625 Y51.8154 I-0.0107 J0.6749
G2 Y52.9846 I0.3375 J0.5846
G2 X10.675 Y52.4 I0.3375 J-0.5846
G2 X10.0107 Y51.7251 I-0.675 J0.0
G0 Z3.0
G0 X159.775 Y15.4182
G0 Z1.0
G1 F10.0 Z0.0
G2 F750.0 X160.6125 Y16.5372 Z-0.1288 I1.725 J-0.4182
G2 X163.275 Y15.0 Z-0.4621 I0.8875 J-1.5372
G2 X160.6125 Y13.4628 Z-0.7955 I-1.775 J0.0
G2 X159.775 Y15.4182 Z-1.0 I0.8875 J1.5372
G2 X160.6125 Y16.5372 Z-1.1288 I1.725 J-0.4182
G2 X163.275 Y15.0 Z-1.4621 I0.8875 J-1.5372
G2 X160.6125 Y13.4628 Z-1.7955 I-1.775 J0.0
G2 X159.775 Y15.4182 Z-2.0 I0.8875 J1.5372
G2 X160.6125 Y16.5372 Z-2.1288 I1.725 J-0.4182
G2 X163.275 Y15.0 Z-2.4621 I0.8875 J-1.5372
G2 X160.6125 Y13.4628 Z-2.7955 I-1.775 J0.0
G2 X159.775 Y15.4182 Z-3.0 I0.8875 J1.5372
G2 X160.6125 Y16.5372 Z-3.1288 I1.725 J-0.4182
G2 X163.275 Y15.0 Z-3.4621 I0.8875 J-1.5372
G2 X160.6125 Y13.4628 Z-3.7955 I-1.775 J0.0
G2 X159.775 Y15.4182 Z-4.0 I0.8875 J1.5372
G2 X160.6125 Y16.5372 Z-4.1288 I1.725 J-0.4182
G2 X163.275 Y15.0 Z-4.4621 I0.8875 J-1.5372
G2 X160.6125 Y13.4628 Z-4.7955 I-1.775 J0.0
G2 X159.775 Y15.4182 Z-5.0 I0.8875 J1.5372
G2 X160.6125 Y16.5372 Z-5.1288 I1.725 J-0.4182
G2 X163.275 Y15.0 Z-5.4621 I0.8875 J-1.5372
G2 X160.6125 Y13.4628 Z-5.7955 I-1.775 J0.0
G2 X159.775 Y15.4182 Z-6.0 I0.8875 J1.5372
G2 X160.6125 Y16.5372 Z-6.1288 I1.725 J-0.4182
G2 X163.275 Y15.0 Z-6.4621 I0.8875 J-1.5372
G2 X160.6125 Y13.4628 Z-6.7955 I-1.775 J0.0
G2 X159.775 Y15.4182 Z-7.0 I0.8875 J1.5372
G2 X160.6125 Y16.5372 I1.725 J-0.4182
G2 X163.275 Y15.0 I0.8875 J-1.5372
G2 X160.6125 Y13.4628 I-1.775 J0.0
G2 X159.775 Y15.4182 I0.8875 J1.5372
G0 Z3.0
G0 X195.2151 Y15.0199
G0 Z1.0
G1 F10.0 Z0.0
G2 F750.0 X196.1025 Y16.5372 Z-0.1649 I1.7749 J-0.0199
G2 X198.765 Y15.0 Z-0.4982 I0.8875 J-1.5372
G2 X196.1025 Y13.4628 Z-0.8315 I-1.775 J0.0
G2 X195.2151 Y15.0199 Z-1.0 I0.8875 J1.5372
G2 X196.1025 Y16.5372 Z-1.1649 I1.7749 J-0.0199
G2 X198.765 Y15.0 Z-1.4982 I0.8875 J-1.5372
G2 X196.1025 Y13.4628 Z-1.8315 I-1.775 J0.0
G2 X195.2151 Y15.0199 Z-2.0 I0.8875 J1.5372
G2 X196.1025 Y16.5372 Z-2.1649 I1.7749 J-0.0199
G2 X198.765 Y15.0 Z-2.4982 I0.8875 J-1.5372
G2 X196.1025 Y13.4628 Z-2.8315 I-1.775 J0.0
G2 X195.2151 Y15.0199 Z-3.0 I0.8875 J1.5372
G2 X196.1025 Y16.5372 Z-3.1649 I1.7749 J-0.0199
G2 X198.765 Y15.0 Z-3.4982 I0.8875 J-1.5372
G2 X196.1025 Y13.4628 Z-3.8315 I-1.775 J0.0
G2 X195.2151 Y15.0199 Z-4.0 I0.8875 J1.5372
G2 X196.1025 Y16.5372 Z-4.1649 I1.7749 J-0.0199
G2 X198.765 Y15.0 Z-4.4982 I0.8875 J-1.5372
G2 X196.1025 Y13.4628 Z-4.8315 I-1.775 J0.0
G2 X195.2151 Y15.0199 Z-5.0 I0.8875 J1.5372
G2 X196.1025 Y16.5372 Z-5.1649 I1.7749 J-0.0199
G2 X198.765 Y15.0 Z-5.4982 I0.8875 J-1.5372
G2 X196.1025 Y13.4628 Z-5.8315 I-1.775 J0.0
G2 X195.2151 Y15.0199 Z-6.0 I0.8875 J1.5372
G2 X196.1025 Y16.5372 Z-6.1649 I1.7749 J-0.0199
G2 X198.765 Y15.0 Z-6.4982 I0.8875 J-1.5372
G2 X196.1025 Y13.4628 Z-6.8315 I-1.775 J0.0
G2 X195.2151 Y15.0199 Z-7.0 I0.8875 J1.5372
G2 X196.1025 Y16.5372 I1.7749 J-0.0199
G2 X198.765 Y15.0 I0.8875 J-1.5372
G2 X196.1025 Y13.4628 I-1.775 J0.0
G2 X195.2151 Y15.0199 I0.8875 J1.5372
G0 Z3.0
G0 X196.8851 Y43.2281
G0 Z1.0
G1 F10.0 Z0.0
G2 F750.0 X196.1025 Y43.4628 Z-0.0739 I0.1049 J1.7719
G2 Y46.5372 Z-0.4073 I0.8875 J1.5372
G2 X198.765 Y45.0 Z-0.7406 I0.8875 J-1.5372
G2 X196.8851 Y43.2281 Z-1.0 I-1.775 J0.0
G2 X196.1025 Y43.4628 Z-1.0739 I0.1049 J1.7719
G2 Y46.5372 Z-1.4073 I0.8875 J1.5372
G2 X198.765 Y45.0 Z-1.7406 I0.8875 J-1.5372
G2 X196.8851 Y43.2281 Z-2.0 I-1.775 J0.0
G2 X196.1025 Y43.4628 Z-2.0739 I0.1049 J1.7719
G2 Y46.5372 Z-2.4073 I0.8875 J1.5372
G2 X198.765 Y45.0 Z-2.7406 I0.8875 J-1.5372
G2 X196.8851 Y43.2281 Z-3.0 I-1.775 J0.0
G2 X196.1025 Y43.4628 Z-3.0739 I0.1049 J1.7719
G2 Y46.5372 Z-3.4073 I0.8875 J1.5372
G2 X198.765 Y45.0 Z-3.7406 I0.8875 J-1.5372
G2 X196.8851 Y43.2281 Z-4.0 I-1.775 J0.0
G2 X196.1025 Y43.4628 Z-4.0739 I0.1049 J1.7719
G2 Y46.5372 Z-4.4073 I0.8875 J1.5372
G2 X198.765 Y45.0 Z-4.7406 I0.8875 J-1.5372
G2 X196.8851 Y43.2281 Z-5.0 I-1.775 J0.0
G2 X196.1025 Y43.4628 Z-5.0739 I0.1049 J1.7719
G2 Y46.5372 Z-5.4073 I0.8875 J1.5372
G2 X198.765 Y45.0 Z-5.7406 I0.8875 J-1.5372
G2 X196.8851 Y43.2281 Z-6.0 I-1.775 J0.0
G2 X196.1025 Y43.4628 Z-6.0739 I0.1049 J1.7719
G2 Y46.5372 Z-6.4073 I0.8875 J1.5372
G2 X198.765 Y45.0 Z-6.7406 I0.8875 J-1.5372
G2 X196.8851 Y43.2281 Z-7.0 I-1.775 J0.0
G2 X196.1025 Y43.4628 I0.1049 J1.7719
G2 Y46.5372 I0.8875 J1.5372
G2 X198.765 Y45.0 I0.8875 J-1.5372
G2 X196.8851 Y43.2281 I-1.775 J0.0
G0 Z3.0
G0 X224.8163 Y44.9583
G0 Z1.0
G1 F10.0 Z0.0
G2 F750.0 X225.1525 Y45.5846 Z-0.1765 I0.6737 J0.0417
G2 X226.165 Y45.0 Z-0.5098 I0.3375 J-0.5846
G2 X225.1525 Y44.4154 Z-0.8432 I-0.675 J0.0
G2 X224.8163 Y44.9583 Z-1.0 I0.3375 J0.5846
G2 X225.1525 Y45.5846 Z-1.1765 I0.6737 J0.0417
G2 X226.165 Y45.0 Z-1.5098 I0.3375 J-0.5846
G2 X225.1525 Y44.4154 Z-1.8432 I-0.675 J0.0
G2 X224.8163 Y44.9583 Z-2.0 I0.3375 J0.5846
G2 X225.1525 Y45.5846 Z-2.1765 I0.6737 J0.0417
G2 X226.165 Y45.0 Z-2.5098 I0.3375 J-0.5846
G2 X225.1525 Y44.4154 Z-2.8432 I-0.675 J0.0
G2 X224.8163 Y44.9583 Z-3.0 I0.3375 J0.5846
G2 X225.1525 Y45.5846 Z-3.1765 I0.6737 J0.0417
G2 X226.165 Y45.0 Z-3.5098 I0.3375 J-0.5846
G2 X225.1525 Y44.4154 Z-3.8432 I-0.675 J0.0
G2 X224.8163 Y44.9583 Z-4.0 I0.3375 J0.5846
G2 X225.1525 Y45.5846 Z-4.1765 I0.6737 J0.0417
G2 X226.165 Y45.0 Z-4.5098 I0.3375 J-0.5846
G2 X225.1525 Y44.4154 Z-4.8432 I-0.675 J0.0
G2 X224.8163 Y44.9583 Z-5.0 I0.3375 J0.5846
G2 X225.1525 Y45.5846 Z-5.1765 I0.6737 J0.0417
G2 X226.165 Y45.0 Z-5.5098 I0.3375 J-0.5846
G2 X225.1525 Y44.4154 Z-5.8432 I-0.675 J0.0
G2 X224.8163 Y44.9583 Z-6.0 I0.3375 J0.5846
G2 X225.1525 Y45.5846 Z-6.1765 I0.6737 J0.0417
G2 X226.165 Y45.0 Z-6.5098 I0.3375 J-0.5846
G2 X225.1525 Y44.4154 Z-6.8432 I-0.675 J0.0
G2 X224.8163 Y44.9583 Z-7.0 I0.3375 J0.5846
G2 X225.1525 Y45.5846 I0.6737 J0.0417
G2 X226.165 Y45.0 I0.3375 J-0.5846
G2 X225.1525 Y44.4154 I-0.675 J0.0
G2 X224.8163 Y44.9583 I0.3375 J0.5846
G0 Z3.0
G0 X221.3285 Y71.3308
G0 Z1.0
G1 F10.0 Z0.0
G2 F750.0 X220.9025 Y71.4154 Z-0.1043 I-0.0885 J0.6692
G2 Y72.5846 Z-0.4376 I0.3375 J0.5846
G2 X221.915 Y72.0 Z-0.7709 I0.3375 J-0.5846
G2 X221.3285 Y71.3308 Z-1.0 I-0.675 J0.0
G2 X220.9025 Y71.4154 Z-1.1043 I-0.0885 J0.6692
G2 Y72.5846 Z-1.4376 I0.3375 J0.5846
G2 X221.915 Y72.0 Z-1.7709 I0.3375 J-0.5846
G2 X221.3285 Y71.3308 Z-2.0 I-0.675 J0.0
G2 X220.9025 Y71.4154 Z-2.1043 I-0.0885 J0.6692
G2 Y72.5846 Z-2.4376 I0.3375 J0.5846
G2 X221.915 Y72.0 Z-2.7709 I0.3375 J-0.5846
G2 X221.3285 Y71.3308 Z-3.0 I-0.675 J0.0
G2 X220.9025 Y71.4154 Z-3.1043 I-0.0885 J0.6692
G2 Y72.5846 Z-3.4376 I0.3375 J0.5846
G2 X221.915 Y72.0 Z-3.7709 I0.3375 J-0.5846
G2 X221.3285 Y71.3308 Z-4.0 I-0.675 J0.0
G2 X220.9025 Y71.4154 Z-4.1043 I-0.0885 J0.6692
G2 Y72.5846 Z-4.4376 I0.3375 J0.5846
G2 X221.915 Y72.0 Z-4.7709 I0.3375 J-0.5846
G2 X221.3285 Y71.3308 Z-5.0 I-0.675 J0.0
G2 X220.9025 Y71.4154 Z-5.1043 I-0.0885 J0.6692
G2 Y72.5846 Z-5.4376 I0.3375 J0.5846
G2 X221.915 Y72.0 Z-5.7709 I0.3375 J-0.5846
G2 X221.3285 Y71.3308 Z-6.0 I-0.675 J0.0
G2 X220.9025 Y71.4154 Z-6.1043 I-0.0885 J0.6692
G2 Y72.5846 Z-6.4376 I0.3375 J0.5846
G2 X221.915 Y72.0 Z-6.7709 I0.3375 J-0.5846
G2 X221.3285 Y71.3308 Z-7.0 I-0.675 J0.0
G2 X220.9025 Y71.4154 I-0.0885 J0.6692
G2 Y72.5846 I0.3375 J0.5846
G2 X221.915 Y72.0 I0.3375 J-0.5846
G2 X221.3285 Y71.3308 I-0.675 J0.0
G0 Z3.0
G0 X201.9146 Y71.9775
G0 Z1.0
G1 F10.0 Z0.0
G2 F750.0 X200.9025 Y71.4154 Z-0.328 I-0.6746 J0.0225
G2 Y72.5846 Z-0.6614 I0.3375 J0.5846
G2 X201.915 Y72.0 Z-0.9947 I0.3375 J-0.5846
G2 X201.9146 Y71.9775 Z-1.0 I-0.675 J0.0
G2 X200.9025 Y71.4154 Z-1.328 I-0.6746 J0.0225
G2 Y72.5846 Z-1.6614 I0.3375 J0.5846
G2 X201.915 Y72.0 Z-1.9947 I0.3375 J-0.5846
G2 X201.9146 Y71.9775 Z-2.0 I-0.675 J0.0
G2 X200.9025 Y71.4154 Z-2.328 I-0.6746 J0.0225
G2 Y72.5846 Z-2.6614 I0.3375 J0.5846
G2 X201.915 Y72.0 Z-2.9947 I0.3375 J-0.5846
G2 X201.9146 Y71.9775 Z-3.0 I-0.675 J0.0
G2 X200.9025 Y71.4154 Z-3.328 I-0.6746 J0.0225
G2 Y72.5846 Z-3.6614 I0.3375 J0.5846
G2 X201.915 Y72.0 Z-3.9947 I0.3375 J-0.5846
G2 X201.9146 Y71.9775 Z-4.0 I-0.675 J0.0
G2 X200.9025 Y71.4154 Z-4.328 I-0.6746 J0.0225
G2 Y72.5846 Z-4.6614 I0.3375 J0.5846
G2 X201.915 Y72.0 Z-4.9947 I0.3375 J-0.5846
G2 X201.9146 Y71.9775 Z-5.0 I-0.675 J0.0
G2 X200.9025 Y71.4154 Z-5.328 I-0.6746 J0.0225
G2 Y72.5846 Z-5.6614 I0.3375 J0.5846
G2 X201.915 Y72.0 Z-5.9947 I0.3375 J-0.5846
G2 X201.9146 Y71.9775 Z-6.0 I-0.675 J0.0
G2 X200.9025 Y71.4154 Z-6.328 I-0.6746 J0.0225
G2 Y72.5846 Z-6.6614 I0.3375 J0.5846
G2 X201.915 Y72.0 Z-6.9947 I0.3375 J-0.5846
G2 X201.9146 Y71.9775 Z-7.0 I-0.675 J0.0
G2 X200.9025 Y71.4154 I-0.6746 J0.0225
G2 Y72.5846 I0.3375 J0.5846
G2 X201.915 Y72.0 I0.3375 J-0.5846
G2 X201.9146 Y71.9775 I-0.675 J0.0
G0 Z3.0
G0 X162.9587 Y98.9886
G0 Z1.0
G1 F10.0 Z0.0
G2 F750.0 X160.6125 Y98.4628 Z-0.2368 I-1.4587 J1.0114
G2 Y101.5372 Z-0.5702 I0.8875 J1.5372
G2 X163.275 Y100.0 Z-0.9035 I0.8875 J-1.5372
G2 X162.9587 Y98.9886 Z-1.0 I-1.775 J0.0
G2 X160.6125 Y98.4628 Z-1.2368 I-1.4587 J1.0114
G2 Y101.5372 Z-1.5702 I0.8875 J1.5372
G2 X163.275 Y100.0 Z-1.9035 I0.8875 J-1.5372
G2 X162.9587 Y98.9886 Z-2.0 I-1.775 J0.0
G2 X160.6125 Y98.4628 Z-2.2368 I-1.4587 J1.0114
G2 Y101.5372 Z-2.5702 I0.8875 J1.5372
G2 X163.275 Y100.0 Z-2.9035 I0.8875 J-1.5372
G2 X162.9587 Y98.9886 Z-3.0 I-1.775 J0.0
G2 X160.6125 Y98.4628 Z-3.2368 I-1.4587 J1.0114
G2 Y101.5372 Z-3.5702 I0.8875 J1.5372
G2 X163.275 Y100.0 Z-3.9035 I0.8875 J-1.5372
G2 X162.9587 Y98.9886 Z-4.0 I-1.775 J0.0
G2 X160.6125 Y98.4628 Z-4.2368 I-1.4587 J1.0114
G2 Y101.5372 Z-4.5702 I0.8875 J1.5372
G2 X163.275 Y100.0 Z-4.9035 I0.8875 J-1.5372
G2 X162.9587 Y98.9886 Z-5.0 I-1.775 J0.0
G2 X160.6125 Y98.4628 Z-5.2368 I-1.4587 J1.0114
G2 Y101.5372 Z-5.5702 I0.8875 J1.5372
G2 X163.275 Y100.0 Z-5.9035 I0.8875 J-1.5372
G2 X162.9587 Y98.9886 Z-6.0 I-1.775 J0.0
G2 X160.6125 Y98.4628 Z-6.2368 I-1.4587 J1.0114
G2 Y101.5372 Z-6.5702 I0.8875 J1.5372
G2 X163.275 Y100.0 Z-6.9035 I0.8875 J-1.5372
G2 X162.9587 Y98.9886 Z-7.0 I-1.775 J0.0
G2 X160.6125 Y98.4628 I-1.4587 J1.0114
G2 Y101.5372 I0.8875 J1.5372
G2 X163.275 Y100.0 I0.8875 J-1.5372
G2 X162.9587 Y98.9886 I-1.775 J0.0
G0 Z3.0
G0 X200.702 Y127.5923
G0 Z1.0
G1 F10.0 Z0.0
G2 F750.0 X200.9025 Y128.5846 Z-0.2699 I0.538 J0.4077
G2 X201.915 Y128.0 Z-0.6032 I0.3375 J-0.5846
G2 X200.9025 Y127.4154 Z-0.9365 I-0.675 J0.0
G2 X200.702 Y127.5923 Z-1.0 I0.3375 J0.5846
G2 X200.9025 Y128.5846 Z-1.2699 I0.538 J0.4077
G2 X201.915 Y128.0 Z-1.6032 I0.3375 J-0.5846
G2 X200.9025 Y127.4154 Z-1.9365 I-0.675 J0.0
G2 X200.702 Y127.5923 Z-2.0 I0.3375 J0.5846
G2 X200.9025 Y128.5846 Z-2.2699 I0.538 J0.4077
G2 X201.915 Y128.0 Z-2.6032 I0.3375 J-0.5846
G2 X200.9025 Y127.4154 Z-2.9365 I-0.675 J0.0
G2 X200.702 Y127.5923 Z-3.0 I0.3375 J0.5846
G2 X200.9025 Y128.5846 Z-3.2699 I0.538 J0.4077
G2 X201.915 Y128.0 Z-3.6032 I0.3375 J-0.5846
G2 X200.9025 Y127.4154 Z-3.9365 I-0.675 J0.0
G2 X200.702 Y127.5923 Z-4.0 I0.3375 J0.5846
G2 X200.9025 Y128.5846 Z-4.2699 I0.538 J0.4077
G2 X201.915 Y128.0 Z-4.6032 I0.3375 J-0.5846
G2 X200.9025 Y127.4154 Z-4.9365 I-0.675 J0.0
G2 X200.702 Y127.5923 Z-5.0 I0.3375 J0.5846
G2 X200.9025 Y128.5846 Z-5.2699 I0.538 J0.4077
G2 X201.915 Y128.0 Z-5.6032 I0.3375 J-0.5846
G2 X200.9025 Y127.4154 Z-5.9365 I-0.675 J0.0
G2 X200.702 Y127.5923 Z-6.0 I0.3375 J0.5846
G2 X200.9025 Y128.5846 Z-6.2699 I0.538 J0.4077
G2 X201.915 Y128.0 Z-6.6032 I0.3375 J-0.5846
G2 X200.9025 Y127.4154 Z-6.9365 I-0.675 J0.0
G2 X200.702 Y127.5923 Z-7.0 I0.3375 J0.5846
G2 X200.9025 Y128.5846 I0.538 J0.4077
G2 X201.915 Y128.0 I0.3375 J-0.5846
G2 X200.9025 Y127.4154 I-0.675 J0.0
G2 X200.702 Y127.5923 I0.3375 J0.5846
G0 Z3.0
G0 X220.5651 Y127.9866
G0 Z1.0
G1 F10.0 Z0.0
G2 F750.0 X220.9025 Y128.5846 Z-0.1698 I0.6749 J0.0134
G2 X221.915 Y128.0 Z-0.5032 I0.3375 J-0.5846
G2 X220.9025 Y127.4154 Z-0.8365 I-0.675 J0.0
G2 X220.5651 Y127.9866 Z-1.0 I0.3375 J0.5846
G2 X220.9025 Y128.5846 Z-1.1698 I0.6749 J0.0134
G2 X221.915 Y128.0 Z-1.5032 I0.3375 J-0.5846
G2 X220.9025 Y127.4154 Z-1.8365 I-0.675 J0.0
G2 X220.5651 Y127.9866 Z-2.0 I0.3375 J0.5846
G2 X220.9025 Y128.5846 Z-2.1698 I0.6749 J0.0134
G2 X221.915 Y128.0 Z-2.5032 I0.3375 J-0.5846
G2 X220.9025 Y127.4154 Z-2.8365 I-0.675 J0.0
G2 X220.5651 Y127.9866 Z-3.0 I0.3375 J0.5846
G2 X220.9025 Y128.5846 Z-3.1698 I0.6749 J0.0134
G2 X221.915 Y128.0 Z-3.5032 I0.3375 J-0.5846
G2 X220.9025 Y127.4154 Z-3.8365 I-0.675 J0.0
G2 X220.5651 Y127.9866 Z-4.0 I0.3375 J0.5846
G2 X220.9025 Y128.5846 Z-4.1698 I0.6749 J0.0134
G2 X221.915 Y128.0 Z-4.5032 I0.3375 J-0.5846
G2 X220.9025 Y127.4154 Z-4.8365 I-0.675 J0.0
G2 X220.5651 Y127.9866 Z-5.0 I0.3375 J0.5846
G2 X220.9025 Y128.5846 Z-5.1698 I0.6749 J0.0134
G2 X221.915 Y128.0 Z-5.5032 I0.3375 J-0.5846
G2 X220.9025 Y127.4154 Z-5.8365 I-0.675 J0.0
G2 X220.5651 Y127.9866 Z-6.0 I0.3375 J0.5846
G2 X220.9025 Y128.5846 Z-6.1698 I0.6749 J0.0134
G2 X221.915 Y128.0 Z-6.5032 I0.3375 J-0.5846
G2 X220.9025 Y127.4154 Z-6.8365 I-0.675 J0.0
G2 X220.5651 Y127.9866 Z-7.0 I0.3375 J0.5846
G2 X220.9025 Y128.5846 I0.6749 J0.0134
G2 X221.915 Y128.0 I0.3375 J-0.5846
G2 X220.9025 Y127.4154 I-0.675 J0.0
G2 X220.5651 Y127.9866 I0.3375 J0.5846
G0 Z3.0
G0 X225.3689 Y154.3359
G0 Z1.0
G1 F10.0 Z0.0
G2 F750.0 X225.1525 Y154.4154 Z-0.0546 I0.1211 J0.6641
G2 Y155.5846 Z-0.388 I0.3375 J0.5846
G2 X226.165 Y155.0 Z-0.7213 I0.3375 J-0.5846
G2 X225.3689 Y154.3359 Z-1.0 I-0.675 J0.0
G2 X225.1525 Y154.4154 Z-1.0546 I0.1211 J0.6641
G2 Y155.5846 Z-1.388 I0.3375 J0.5846
G2 X226.165 Y155.0 Z-1.7213 I0.3375 J-0.5846
G2 X225.3689 Y154.3359 Z-2.0 I-0.675 J0.0
G2 X225.1525 Y154.4154 Z-2.0546 I0.1211 J0.6641
G2 Y155.5846 Z-2.388 I0.3375 J0.5846
G2 X226.165 Y155.0 Z-2.7213 I0.3375 J-0.5846
G2 X225.3689 Y154.3359 Z-3.0 I-0.675 J0.0
G2 X225.1525 Y154.4154 Z-3.0546 I0.1211 J0.6641
G2 Y155.5846 Z-3.388 I0.3375 J0.5846
G2 X226.165 Y155.0 Z-3.7213 I0.3375 J-0.5846
G2 X225.3689 Y154.3359 Z-4.0 I-0.675 J0.0
G2 X225.1525 Y154.4154 Z-4.0546 I0.1211 J0.6641
G2 Y155.5846 Z-4.388 I0.3375 J0.5846
G2 X226.165 Y155.0 Z-4.7213 I0.3375 J-0.5846
G2 X225.3689 Y154.3359 Z-5.0 I-0.675 J0.0
G2 X225.1525 Y154.4154 Z-5.0546 I0.1211 J0.6641
G2 Y155.5846 Z-5.388 I0.3375 J0.5846
G2 X226.165 Y155.0 Z-5.7213 I0.3375 J-0.5846
G2 X225.3689 Y154.3359 Z-6.0 I-0.675 J0.0
G2 X225.1525 Y154.4154 Z-6.0546 I0.1211 J0.6641
G2 Y155.5846 Z-6.388 I0.3375 J0.5846
G2 X226.165 Y155.0 Z-6.7213 I0.3375 J-0.5846
G2 X225.3689 Y154.3359 Z-7.0 I-0.675 J0.0
G2 X225.1525 Y154.4154 I0.1211 J0.6641
G2 Y155.5846 I0.3375 J0.5846
G2 X226.165 Y155.0 I0.3375 J-0.5846
G2 X225.3689 Y154.3359 I-0.675 J0.0
G0 Z3.0
G0 X198.7645 Y154.9585
G0 Z1.0
G1 F10.0 Z0.0
G2 F750.0 X196.1025 Y153.4628 Z-0.3296 I-1.7745 J0.0415
G2 Y156.5372 Z-0.6629 I0.8875 J1.5372
G2 X198.765 Y155.0 Z-0.9963 I0.8875 J-1.5372
G2 X198.7645 Y154.9585 Z-1.0 I-1.775 J0.0
G2 X196.1025 Y153.4628 Z-1.3296 I-1.7745 J0.0415
G2 Y156.5372 Z-1.6629 I0.8875 J1.5372
G2 X198.765 Y155.0 Z-1.9963 I0.8875 J-1.5372
G2 X198.7645 Y154.9585 Z-2.0 I-1.775 J0.0
G2 X196.1025 Y153.4628 Z-2.3296 I-1.7745 J0.0415
G2 Y156.5372 Z-2.6629 I0.8875 J1.5372
G2 X198.765 Y155.0 Z-2.9963 I0.8875 J-1.5372
G2 X198.7645 Y154.9585 Z-3.0 I-1.775 J0.0
G2 X196.1025 Y153.4628 Z-3.3296 I-1.7745 J0.0415
G2 Y156.5372 Z-3.6629 I0.8875 J1.5372
G2 X198.765 Y155.0 Z-3.9963 I0.8875 J-1.5372
G2 X198.7645 Y154.9585 Z-4.0 I-1.775 J0.0
G2 X196.1025 Y153.4628 Z-4.3296 I-1.7745 J0.0415
G2 Y156.5372 Z-4.6629 I0.8875 J1.5372
G2 X198.765 Y155.0 Z-4.9963 I0.8875 J-1.5372
G2 X198.7645 Y154.9585 Z-5.0 I-1.775 J0.0
G2 X196.1025 Y153.4628 Z-5.3296 I-1.7745 J0.0415
G2 Y156.5372 Z-5.6629 I0.8875 J1.5372
G2 X198.765 Y155.0 Z-5.9963 I0.8875 J-1.5372
G2 X198.7645 Y154.9585 Z-6.0 I-1.775 J0.0
G2 X196.1025 Y153.4628 Z-6.3296 I-1.7745 J0.0415
G2 Y156.5372 Z-6.6629 I0.8875 J1.5372
G2 X198.765 Y155.0 Z-6.9963 I0.8875 J-1.5372
G2 X198.7645 Y154.9585 Z-7.0 I-1.775 J0.0
G2 X196.1025 Y153.4628 I-1.7745 J0.0415
G2 Y156.5372 I0.8875 J1.5372
G2 X198.765 Y155.0 I0.8875 J-1.5372
G2 X198.7645 Y154.9585 I-1.775 J0.0
G0 Z3.0
G0 X197.0947 Y183.2281
G0 Z1.0
G1 F10.0 Z0.0
G2 F750.0 X196.1025 Y183.4628 Z-0.0927 I-0.1047 J1.7719
G2 Y186.5372 Z-0.4261 I0.8875 J1.5372
G2 X198.765 Y185.0 Z-0.7594 I0.8875 J-1.5372
G2 X197.0947 Y183.2281 Z-1.0 I-1.775 J0.0
G2 X196.1025 Y183.4628 Z-1.0927 I-0.1047 J1.7719
G2 Y186.5372 Z-1.4261 I0.8875 J1.5372
G2 X198.765 Y185.0 Z-1.7594 I0.8875 J-1.5372
G2 X197.0947 Y183.2281 Z-2.0 I-1.775 J0.0
G2 X196.1025 Y183.4628 Z-2.0927 I-0.1047 J1.7719
G2 Y186.5372 Z-2.4261 I0.8875 J1.5372
G2 X198.765 Y185.0 Z-2.7594 I0.8875 J-1.5372
G2 X197.0947 Y183.2281 Z-3.0 I-1.775 J0.0
G2 X196.1025 Y183.4628 Z-3.0927 I-0.1047 J1.7719
G2 Y186.5372 Z-3.4261 I0.8875 J1.5372
G2 X198.765 Y185.0 Z-3.7594 I0.8875 J-1.5372
G2 X197.0947 Y183.2281 Z-4.0 I-1.775 J0.0
G2 X196.1025 Y183.4628 Z-4.0927 I-0.1047 J1.7719
G2 Y186.5372 Z-4.4261 I0.8875 J1.5372
G2 X198.765 Y185.0 Z-4.7594 I0.8875 J-1.5372
G2 X197.0947 Y183.2281 Z-5.0 I-1.775 J0.0
G2 X196.1025 Y183.4628 Z-5.0927 I-0.1047 J1.7719
G2 Y186.5372 Z-5.4261 I0.8875 J1.5372
G2 X198.765 Y185.0 Z-5.7594 I0.8875 J-1.5372
G2 X197.0947 Y183.2281 Z-6.0 I-1.775 J0.0
G2 X196.1025 Y183.4628 Z-6.0927 I-0.1047 J1.7719
G2 Y186.5372 Z-6.4261 I0.8875 J1.5372
G2 X198.765 Y185.0 Z-6.7594 I0.8875 J-1.5372
G2 X197.0947 Y183.2281 Z-7.0 I-1.775 J0.0
G2 X196.1025 Y183.4628 I-0.1047 J1.7719
G2 Y186.5372 I0.8875 J1.5372
G2 X198.765 Y185.0 I0.8875 J-1.5372
G2 X197.0947 Y183.2281 I-1.775 J0.0
G0 Z3.0
G0 X224.8163 Y184.958
G0 Z1.0
G1 F10.0 Z0.0
G2 F750.0 X225.1525 Y185.5846 Z-0.1766 I0.6737 J0.042
G2 X226.165 Y185.0 Z-0.5099 I0.3375 J-0.5846
G2 X225.1525 Y184.4154 Z-0.8433 I-0.675 J0.0
G2 X224.8163 Y184.958 Z-1.0 I0.3375 J0.5846
G2 X225.1525 Y185.5846 Z-1.1766 I0.6737 J0.042
G2 X226.165 Y185.0 Z-1.5099 I0.3375 J-0.5846
G2 X225.1525 Y184.4154 Z-1.8433 I-0.675 J0.0
G2 X224.8163 Y184.958 Z-2.0 I0.3375 J0.5846
G2 X225.1525 Y185.5846 Z-2.1766 I0.6737 J0.042
G2 X226.165 Y185.0 Z-2.5099 I0.3375 J-0.5846
G2 X225.1525 Y184.4154 Z-2.8433 I-0.675 J0.0
G2 X224.8163 Y184.958 Z-3.0 I0.3375 J0.5846
G2 X225.1525 Y185.5846 Z-3.1766 I0.6737 J0.042
G2 X226.165 Y185.0 Z-3.5099 I0.3375 J-0.5846
G2 X225.1525 Y184.4154 Z-3.8433 I-0.675 J0.0
G2 X224.8163 Y184.958 Z-4.0 I0.3375 J0.5846
G2 X225.1525 Y185.5846 Z-4.1766 I0.6737 J0.042
G2 X226.165 Y185.0 Z-4.5099 I0.3375 J-0.5846
G2 X225.1525 Y184.4154 Z-4.8433 I-0.675 J0.0
G2 X224.8163 Y184.958 Z-5.0 I0.3375 J0.5846
G2 X225.1525 Y185.5846 Z-5.1766 I0.6737 J0.042
G2 X226.165 Y185.0 Z-5.5099 I0.3375 J-0.5846
G2 X225.1525 Y184.4154 Z-5.8433 I-0.675 J0.0
G2 X224.8163 Y184.958 Z-6.0 I0.3375 J0.5846
G2 X225.1525 Y185.5846 Z-6.1766 I0.6737 J0.042
G2 X226.165 Y185.0 Z-6.5099 I0.3375 J-0.5846
G2 X225.1525 Y184.4154 Z-6.8433 I-0.675 J0.0
G2 X224.8163 Y184.958 Z-7.0 I0.3375 J0.5846
G2 X225.1525 Y185.5846 I0.6737 J0.042
G2 X226.165 Y185.0 I0.3375 J-0.5846
G2 X225.1525 Y184.4154 I-0.675 J0.0
G2 X224.8163 Y184.958 I0.3375 J0.5846
G0 Z3.0
G0 X163.275 Y184.9988
G0 Z1.0
G1 F10.0 Z0.0
G2 F750.0 X160.6125 Y183.4628 Z-0.3332 I-1.775 J0.0012
G2 Y186.5372 Z-0.6666 I0.8875 J1.5372
G2 X163.275 Y185.0 Z-0.9999 I0.8875 J-1.5372
G2 Y184.9988 Z-1.0 I-1.775 J0.0
G2 X160.6125 Y183.4628 Z-1.3332 I-1.775 J0.0012
G2 Y186.5372 Z-1.6666 I0.8875 J1.5372
G2 X163.275 Y185.0 Z-1.9999 I0.8875 J-1.5372
G2 Y184.9988 Z-2.0 I-1.775 J0.0
G2 X160.6125 Y183.4628 Z-2.3332 I-1.775 J0.0012
G2 Y186.5372 Z-2.6666 I0.8875 J1.5372
G2 X163.275 Y185.0 Z-2.9999 I0.8875 J-1.5372
G2 Y184.9988 Z-3.0 I-1.775 J0.0
G2 X160.6125 Y183.4628 Z-3.3332 I-1.775 J0.0012
G2 Y186.5372 Z-3.6666 I0.8875 J1.5372
G2 X163.275 Y185.0 Z-3.9999 I0.8875 J-1.5372
G2 Y184.9988 Z-4.0 I-1.775 J0.0
G2 X160.6125 Y183.4628 Z-4.3332 I-1.775 J0.0012
G2 Y186.5372 Z-4.6666 I0.8875 J1.5372
G2 X163.275 Y185.0 Z-4.9999 I0.8875 J-1.5372
G2 Y184.9988 Z-5.0 I-1.775 J0.0
G2 X160.6125 Y183.4628 Z-5.3332 I-1.775 J0.0012
G2 Y186.5372 Z-5.6666 I0.8875 J1.5372
G2 X163.275 Y185.0 Z-5.9999 I0.8875 J-1.5372
G2 Y184.9988 Z-6.0 I-1.775 J0.0
G2 X160.6125 Y183.4628 Z-6.3332 I-1.775 J0.0012
G2 Y186.5372 Z-6.6666 I0.8875 J1.5372
G2 X163.275 Y185.0 Z-6.9999 I0.8875 J-1.5372
G2 Y184.9988 Z-7.0 I-1.775 J0.0
G2 X160.6125 Y183.4628 I-1.775 J0.0012
G2 Y186.5372 I0.8875 J1.5372
G2 X163.275 Y185.0 I0.8875 J-1.5372
G2 Y184.9988 I-1.775 J0.0
G0 Z3.0
G0 X225.258 Y15.6339
G0 Z1.0
G1 F10.0 Z0.0
G2 F750.0 X226.165 Y15.0 Z-0.3058 I0.232 J-0.6339
G2 X225.1525 Y14.4154 Z-0.6392 I-0.675 J0.0
G2 Y15.5846 Z-0.9725 I0.3375 J0.5846
G2 X225.258 Y15.6339 Z-1.0 I0.3375 J-0.5846
G2 X226.165 Y15.0 Z-1.3058 I0.232 J-0.6339
G2 X225.1525 Y14.4154 Z-1.6392 I-0.675 J0.0
G2 Y15.5846 Z-1.9725 I0.3375 J0.5846
G2 X225.258 Y15.6339 Z-2.0 I0.3375 J-0.5846
G2 X226.165 Y15.0 Z-2.3058 I0.232 J-0.6339
G2 X225.1525 Y14.4154 Z-2.6392 I-0.675 J0.0
G2 Y15.5846 Z-2.9725 I0.3375 J0.5846
G2 X225.258 Y15.6339 Z-3.0 I0.3375 J-0.5846
G2 X226.165 Y15.0 Z-3.3058 I0.232 J-0.6339
G2 X225.1525 Y14.4154 Z-3.6392 I-0.675 J0.0
G2 Y15.5846 Z-3.9725 I0.3375 J0.5846
G2 X225.258 Y15.6339 Z-4.0 I0.3375 J-0.5846
G2 X226.165 Y15.0 Z-4.3058 I0.232 J-0.6339
G2 X225.1525 Y14.4154 Z-4.6392 I-0.675 J0.0
G2 Y15.5846 Z-4.9725 I0.3375 J0.5846
G2 X225.258 Y15.6339 Z-5.0 I0.3375 J-0.5846
G2 X226.165 Y15.0 Z-5.3058 I0.232 J-0.6339
G2 X225.1525 Y14.4154 Z-5.6392 I-0.675 J0.0
G2 Y15.5846 Z-5.9725 I0.3375 J0.5846
G2 X225.258 Y15.6339 Z-6.0 I0.3375 J-0.5846
G2 X226.165 Y15.0 Z-6.3058 I0.232 J-0.6339
G2 X225.1525 Y14.4154 Z-6.6392 I-0.675 J0.0
G2 Y15.5846 Z-6.9725 I0.3375 J0.5846
G2 X225.258 Y15.6339 Z-7.0 I0.3375 J-0.5846
G2 X226.165 Y15.0 I0.232 J-0.6339
G2 X225.1525 Y14.4154 I-0.675 J0.0
G2 Y15.5846 I0.3375 J0.5846
G2 X225.258 Y15.6339 I0.3375 J-0.5846
( Leadscrew Hole )
S1000
G0 Z3.0
G0 X40.025 Y50.0
G0 Z1.0
G1 F10.0 Z-1.0
G2 F750.0 X39.9875 Y49.9783 I-0.025 J0.0
G2 Y50.0217 I0.0125 J0.0217
G2 X40.025 Y50.0 I0.0125 J-0.0217
G1 F10.0 X40.755
G2 F750.0 X39.6225 Y49.3462 I-0.755 J0.0
G2 Y50.6538 I0.3775 J0.6538
G2 X40.755 Y50.0 I0.3775 J-0.6538
G1 F10.0 X42.215
G2 F750.0 X38.8925 Y48.0818 I-2.215 J0.0
G2 Y51.9182 I1.1075 J1.9182
G2 X42.215 Y50.0 I1.1075 J-1.9182
G1 F10.0 X43.675
G2 F750.0 X38.1625 Y46.8174 I-3.675 J0.0
G2 Y53.1826 I1.8375 J3.1826
G2 X43.675 Y50.0 I1.8375 J-3.1826
G0 Z3.0
G0 X40.025
G0 Z0.0
G1 F10.0 Z-2.0
G2 F750.0 X39.9875 Y49.9783 I-0.025 J0.0
G2 Y50.0217 I0.0125 J0.0217
G2 X40.025 Y50.0 I0.0125 J-0.0217
G1 F10.0 X40.755
G2 F750.0 X39.6225 Y49.3462 I-0.755 J0.0
G2 Y50.6538 I0.3775 J0.6538
G2 X40.755 Y50.0 I0.3775 J-0.6538
G1 F10.0 X42.215
G2 F750.0 X38.8925 Y48.0818 I-2.215 J0.0
G2 Y51.9182 I1.1075 J1.9182
G2 X42.215 Y50.0 I1.1075 J-1.9182
G1 F10.0 X43.675
G2 F750.0 X38.1625 Y46.8174 I-3.675 J0.0
G2 Y53.1826 I1.8375 J3.1826
G2 X43.675 Y50.0 I1.8375 J-3.1826
G0 Z3.0
G0 X40.025
G0 Z-1.0
G1 F10.0 Z-3.0
G2 F750.0 X39.9875 Y49.9783 I-0.025 J0.0
G2 Y50.0217 I0.0125 J0.0217
G2 X40.025 Y50.0 I0.0125 J-0.0217
G1 F10.0 X40.755
G2 F750.0 X39.6225 Y49.3462 I-0.755 J0.0
G2 Y50.6538 I0.3775 J0.6538
G2 X40.755 Y50.0 I0.3775 J-0.6538
G1 F10.0 X42.215
G2 F750.0 X38.8925 Y48.0818 I-2.215 J0.0
G2 Y51.9182 I1.1075 J1.9182
G2 X42.215 Y50.0 I1.1075 J-1.9182
G1 F10.0 X43.675
G2 F750.0 X38.1625 Y46.8174 I-3.675 J0.0
G2 Y53.1826 I1.8375 J3.1826
G2 X43.675 Y50.0 I1.8375 J-3.1826
G0 Z3.0
G0 X40.025
G0 Z-2.0
G1 F10.0 Z-4.0
G2 F750.0 X39.9875 Y49.9783 I-0.025 J0.0
G2 Y50.0217 I0.0125 J0.0217
G2 X40.025 Y50.0 I0.0125 J-0.0217
G1 F10.0 X40.755
G2 F750.0 X39.6225 Y49.3462 I-0.755 J0.0
G2 Y50.6538 I0.3775 J0.6538
G2 X40.755 Y50.0 I0.3775 J-0.6538
G1 F10.0 X42.215
G2 F750.0 X38.8925 Y48.0818 I-2.215 J0.0
G2 Y51.9182 I1.1075 J1.9182
G2 X42.215 Y50.0 I1.1075 J-1.9182
G1 F10.0 X43.675
G2 F750.0 X38.1625 Y46.8174 I-3.675 J0.0
G2 Y53.1826 I1.8375 J3.1826
G2 X43.675 Y50.0 I1.8375 J-3.1826
G0 Z3.0
G0 X40.025
G0 Z-3.0
G1 F10.0 Z-5.0
G2 F750.0 X39.9875 Y49.9783 I-0.025 J0.0
G2 Y50.0217 I0.0125 J0.0217
G2 X40.025 Y50.0 I0.0125 J-0.0217
G1 F10.0 X40.755
G2 F750.0 X39.6225 Y49.3462 I-0.755 J0.0
G2 Y50.6538 I0.3775 J0.6538
G2 X40.755 Y50.0 I0.3775 J-0.6538
G1 F10.0 X42.215
G2 F750.0 X38.8925 Y48.0818 I-2.215 J0.0
G2 Y51.9182 I1.1075 J1.9182
G2 X42.215 Y50.0 I1.1075 J-1.9182
G1 F10.0 X43.675
G2 F750.0 X38.1625 Y46.8174 I-3.675 J0.0
G2 Y53.1826 I1.8375 J3.1826
G2 X43.675 Y50.0 I1.8375 J-3.1826
G0 Z3.0
G0 X40.025
G0 Z-4.0
G1 F10.0 Z-6.0
G2 F750.0 X39.9875 Y49.9783 I-0.025 J0.0
G2 Y50.0217 I0.0125 J0.0217
G2 X40.025 Y50.0 I0.0125 J-0.0217
G1 F10.0 X40.755
G2 F750.0 X39.6225 Y49.3462 I-0.755 J0.0
G2 Y50.6538 I0.3775 J0.6538
G2 X40.755 Y50.0 I0.3775 J-0.6538
G1 F10.0 X42.215
G2 F750.0 X38.8925 Y48.0818 I-2.215 J0.0
G2 Y51.9182 I1.1075 J1.9182
G2 X42.215 Y50.0 I1.1075 J-1.9182
G1 F10.0 X43.675
G2 F750.0 X38.1625 Y46.8174 I-3.675 J0.0
G2 Y53.1826 I1.8375 J3.1826
G2 X43.675 Y50.0 I1.8375 J-3.1826
G0 Z3.0
G0 X40.025
G0 Z-5.0
G1 F10.0 Z-7.0
G2 F750.0 X39.9875 Y49.9783 I-0.025 J0.0
G2 Y50.0217 I0.0125 J0.0217
G2 X40.025 Y50.0 I0.0125 J-0.0217
G1 F10.0 X40.755
G2 F750.0 X39.6225 Y49.3462 I-0.755 J0.0
G2 Y50.6538 I0.3775 J0.6538
G2 X40.755 Y50.0 I0.3775 J-0.6538
G1 F10.0 X42.215
G2 F750.0 X38.8925 Y48.0818 I-2.215 J0.0
G2 Y51.9182 I1.1075 J1.9182
G2 X42.215 Y50.0 I1.1075 J-1.9182
G1 F10.0 X43.675
G2 F750.0 X38.1625 Y46.8174 I-3.675 J0.0
G2 Y53.1826 I1.8375 J3.1826
G2 X43.675 Y50.0 I1.8375 J-3.1826
( Bearing Pocket )
S1000
G0 Z0.0
G1 F10.0 X46.202
G2 F750.0 X36.899 Y44.6289 Z-0.3333 I-6.202 J0.0
G2 Y55.3711 Z-0.6667 I3.101 J5.3711
G2 X46.202 Y50.0 Z-1.0 I3.101 J-5.3711
G2 X36.899 Y44.6289 Z-1.3333 I-6.202 J0.0
G2 Y55.3711 Z-1.6667 I3.101 J5.3711
G2 X46.202 Y50.0 Z-2.0 I3.101 J-5.3711
G2 X36.899 Y44.6289 Z-2.3333 I-6.202 J0.0
G2 Y55.3711 Z-2.6667 I3.101 J5.3711
G2 X46.202 Y50.0 Z-3.0 I3.101 J-5.3711
G2 X36.899 Y44.6289 Z-3.1167 I-6.202 J0.0
G2 Y55.3711 Z-3.2333 I3.101 J5.3711
G2 X46.202 Y50.0 Z-3.35 I3.101 J-5.3711
G2 X36.899 Y44.6289 I-6.202 J0.0
G2 Y55.3711 I3.101 J5.3711
G2 X46.202 Y50.0 I3.101 J-5.3711
( Large Wheel Eccentric Pockets )
S1000
G0 Z3.0
G0 X165.675 Y100.0
G0 Z1.0
G1 F5.0 Z0.0
G2 F750.0 X159.4125 Y96.3843 Z-0.15 I-4.175 J0.0
G2 Y103.6157 Z-0.3 I2.0875 J3.6157
G2 X165.675 Y100.0 Z-0.45 I2.0875 J-3.6157
G2 X159.4125 Y96.3843 Z-0.6 I-4.175 J0.0
G2 Y103.6157 Z-0.75 I2.0875 J3.6157
G2 X165.675 Y100.0 Z-0.9 I2.0875 J-3.6157
G2 X159.4125 Y96.3843 I-4.175 J0.0
G2 Y103.6157 I2.0875 J3.6157
G2 X165.675 Y100.0 I2.0875 J-3.6157
G0 Z3.0
G0 X161.7048 Y180.83
G0 Z1.0
G1 F5.0 Z0.0
G2 F750.0 X159.4125 Y181.3843 Z-0.041 I-0.2048 J4.17
G2 Y188.6157 Z-0.191 I2.0875 J3.6157
G2 X165.675 Y185.0 Z-0.341 I2.0875 J-3.6157
G2 X161.7048 Y180.83 Z-0.45 I-4.175 J0.0
G2 X159.4125 Y181.3843 Z-0.491 I-0.2048 J4.17
G2 Y188.6157 Z-0.641 I2.0875 J3.6157
G2 X165.675 Y185.0 Z-0.791 I2.0875 J-3.6157
G2 X161.7048 Y180.83 Z-0.9 I-4.175 J0.0
G2 X159.4125 Y181.3843 I-0.2048 J4.17
G2 Y188.6157 I2.0875 J3.6157
G2 X165.675 Y185.0 I2.0875 J-3.6157
G2 X161.7048 Y180.83 I-4.175 J0.0
G0 Z3.0
G0 X161.5052 Y19.175
G0 Z1.0
G1 F5.0 Z0.0
G2 F750.0 X165.675 Y15.0 Z-0.1124 I-0.0052 J-4.175
G2 X159.4125 Y11.3843 Z-0.2624 I-4.175 J0.0
G2 Y18.6157 Z-0.4124 I2.0875 J3.6157
G2 X161.5052 Y19.175 Z-0.45 I2.0875 J-3.6157
G2 X165.675 Y15.0 Z-0.5624 I-0.0052 J-4.175
G2 X159.4125 Y11.3843 Z-0.7124 I-4.175 J0.0
G2 Y18.6157 Z-0.8624 I2.0875 J3.6157
G2 X161.5052 Y19.175 Z-0.9 I2.0875 J-3.6157
G2 X165.675 Y15.0 I-0.0052 J-4.175
G2 X159.4125 Y11.3843 I-4.175 J0.0
G2 Y18.6157 I2.0875 J3.6157
G2 X161.5052 Y19.175 I2.0875 J-3.6157
( Backlash-Nut Access )
S1000
G0 Z3.0
G0 X216.515 Y102.0
G0 Z1.0
G1 F10.0 Z0.0
G1 F750.0 Y88.0 Z-0.1541
G2 X215.74 Y87.225 Z-0.1675 I-0.775 J0.0
G1 X186.74 Z-0.4866
G2 X185.965 Y88.0 Z-0.5 I0.0 J0.775
G1 Y102.0 Z-0.6541
G2 X186.74 Y102.775 Z-0.6675 I0.775 J0.0
G1 X215.74 Z-0.9866
G2 X216.515 Y102.0 Z-1.0 I0.0 J-0.775
G1 X216.915
G1 Y88.0
G2 X215.74 Y86.825 I-1.175 J0.0
G1 X186.74
G2 X185.565 Y88.0 I0.0 J1.175
G1 Y102.0
G2 X186.74 Y103.175 I1.175 J0.0
G1 X215.74
G2 X216.915 Y102.0 I0.0 J-1.175
G1 X216.515
G1 Y88.0 Z-1.1541
G2 X215.74 Y87.225 Z-1.1675 I-0.775 J0.0
G1 X186.74 Z-1.4866
G2 X185.965 Y88.0 Z-1.5 I0.0 J0.775
G1 Y102.0 Z-1.6541
G2 X186.74 Y102.775 Z-1.6675 I0.775 J0.0
G1 X215.74 Z-1.9866
G2 X216.515 Y102.0 Z-2.0 I0.0 J-0.775
G1 X216.915
G1 Y88.0
G2 X215.74 Y86.825 I-1.175 J0.0
G1 X186.74
G2 X185.565 Y88.0 I0.0 J1.175
G1 Y102.0
G2 X186.74 Y103.175 I1.175 J0.0
G1 X215.74
G2 X216.915 Y102.0 I0.0 J-1.175
G1 X216.515
G1 Y88.0 Z-2.1541
G2 X215.74 Y87.225 Z-2.1675 I-0.775 J0.0
G1 X186.74 Z-2.4866
G2 X185.965 Y88.0 Z-2.5 I0.0 J0.775
G1 Y102.0 Z-2.6541
G2 X186.74 Y102.775 Z-2.6675 I0.775 J0.0
G1 X215.74 Z-2.9866
G2 X216.515 Y102.0 Z-3.0 I0.0 J-0.775
G1 X216.915
G1 Y88.0
G2 X215.74 Y86.825 I-1.175 J0.0
G1 X186.74
G2 X185.565 Y88.0 I0.0 J1.175
G1 Y102.0
G2 X186.74 Y103.175 I1.175 J0.0
G1 X215.74
G2 X216.915 Y102.0 I0.0 J-1.175
G1 X216.515
G1 Y88.0 Z-3.1541
G2 X215.74 Y87.225 Z-3.1675 I-0.775 J0.0
G1 X186.74 Z-3.4866
G2 X185.965 Y88.0 Z-3.5 I0.0 J0.775
G1 Y102.0 Z-3.6541
G2 X186.74 Y102.775 Z-3.6675 I0.775 J0.0
G1 X215.74 Z-3.9866
G2 X216.515 Y102.0 Z-4.0 I0.0 J-0.775
G1 X216.915
G1 Y88.0
G2 X215.74 Y86.825 I-1.175 J0.0
G1 X186.74
G2 X185.565 Y88.0 I0.0 J1.175
G1 Y102.0
G2 X186.74 Y103.175 I1.175 J0.0
G1 X215.74
G2 X216.915 Y102.0 I0.0 J-1.175
G1 X216.515
G1 Y88.0 Z-4.1541
G2 X215.74 Y87.225 Z-4.1675 I-0.775 J0.0
G1 X211.565 Z-4.2134
G1 X210.065 Z-4.0
G1 X206.415
G1 X204.915 Z-4.2866
G1 X186.74 Z-4.4866
G2 X185.965 Y88.0 Z-4.5 I0.0 J0.775
G1 Y102.0 Z-4.6541
G2 X186.74 Y102.775 Z-4.6675 I0.775 J0.0
G1 X190.915 Z-4.7134
G1 X192.415 Z-4.0
G1 X196.065
G1 X197.565 Z-4.7866
G1 X215.74 Z-4.9866
G2 X216.515 Y102.0 Z-5.0 I0.0 J-0.775
G1 X216.915
G1 Y88.0
G2 X215.74 Y86.825 I-1.175 J0.0
G1 X211.565
G1 X210.065 Z-4.0
G1 X206.415
G1 X204.915 Z-5.0
G1 X186.74
G2 X185.565 Y88.0 I0.0 J1.175
G1 Y102.0
G2 X186.74 Y103.175 I1.175 J0.0
G1 X190.915
G1 X192.415 Z-4.0
G1 X196.065
G1 X197.565 Z-5.0
G1 X215.74
G2 X216.915 Y102.0 I0.0 J-1.175
G1 X216.515
G1 Y88.0 Z-5.1541
G2 X215.74 Y87.225 Z-5.1675 I-0.775 J0.0
G1 X211.565 Z-5.2134
G1 X210.065 Z-4.0
G1 X206.415
G1 X204.915 Z-5.2866
G1 X186.74 Z-5.4866
G2 X185.965 Y88.0 Z-5.5 I0.0 J0.775
G1 Y102.0 Z-5.6541
G2 X186.74 Y102.775 Z-5.6675 I0.775 J0.0
G1 X190.915 Z-5.7134
G1 X192.415 Z-4.0
G1 X196.065
G1 X197.565 Z-5.7866
G1 X215.74 Z-5.9866
G2 X216.515 Y102.0 Z-6.0 I0.0 J-0.775
G1 X216.915
G1 Y88.0
G2 X215.74 Y86.825 I-1.175 J0.0
G1 X211.565
G1 X210.065 Z-4.0
G1 X206.415
G1 X204.915 Z-6.0
G1 X186.74
G2 X185.565 Y88.0 I0.0 J1.175
G1 Y102.0
G2 X186.74 Y103.175 I1.175 J0.0
G1 X190.915
G1 X192.415 Z-4.0
G1 X196.065
G1 X197.565 Z-6.0
G1 X215.74
G2 X216.915 Y102.0 I0.0 J-1.175
G1 X216.515
G1 Y88.0 Z-6.1541
G2 X215.74 Y87.225 Z-6.1675 I-0.775 J0.0
G1 X211.565 Z-6.2134
G1 X210.065 Z-4.0
G1 X206.415
G1 X204.915 Z-6.2866
G1 X186.74 Z-6.4866
G2 X185.965 Y88.0 Z-6.5 I0.0 J0.775
G1 Y102.0 Z-6.6541
G2 X186.74 Y102.775 Z-6.6675 I0.775 J0.0
G1 X190.915 Z-6.7134
G1 X192.415 Z-4.0
G1 X196.065
G1 X197.565 Z-6.7866
G1 X215.74 Z-6.9866
G2 X216.515 Y102.0 Z-7.0 I0.0 J-0.775
G1 Y88.0
G2 X215.74 Y87.225 I-0.775 J0.0
G1 X211.565
G1 X210.065 Z-4.0
G1 X206.415
G1 X204.915 Z-7.0
G1 X186.74
G2 X185.965 Y88.0 I0.0 J0.775
G1 Y102.0
G2 X186.74 Y102.775 I0.775 J0.0
G1 X190.915
G1 X192.415 Z-4.0
G1 X196.065
G1 X197.565 Z-7.0
G1 X215.74
G2 X216.515 Y102.0 I0.0 J-0.775
G1 X216.915
G1 Y88.0
G2 X215.74 Y86.825 I-1.175 J0.0
G1 X211.565
G1 X210.065 Z-4.0
G1 X206.415
G1 X204.915 Z-7.0
G1 X186.74
G2 X185.565 Y88.0 I0.0 J1.175
G1 Y102.0
G2 X186.74 Y103.175 I1.175 J0.0
G1 X190.915
G1 X192.415 Z-4.0
G1 X196.065
G1 X197.565 Z-7.0
G1 X215.74
G2 X216.915 Y102.0 I0.0 J-1.175
( Outside Profile )
S1000
G0 Z3.0
G0 X4.9992 Y89.625
G0 Z1.0
G1 F10.0 Z0.0
G3 F750.0 X-2.225 Y82.4 Z-0.0136 I0.0008 J-7.225
G1 Y3.0 Z-0.1088
G3 X3.0 Y-2.225 Z-0.1186 I5.225 J0.0
G1 X237.3593 Z-0.3995
G3 X249.2976 Y12.6321 Z-0.4257 I0.0 J12.225
G2 Y187.3679 Z-0.6369 I396.2657 J87.3679
G3 X237.3593 Y202.225 Z-0.6631 I-11.9383 J2.6321
G1 X159.0983 Z-0.7569
G3 X147.4275 Y193.6393 Z-0.7755 I0.0 J-12.225
G2 X143.9406 Y183.9708 Z-0.7878 I-113.3386 J35.412
G3 X143.929 Y183.9418 I2.0584 J-0.8447
G2 X143.8902 Y183.8474 Z-0.7879 I-3.2921 J1.2973
G3 X143.8785 Y183.8195 Z-0.788 I2.0457 J-0.8751
G2 X139.4992 Y174.329 Z-0.8005 I-116.0234 J47.7819
G3 X139.4984 Y174.3275 I1.9797 J-1.0156
G2 X136.1567 Y168.2051 Z-0.8089 I-117.5662 J60.1972
G3 X136.1561 Y168.2041 I1.9242 J-1.1172
G2 X131.2198 Y160.3158 Z-0.82 I-119.6836 J69.4067
G3 X131.2195 Y160.3154 I1.8454 J-1.2431
G2 X123.8604 Y150.3139 Z-0.8349 I-123.394 J83.0852
G3 X123.8598 Y150.3131 I1.7355 J-1.3923
G2 X119.2933 Y144.8763 Z-0.8434 I-120.821 J96.8441
G3 X119.2927 Y144.8756 I1.6705 J-1.4697
G2 X113.7806 Y138.9191 Z-0.8532 I-119.2844 J104.8556
G3 X113.7802 Y138.9188 I1.5939 J-1.5524
G2 X107.1253 Y132.4548 Z-0.8643 I-118.8884 J115.7428
G2 X87.7616 Y117.1056 Z-0.8939 I-115.7129 J126.0883
G1 X87.1123 Y116.6652 Z-0.8949
G2 X74.9966 Y109.1981 Z-0.9119 I-95.9332 J142.0944
G3 X74.9962 Y109.1979 I1.0878 J-1.941
G2 X60.4485 Y101.9497 Z-0.9314 I-81.509 J145.3725
G1 Y101.9498
G1 Y101.9497
G2 X52.4224 Y98.6876 Z-0.9418 I-63.5571 J144.8672
G3 X52.4211 Y98.687 I0.781 J-2.0834
G2 X48.2165 Y97.1789 Z-0.9472 I-52.6538 J140.1783
G1 X47.6804 Y96.9964 Z-0.9479
G2 X43.2769 Y95.5809 Z-0.9534 I-46.318 J136.5331
G1 X42.7179 Y95.4118 Z-0.9541
G1 X42.1566 Y95.2445 Z-0.9548
G2 X32.5255 Y92.748 Z-0.9667 I-41.1448 J138.9073
G2 X22.0909 Y90.8499 Z-0.9794 I-29.3182 J131.5442
G2 X16.6557 Y90.2007 Z-0.986 I-18.2249 J129.4997
G1 X16.6556
G2 X4.9992 Y89.625 Z-1.0 I-11.7393 J119.3964
G1 Y89.225
G3 X-1.825 Y82.4 I0.0008 J-6.825
G1 Y3.0
G3 X3.0 Y-1.825 I4.825 J0.0
G1 X237.3593
G3 X248.907 Y12.546 I0.0 J11.825
G2 Y187.454 I396.6563 J87.454
G3 X237.3593 Y201.825 I-11.5477 J2.546
G1 X159.0983
G3 X147.8094 Y193.5201 I0.0 J-11.825
G2 X144.3107 Y183.8189 I-113.7204 J35.5311
G3 X144.3011 Y183.7952 I1.6884 J-0.6929
G2 X144.2579 Y183.69 I-3.6642 J1.4439
G3 X144.2483 Y183.6672 I1.6779 J-0.7178
G2 X139.8551 Y174.1464 I-116.3933 J47.9342
G3 X139.8545 Y174.1452 I1.6238 J-0.833
G2 X136.5026 Y168.0043 I-117.9223 J60.3795
G3 X136.5021 Y168.0034 I1.5783 J-0.9164
G2 X131.5515 Y160.0923 I-120.0296 J69.6074
G3 X131.5513 Y160.092 I1.5136 J-1.0196
G2 X124.1724 Y150.0636 I-123.7258 J83.3086
G3 X124.1719 Y150.063 I1.4235 J-1.142
G2 X119.5936 Y144.6121 I-121.1331 J97.0943
G3 X119.5931 Y144.6115 I1.3702 J-1.2055
G2 X114.0671 Y138.64 I-119.5848 J105.1197
G3 X114.0669 Y138.6397 I1.3074 J-1.2734
G2 X107.3958 Y132.1601 I-119.1751 J116.0219
G2 X87.9864 Y116.7747 I-115.9834 J126.3829
G1 X87.3365 Y116.3339
G2 X75.1922 Y108.8492 I-96.1574 J142.4256
G3 X75.1918 Y108.849 I0.8922 J-1.592
G2 X60.6092 Y101.5835 I-81.7047 J145.7214
G1 Y101.5834
G1 Y101.5835
G2 X52.5628 Y98.313 I-63.7178 J145.2335
G3 X52.5617 Y98.3126 I0.6406 J-1.7089
G2 X48.3457 Y96.8003 I-52.7945 J140.5527
G1 X47.8091 Y96.6177
G2 X43.3929 Y95.1981 I-46.4467 J136.9118
G1 X42.833 Y95.0287
G1 X42.2706 Y94.861
G2 X32.6125 Y92.3576 I-41.2588 J139.2907
G2 X22.1468 Y90.4539 I-29.4052 J131.9346
G2 X16.6948 Y89.8026 I-18.2808 J129.8958
G1 X16.6947
G2 X4.9993 Y89.225 I-11.7784 J119.7945
G1 X4.9992
G1 Y89.625
G3 X-2.225 Y82.4 Z-1.0136 I0.0008 J-7.225
G1 Y3.0 Z-1.1088
G3 X3.0 Y-2.225 Z-1.1186 I5.225 J0.0
G1 X237.3593 Z-1.3995
G3 X249.2976 Y12.6321 Z-1.4257 I0.0 J12.225
G2 Y187.3679 Z-1.6369 I396.2657 J87.3679
G3 X237.3593 Y202.225 Z-1.6631 I-11.9383 J2.6321
G1 X159.0983 Z-1.7569
G3 X147.4275 Y193.6393 Z-1.7755 I0.0 J-12.225
G2 X143.9406 Y183.9708 Z-1.7878 I-113.3386 J35.412
G3 X143.929 Y183.9418 I2.0584 J-0.8447
G2 X143.8902 Y183.8474 Z-1.7879 I-3.2921 J1.2973
G3 X143.8785 Y183.8195 Z-1.788 I2.0457 J-0.8751
G2 X139.4992 Y174.329 Z-1.8005 I-116.0234 J47.7819
G3 X139.4984 Y174.3275 I1.9797 J-1.0156
G2 X136.1567 Y168.2051 Z-1.8089 I-117.5662 J60.1972
G3 X136.1561 Y168.2041 I1.9242 J-1.1172
G2 X131.2198 Y160.3158 Z-1.82 I-119.6836 J69.4067
G3 X131.2195 Y160.3154 I1.8454 J-1.2431
G2 X123.8604 Y150.3139 Z-1.8349 I-123.394 J83.0852
G3 X123.8598 Y150.3131 I1.7355 J-1.3923
G2 X119.2933 Y144.8763 Z-1.8434 I-120.821 J96.8441
G3 X119.2927 Y144.8756 I1.6705 J-1.4697
G2 X113.7806 Y138.9191 Z-1.8532 I-119.2844 J104.8556
G3 X113.7802 Y138.9188 I1.5939 J-1.5524
G2 X107.1253 Y132.4548 Z-1.8643 I-118.8884 J115.7428
G2 X87.7616 Y117.1056 Z-1.8939 I-115.7129 J126.0883
G1 X87.1123 Y116.6652 Z-1.8949
G2 X74.9966 Y109.1981 Z-1.9119 I-95.9332 J142.0944
G3 X74.9962 Y109.1979 I1.0878 J-1.941
G2 X60.4485 Y101.9497 Z-1.9314 I-81.509 J145.3725
G1 Y101.9498
G1 Y101.9497
G2 X52.4224 Y98.6876 Z-1.9418 I-63.5571 J144.8672
G3 X52.4211 Y98.687 I0.781 J-2.0834
G2 X48.2165 Y97.1789 Z-1.9472 I-52.6538 J140.1783
G1 X47.6804 Y96.9964 Z-1.9479
G2 X43.2769 Y95.5809 Z-1.9534 I-46.318 J136.5331
G1 X42.7179 Y95.4118 Z-1.9541
G1 X42.1566 Y95.2445 Z-1.9548
G2 X32.5255 Y92.748 Z-1.9667 I-41.1448 J138.9073
G2 X22.0909 Y90.8499 Z-1.9794 I-29.3182 J131.5442
G2 X16.6557 Y90.2007 Z-1.986 I-18.2249 J129.4997
G1 X16.6556
G2 X4.9992 Y89.625 Z-2.0 I-11.7393 J119.3964
G1 Y89.225
G3 X-1.825 Y82.4 I0.0008 J-6.825
G1 Y3.0
G3 X3.0 Y-1.825 I4.825 J0.0
G1 X237.3593
G3 X248.907 Y12.546 I0.0 J11.825
G2 Y187.454 I396.6563 J87.454
G3 X237.3593 Y201.825 I-11.5477 J2.546
G1 X159.0983
G3 X147.8094 Y193.5201 I0.0 J-11.825
G2 X144.3107 Y183.8189 I-113.7204 J35.5311
G3 X144.3011 Y183.7952 I1.6884 J-0.6929
G2 X144.2579 Y183.69 I-3.6642 J1.4439
G3 X144.2483 Y183.6672 I1.6779 J-0.7178
G2 X139.8551 Y174.1464 I-116.3933 J47.9342
G3 X139.8545 Y174.1452 I1.6238 J-0.833
G2 X136.5026 Y168.0043 I-117.9223 J60.3795
G3 X136.5021 Y168.0034 I1.5783 J-0.9164
G2 X131.5515 Y160.0923 I-120.0296 J69.6074
G3 X131.5513 Y160.092 I1.5136 J-1.0196
G2 X124.1724 Y150.0636 I-123.7258 J83.3086
G3 X124.1719 Y150.063 I1.4235 J-1.142
G2 X119.5936 Y144.6121 I-121.1331 J97.0943
G3 X119.5931 Y144.6115 I1.3702 J-1.2055
G2 X114.0671 Y138.64 I-119.5848 J105.1197
G3 X114.0669 Y138.6397 I1.3074 J-1.2734
G2 X107.3958 Y132.1601 I-119.1751 J116.0219
G2 X87.9864 Y116.7747 I-115.9834 J126.3829
G1 X87.3365 Y116.3339
G2 X75.1922 Y108.8492 I-96.1574 J142.4256
G3 X75.1918 Y108.849 I0.8922 J-1.592
G2 X60.6092 Y101.5835 I-81.7047 J145.7214
G1 Y101.5834
G1 Y101.5835
G2 X52.5628 Y98.313 I-63.7178 J145.2335
G3 X52.5617 Y98.3126 I0.6406 J-1.7089
G2 X48.3457 Y96.8003 I-52.7945 J140.5527
G1 X47.8091 Y96.6177
G2 X43.3929 Y95.1981 I-46.4467 J136.9118
G1 X42.833 Y95.0287
G1 X42.2706 Y94.861
G2 X32.6125 Y92.3576 I-41.2588 J139.2907
G2 X22.1468 Y90.4539 I-29.4052 J131.9346
G2 X16.6948 Y89.8026 I-18.2808 J129.8958
G1 X16.6947
G2 X4.9993 Y89.225 I-11.7784 J119.7945
G1 X4.9992
G1 Y89.625
G3 X-2.225 Y82.4 Z-2.0136 I0.0008 J-7.225
G1 Y3.0 Z-2.1088
G3 X3.0 Y-2.225 Z-2.1186 I5.225 J0.0
G1 X237.3593 Z-2.3995
G3 X249.2976 Y12.6321 Z-2.4257 I0.0 J12.225
G2 Y187.3679 Z-2.6369 I396.2657 J87.3679
G3 X237.3593 Y202.225 Z-2.6631 I-11.9383 J2.6321
G1 X159.0983 Z-2.7569
G3 X147.4275 Y193.6393 Z-2.7755 I0.0 J-12.225
G2 X143.9406 Y183.9708 Z-2.7878 I-113.3386 J35.412
G3 X143.929 Y183.9418 I2.0584 J-0.8447
G2 X143.8902 Y183.8474 Z-2.7879 I-3.2921 J1.2973
G3 X143.8785 Y183.8195 Z-2.788 I2.0457 J-0.8751
G2 X139.4992 Y174.329 Z-2.8005 I-116.0234 J47.7819
G3 X139.4984 Y174.3275 I1.9797 J-1.0156
G2 X136.1567 Y168.2051 Z-2.8089 I-117.5662 J60.1972
G3 X136.1561 Y168.2041 I1.9242 J-1.1172
G2 X131.2198 Y160.3158 Z-2.82 I-119.6836 J69.4067
G3 X131.2195 Y160.3154 I1.8454 J-1.2431
G2 X123.8604 Y150.3139 Z-2.8349 I-123.394 J83.0852
G3 X123.8598 Y150.3131 I1.7355 J-1.3923
G2 X119.2933 Y144.8763 Z-2.8434 I-120.821 J96.8441
G3 X119.2927 Y144.8756 I1.6705 J-1.4697
G2 X113.7806 Y138.9191 Z-2.8532 I-119.2844 J104.8556
G3 X113.7802 Y138.9188 I1.5939 J-1.5524
G2 X107.1253 Y132.4548 Z-2.8643 I-118.8884 J115.7428
G2 X87.7616 Y117.1056 Z-2.8939 I-115.7129 J126.0883
G1 X87.1123 Y116.6652 Z-2.8949
G2 X74.9966 Y109.1981 Z-2.9119 I-95.9332 J142.0944
G3 X74.9962 Y109.1979 I1.0878 J-1.941
G2 X60.4485 Y101.9497 Z-2.9314 I-81.509 J145.3725
G1 Y101.9498
G1 Y101.9497
G2 X52.4224 Y98.6876 Z-2.9418 I-63.5571 J144.8672
G3 X52.4211 Y98.687 I0.781 J-2.0834
G2 X48.2165 Y97.1789 Z-2.9472 I-52.6538 J140.1783
G1 X47.6804 Y96.9964 Z-2.9479
G2 X43.2769 Y95.5809 Z-2.9534 I-46.318 J136.5331
G1 X42.7179 Y95.4118 Z-2.9541
G1 X42.1566 Y95.2445 Z-2.9548
G2 X32.5255 Y92.748 Z-2.9667 I-41.1448 J138.9073
G2 X22.0909 Y90.8499 Z-2.9794 I-29.3182 J131.5442
G2 X16.6557 Y90.2007 Z-2.986 I-18.2249 J129.4997
G1 X16.6556
G2 X4.9992 Y89.625 Z-3.0 I-11.7393 J119.3964
G1 Y89.225
G3 X-1.825 Y82.4 I0.0008 J-6.825
G1 Y3.0
G3 X3.0 Y-1.825 I4.825 J0.0
G1 X237.3593
G3 X248.907 Y12.546 I0.0 J11.825
G2 Y187.454 I396.6563 J87.454
G3 X237.3593 Y201.825 I-11.5477 J2.546
G1 X159.0983
G3 X147.8094 Y193.5201 I0.0 J-11.825
G2 X144.3107 Y183.8189 I-113.7204 J35.5311
G3 X144.3011 Y183.7952 I1.6884 J-0.6929
G2 X144.2579 Y183.69 I-3.6642 J1.4439
G3 X144.2483 Y183.6672 I1.6779 J-0.7178
G2 X139.8551 Y174.1464 I-116.3933 J47.9342
G3 X139.8545 Y174.1452 I1.6238 J-0.833
G2 X136.5026 Y168.0043 I-117.9223 J60.3795
G3 X136.5021 Y168.0034 I1.5783 J-0.9164
G2 X131.5515 Y160.0923 I-120.0296 J69.6074
G3 X131.5513 Y160.092 I1.5136 J-1.0196
G2 X124.1724 Y150.0636 I-123.7258 J83.3086
G3 X124.1719 Y150.063 I1.4235 J-1.142
G2 X119.5936 Y144.6121 I-121.1331 J97.0943
G3 X119.5931 Y144.6115 I1.3702 J-1.2055
G2 X114.0671 Y138.64 I-119.5848 J105.1197
G3 X114.0669 Y138.6397 I1.3074 J-1.2734
G2 X107.3958 Y132.1601 I-119.1751 J116.0219
G2 X87.9864 Y116.7747 I-115.9834 J126.3829
G1 X87.3365 Y116.3339
G2 X75.1922 Y108.8492 I-96.1574 J142.4256
G3 X75.1918 Y108.849 I0.8922 J-1.592
G2 X60.6092 Y101.5835 I-81.7047 J145.7214
G1 Y101.5834
G1 Y101.5835
G2 X52.5628 Y98.313 I-63.7178 J145.2335
G3 X52.5617 Y98.3126 I0.6406 J-1.7089
G2 X48.3457 Y96.8003 I-52.7945 J140.5527
G1 X47.8091 Y96.6177
G2 X43.3929 Y95.1981 I-46.4467 J136.9118
G1 X42.833 Y95.0287
G1 X42.2706 Y94.861
G2 X32.6125 Y92.3576 I-41.2588 J139.2907
G2 X22.1468 Y90.4539 I-29.4052 J131.9346
G2 X16.6948 Y89.8026 I-18.2808 J129.8958
G1 X16.6947
G2 X4.9993 Y89.225 I-11.7784 J119.7945
G1 X4.9992
G1 Y89.625
G3 X-2.225 Y82.4 Z-3.0136 I0.0008 J-7.225
G1 Y3.0 Z-3.1088
G3 X3.0 Y-2.225 Z-3.1186 I5.225 J0.0
G1 X237.3593 Z-3.3995
G3 X249.2976 Y12.6321 Z-3.4257 I0.0 J12.225
G2 Y187.3679 Z-3.6369 I396.2657 J87.3679
G3 X237.3593 Y202.225 Z-3.6631 I-11.9383 J2.6321
G1 X159.0983 Z-3.7569
G3 X147.4275 Y193.6393 Z-3.7755 I0.0 J-12.225
G2 X143.9406 Y183.9708 Z-3.7878 I-113.3386 J35.412
G3 X143.929 Y183.9418 I2.0584 J-0.8447
G2 X143.8902 Y183.8474 Z-3.7879 I-3.2921 J1.2973
G3 X143.8785 Y183.8195 Z-3.788 I2.0457 J-0.8751
G2 X139.4992 Y174.329 Z-3.8005 I-116.0234 J47.7819
G3 X139.4984 Y174.3275 I1.9797 J-1.0156
G2 X136.1567 Y168.2051 Z-3.8089 I-117.5662 J60.1972
G3 X136.1561 Y168.2041 I1.9242 J-1.1172
G2 X131.2198 Y160.3158 Z-3.82 I-119.6836 J69.4067
G3 X131.2195 Y160.3154 I1.8454 J-1.2431
G2 X123.8604 Y150.3139 Z-3.8349 I-123.394 J83.0852
G3 X123.8598 Y150.3131 I1.7355 J-1.3923
G2 X119.2933 Y144.8763 Z-3.8434 I-120.821 J96.8441
G3 X119.2927 Y144.8756 I1.6705 J-1.4697
G2 X113.7806 Y138.9191 Z-3.8532 I-119.2844 J104.8556
G3 X113.7802 Y138.9188 I1.5939 J-1.5524
G2 X107.1253 Y132.4548 Z-3.8643 I-118.8884 J115.7428
G2 X87.7616 Y117.1056 Z-3.8939 I-115.7129 J126.0883
G1 X87.1123 Y116.6652 Z-3.8949
G2 X74.9966 Y109.1981 Z-3.9119 I-95.9332 J142.0944
G3 X74.9962 Y109.1979 I1.0878 J-1.941
G2 X60.4485 Y101.9497 Z-3.9314 I-81.509 J145.3725
G1 Y101.9498
G1 Y101.9497
G2 X52.4224 Y98.6876 Z-3.9418 I-63.5571 J144.8672
G3 X52.4211 Y98.687 I0.781 J-2.0834
G2 X48.2165 Y97.1789 Z-3.9472 I-52.6538 J140.1783
G1 X47.6804 Y96.9964 Z-3.9479
G2 X43.2769 Y95.5809 Z-3.9534 I-46.318 J136.5331
G1 X42.7179 Y95.4118 Z-3.9541
G1 X42.1566 Y95.2445 Z-3.9548
G2 X32.5255 Y92.748 Z-3.9667 I-41.1448 J138.9073
G2 X22.0909 Y90.8499 Z-3.9794 I-29.3182 J131.5442
G2 X16.6557 Y90.2007 Z-3.986 I-18.2249 J129.4997
G1 X16.6556
G2 X4.9992 Y89.625 Z-4.0 I-11.7393 J119.3964
G1 Y89.225
G3 X-1.825 Y82.4 I0.0008 J-6.825
G1 Y3.0
G3 X3.0 Y-1.825 I4.825 J0.0
G1 X237.3593
G3 X248.907 Y12.546 I0.0 J11.825
G2 Y187.454 I396.6563 J87.454
G3 X237.3593 Y201.825 I-11.5477 J2.546
G1 X159.0983
G3 X147.8094 Y193.5201 I0.0 J-11.825
G2 X144.3107 Y183.8189 I-113.7204 J35.5311
G3 X144.3011 Y183.7952 I1.6884 J-0.6929
G2 X144.2579 Y183.69 I-3.6642 J1.4439
G3 X144.2483 Y183.6672 I1.6779 J-0.7178
G2 X139.8551 Y174.1464 I-116.3933 J47.9342
G3 X139.8545 Y174.1452 I1.6238 J-0.833
G2 X136.5026 Y168.0043 I-117.9223 J60.3795
G3 X136.5021 Y168.0034 I1.5783 J-0.9164
G2 X131.5515 Y160.0923 I-120.0296 J69.6074
G3 X131.5513 Y160.092 I1.5136 J-1.0196
G2 X124.1724 Y150.0636 I-123.7258 J83.3086
G3 X124.1719 Y150.063 I1.4235 J-1.142
G2 X119.5936 Y144.6121 I-121.1331 J97.0943
G3 X119.5931 Y144.6115 I1.3702 J-1.2055
G2 X114.0671 Y138.64 I-119.5848 J105.1197
G3 X114.0669 Y138.6397 I1.3074 J-1.2734
G2 X107.3958 Y132.1601 I-119.1751 J116.0219
G2 X87.9864 Y116.7747 I-115.9834 J126.3829
G1 X87.3365 Y116.3339
G2 X75.1922 Y108.8492 I-96.1574 J142.4256
G3 X75.1918 Y108.849 I0.8922 J-1.592
G2 X60.6092 Y101.5835 I-81.7047 J145.7214
G1 Y101.5834
G1 Y101.5835
G2 X52.5628 Y98.313 I-63.7178 J145.2335
G3 X52.5617 Y98.3126 I0.6406 J-1.7089
G2 X48.3457 Y96.8003 I-52.7945 J140.5527
G1 X47.8091 Y96.6177
G2 X43.3929 Y95.1981 I-46.4467 J136.9118
G1 X42.833 Y95.0287
G1 X42.2706 Y94.861
G2 X32.6125 Y92.3576 I-41.2588 J139.2907
G2 X22.1468 Y90.4539 I-29.4052 J131.9346
G2 X16.6948 Y89.8026 I-18.2808 J129.8958
G1 X16.6947
G2 X4.9993 Y89.225 I-11.7784 J119.7945
G1 X4.9992
G1 Y89.625
G3 X-2.225 Y82.4 Z-4.0136 I0.0008 J-7.225
G1 Y49.325 Z-4.0533
G1 Y47.825 Z-4.0
G1 Y44.175
G1 Y42.675 Z-4.0612
G1 Y3.0 Z-4.1088
G3 X3.0 Y-2.225 Z-4.1186 I5.225 J0.0
G1 X215.675 Z-4.3736
G1 X217.175 Z-4.0
G1 X220.825
G1 X222.325 Z-4.3815
G1 X237.3593 Z-4.3995
G3 X249.2976 Y12.6321 Z-4.4257 I0.0 J12.225
G2 Y187.3679 Z-4.6369 I396.2657 J87.3679
G3 X237.3593 Y202.225 Z-4.6631 I-11.9383 J2.6321
G1 X199.325 Z-4.7086
G1 X197.825 Z-4.0
G1 X194.175
G1 X192.675 Z-4.7166
G1 X159.0983 Z-4.7569
G3 X147.4275 Y193.6393 Z-4.7755 I0.0 J-12.225
G2 X143.9406 Y183.9708 Z-4.7878 I-113.3386 J35.412
G3 X143.929 Y183.9418 I2.0584 J-0.8447
G2 X143.8902 Y183.8474 Z-4.7879 I-3.2921 J1.2973
G3 X143.8785 Y183.8195 Z-4.788 I2.0457 J-0.8751
G2 X139.4992 Y174.329 Z-4.8005 I-116.0234 J47.7819
G3 X139.4984 Y174.3275 I1.9797 J-1.0156
G2 X136.1567 Y168.2051 Z-4.8089 I-117.5662 J60.1972
G3 X136.1561 Y168.2041 I1.9242 J-1.1172
G2 X131.2198 Y160.3158 Z-4.82 I-119.6836 J69.4067
G3 X131.2195 Y160.3154 I1.8454 J-1.2431
G2 X123.8604 Y150.3139 Z-4.8349 I-123.394 J83.0852
G3 X123.8598 Y150.3131 I1.7355 J-1.3923
G2 X119.2933 Y144.8763 Z-4.8434 I-120.821 J96.8441
G3 X119.2927 Y144.8756 I1.6705 J-1.4697
G2 X113.7806 Y138.9191 Z-4.8532 I-119.2844 J104.8556
G3 X113.7802 Y138.9188 I1.5939 J-1.5524
G2 X107.1253 Y132.4548 Z-4.8643 I-118.8884 J115.7428
G2 X87.7616 Y117.1056 Z-4.8939 I-115.7129 J126.0883
G1 X87.1123 Y116.6652 Z-4.8949
G2 X74.9966 Y109.1981 Z-4.9119 I-95.9332 J142.0944
G3 X74.9962 Y109.1979 I1.0878 J-1.941
G2 X60.4485 Y101.9497 Z-4.9314 I-81.509 J145.3725
G1 Y101.9498
G1 Y101.9497
G2 X52.4224 Y98.6876 Z-4.9418 I-63.5571 J144.8672
G3 X52.4211 Y98.687 I0.781 J-2.0834
G2 X48.2165 Y97.1789 Z-4.9472 I-52.6538 J140.1783
G1 X47.6804 Y96.9964 Z-4.9479
G2 X43.2769 Y95.5809 Z-4.9534 I-46.318 J136.5331
G1 X42.7179 Y95.4118 Z-4.9541
G1 X42.1566 Y95.2445 Z-4.9548
G2 X32.5255 Y92.748 Z-4.9667 I-41.1448 J138.9073
G2 X22.0909 Y90.8499 Z-4.9794 I-29.3182 J131.5442
G2 X16.6557 Y90.2007 Z-4.986 I-18.2249 J129.4997
G1 X16.6556
G2 X4.9992 Y89.625 Z-5.0 I-11.7393 J119.3964
G1 Y89.225
G3 X-1.825 Y82.4 I0.0008 J-6.825
G1 Y49.325
G1 Y47.825 Z-4.0
G1 Y44.175
G1 Y42.675 Z-5.0
G1 Y3.0
G3 X3.0 Y-1.825 I4.825 J0.0
G1 X215.675
G1 X217.175 Z-4.0
G1 X220.825
G1 X222.325 Z-5.0
G1 X237.3593
G3 X248.907 Y12.546 I0.0 J11.825
G2 Y187.454 I396.6563 J87.454
G3 X237.3593 Y201.825 I-11.5477 J2.546
G1 X199.325
G1 X197.825 Z-4.0
G1 X194.175
G1 X192.675 Z-5.0
G1 X159.0983
G3 X147.8094 Y193.5201 I0.0 J-11.825
G2 X144.3107 Y183.8189 I-113.7204 J35.5311
G3 X144.3011 Y183.7952 I1.6884 J-0.6929
G2 X144.2579 Y183.69 I-3.6642 J1.4439
G3 X144.2483 Y183.6672 I1.6779 J-0.7178
G2 X139.8551 Y174.1464 I-116.3933 J47.9342
G3 X139.8545 Y174.1452 I1.6238 J-0.833
G2 X136.5026 Y168.0043 I-117.9223 J60.3795
G3 X136.5021 Y168.0034 I1.5783 J-0.9164
G2 X131.5515 Y160.0923 I-120.0296 J69.6074
G3 X131.5513 Y160.092 I1.5136 J-1.0196
G2 X124.1724 Y150.0636 I-123.7258 J83.3086
G3 X124.1719 Y150.063 I1.4235 J-1.142
G2 X119.5936 Y144.6121 I-121.1331 J97.0943
G3 X119.5931 Y144.6115 I1.3702 J-1.2055
G2 X114.0671 Y138.64 I-119.5848 J105.1197
G3 X114.0669 Y138.6397 I1.3074 J-1.2734
G2 X107.3958 Y132.1601 I-119.1751 J116.0219
G2 X87.9864 Y116.7747 I-115.9834 J126.3829
G1 X87.3365 Y116.3339
G2 X75.1922 Y108.8492 I-96.1574 J142.4256
G3 X75.1918 Y108.849 I0.8922 J-1.592
G2 X60.6092 Y101.5835 I-81.7047 J145.7214
G1 Y101.5834
G1 Y101.5835
G2 X52.5628 Y98.313 I-63.7178 J145.2335
G3 X52.5617 Y98.3126 I0.6406 J-1.7089
G2 X48.3457 Y96.8003 I-52.7945 J140.5527
G1 X47.8091 Y96.6177
G2 X43.3929 Y95.1981 I-46.4467 J136.9118
G1 X42.833 Y95.0287
G1 X42.2706 Y94.861
G2 X32.6125 Y92.3576 I-41.2588 J139.2907
G2 X22.1468 Y90.4539 I-29.4052 J131.9346
G2 X16.6948 Y89.8026 I-18.2808 J129.8958
G1 X16.6947
G2 X4.9993 Y89.225 I-11.7784 J119.7945
G1 X4.9992
G1 Y89.625
G3 X-2.225 Y82.4 Z-5.0136 I0.0008 J-7.225
G1 Y49.325 Z-5.0533
G1 Y47.825 Z-4.0
G1 Y44.175
G1 Y42.675 Z-5.0612
G1 Y3.0 Z-5.1088
G3 X3.0 Y-2.225 Z-5.1186 I5.225 J0.0
G1 X215.675 Z-5.3736
G1 X217.175 Z-4.0
G1 X220.825
G1 X222.325 Z-5.3815
G1 X237.3593 Z-5.3995
G3 X249.2976 Y12.6321 Z-5.4257 I0.0 J12.225
G2 Y187.3679 Z-5.6369 I396.2657 J87.3679
G3 X237.3593 Y202.225 Z-5.6631 I-11.9383 J2.6321
G1 X199.325 Z-5.7086
G1 X197.825 Z-4.0
G1 X194.175
G1 X192.675 Z-5.7166
G1 X159.0983 Z-5.7569
G3 X147.4275 Y193.6393 Z-5.7755 I0.0 J-12.225
G2 X143.9406 Y183.9708 Z-5.7878 I-113.3386 J35.412
G3 X143.929 Y183.9418 I2.0584 J-0.8447
G2 X143.8902 Y183.8474 Z-5.7879 I-3.2921 J1.2973
G3 X143.8785 Y183.8195 Z-5.788 I2.0457 J-0.8751
G2 X139.4992 Y174.329 Z-5.8005 I-116.0234 J47.7819
G3 X139.4984 Y174.3275 I1.9797 J-1.0156
G2 X136.1567 Y168.2051 Z-5.8089 I-117.5662 J60.1972
G3 X136.1561 Y168.2041 I1.9242 J-1.1172
G2 X131.2198 Y160.3158 Z-5.82 I-119.6836 J69.4067
G3 X131.2195 Y160.3154 I1.8454 J-1.2431
G2 X123.8604 Y150.3139 Z-5.8349 I-123.394 J83.0852
G3 X123.8598 Y150.3131 I1.7355 J-1.3923
G2 X119.2933 Y144.8763 Z-5.8434 I-120.821 J96.8441
G3 X119.2927 Y144.8756 I1.6705 J-1.4697
G2 X113.7806 Y138.9191 Z-5.8532 I-119.2844 J104.8556
G3 X113.7802 Y138.9188 I1.5939 J-1.5524
G2 X107.1253 Y132.4548 Z-5.8643 I-118.8884 J115.7428
G2 X87.7616 Y117.1056 Z-5.8939 I-115.7129 J126.0883
G1 X87.1123 Y116.6652 Z-5.8949
G2 X74.9966 Y109.1981 Z-5.9119 I-95.9332 J142.0944
G3 X74.9962 Y109.1979 I1.0878 J-1.941
G2 X60.4485 Y101.9497 Z-5.9314 I-81.509 J145.3725
G1 Y101.9498
G1 Y101.9497
G2 X52.4224 Y98.6876 Z-5.9418 I-63.5571 J144.8672
G3 X52.4211 Y98.687 I0.781 J-2.0834
G2 X48.2165 Y97.1789 Z-5.9472 I-52.6538 J140.1783
G1 X47.6804 Y96.9964 Z-5.9479
G2 X43.2769 Y95.5809 Z-5.9534 I-46.318 J136.5331
G1 X42.7179 Y95.4118 Z-5.9541
G1 X42.1566 Y95.2445 Z-5.9548
G2 X32.5255 Y92.748 Z-5.9667 I-41.1448 J138.9073
G2 X22.0909 Y90.8499 Z-5.9794 I-29.3182 J131.5442
G2 X16.6557 Y90.2007 Z-5.986 I-18.2249 J129.4997
G1 X16.6556
G2 X4.9992 Y89.625 Z-6.0 I-11.7393 J119.3964
G1 Y89.225
G3 X-1.825 Y82.4 I0.0008 J-6.825
G1 Y49.325
G1 Y47.825 Z-4.0
G1 Y44.175
G1 Y42.675 Z-6.0
G1 Y3.0
G3 X3.0 Y-1.825 I4.825 J0.0
G1 X215.675
G1 X217.175 Z-4.0
G1 X220.825
G1 X222.325 Z-6.0
G1 X237.3593
G3 X248.907 Y12.546 I0.0 J11.825
G2 Y187.454 I396.6563 J87.454
G3 X237.3593 Y201.825 I-11.5477 J2.546
G1 X199.325
G1 X197.825 Z-4.0
G1 X194.175
G1 X192.675 Z-6.0
G1 X159.0983
G3 X147.8094 Y193.5201 I0.0 J-11.825
G2 X144.3107 Y183.8189 I-113.7204 J35.5311
G3 X144.3011 Y183.7952 I1.6884 J-0.6929
G2 X144.2579 Y183.69 I-3.6642 J1.4439
G3 X144.2483 Y183.6672 I1.6779 J-0.7178
G2 X139.8551 Y174.1464 I-116.3933 J47.9342
G3 X139.8545 Y174.1452 I1.6238 J-0.833
G2 X136.5026 Y168.0043 I-117.9223 J60.3795
G3 X136.5021 Y168.0034 I1.5783 J-0.9164
G2 X131.5515 Y160.0923 I-120.0296 J69.6074
G3 X131.5513 Y160.092 I1.5136 J-1.0196
G2 X124.1724 Y150.0636 I-123.7258 J83.3086
G3 X124.1719 Y150.063 I1.4235 J-1.142
G2 X119.5936 Y144.6121 I-121.1331 J97.0943
G3 X119.5931 Y144.6115 I1.3702 J-1.2055
G2 X114.0671 Y138.64 I-119.5848 J105.1197
G3 X114.0669 Y138.6397 I1.3074 J-1.2734
G2 X107.3958 Y132.1601 I-119.1751 J116.0219
G2 X87.9864 Y116.7747 I-115.9834 J126.3829
G1 X87.3365 Y116.3339
G2 X75.1922 Y108.8492 I-96.1574 J142.4256
G3 X75.1918 Y108.849 I0.8922 J-1.592
G2 X60.6092 Y101.5835 I-81.7047 J145.7214
G1 Y101.5834
G1 Y101.5835
G2 X52.5628 Y98.313 I-63.7178 J145.2335
G3 X52.5617 Y98.3126 I0.6406 J-1.7089
G2 X48.3457 Y96.8003 I-52.7945 J140.5527
G1 X47.8091 Y96.6177
G2 X43.3929 Y95.1981 I-46.4467 J136.9118
G1 X42.833 Y95.0287
G1 X42.2706 Y94.861
G2 X32.6125 Y92.3576 I-41.2588 J139.2907
G2 X22.1468 Y90.4539 I-29.4052 J131.9346
G2 X16.6948 Y89.8026 I-18.2808 J129.8958
G1 X16.6947
G2 X4.9993 Y89.225 I-11.7784 J119.7945
G1 X4.9992
G1 Y89.625
G3 X-2.225 Y82.4 Z-6.0136 I0.0008 J-7.225
G1 Y49.325 Z-6.0533
G1 Y47.825 Z-4.0
G1 Y44.175
G1 Y42.675 Z-6.0612
G1 Y3.0 Z-6.1088
G3 X3.0 Y-2.225 Z-6.1186 I5.225 J0.0
G1 X215.675 Z-6.3736
G1 X217.175 Z-4.0
G1 X220.825
G1 X222.325 Z-6.3815
G1 X237.3593 Z-6.3995
G3 X249.2976 Y12.6321 Z-6.4257 I0.0 J12.225
G2 Y187.3679 Z-6.6369 I396.2657 J87.3679
G3 X237.3593 Y202.225 Z-6.6631 I-11.9383 J2.6321
G1 X199.325 Z-6.7086
G1 X197.825 Z-4.0
G1 X194.175
G1 X192.675 Z-6.7166
G1 X159.0983 Z-6.7569
G3 X147.4275 Y193.6393 Z-6.7755 I0.0 J-12.225
G2 X143.9406 Y183.9708 Z-6.7878 I-113.3386 J35.412
G3 X143.929 Y183.9418 I2.0584 J-0.8447
G2 X143.8902 Y183.8474 Z-6.7879 I-3.2921 J1.2973
G3 X143.8785 Y183.8195 Z-6.788 I2.0457 J-0.8751
G2 X139.4992 Y174.329 Z-6.8005 I-116.0234 J47.7819
G3 X139.4984 Y174.3275 I1.9797 J-1.0156
G2 X136.1567 Y168.2051 Z-6.8089 I-117.5662 J60.1972
G3 X136.1561 Y168.2041 I1.9242 J-1.1172
G2 X131.2198 Y160.3158 Z-6.82 I-119.6836 J69.4067
G3 X131.2195 Y160.3154 I1.8454 J-1.2431
G2 X123.8604 Y150.3139 Z-6.8349 I-123.394 J83.0852
G3 X123.8598 Y150.3131 I1.7355 J-1.3923
G2 X119.2933 Y144.8763 Z-6.8434 I-120.821 J96.8441
G3 X119.2927 Y144.8756 I1.6705 J-1.4697
G2 X113.7806 Y138.9191 Z-6.8532 I-119.2844 J104.8556
G3 X113.7802 Y138.9188 I1.5939 J-1.5524
G2 X107.1253 Y132.4548 Z-6.8643 I-118.8884 J115.7428
G2 X87.7616 Y117.1056 Z-6.8939 I-115.7129 J126.0883
G1 X87.1123 Y116.6652 Z-6.8949
G2 X74.9966 Y109.1981 Z-6.9119 I-95.9332 J142.0944
G3 X74.9962 Y109.1979 I1.0878 J-1.941
G2 X60.4485 Y101.9497 Z-6.9314 I-81.509 J145.3725
G1 Y101.9498
G1 Y101.9497
G2 X52.4224 Y98.6876 Z-6.9418 I-63.5571 J144.8672
G3 X52.4211 Y98.687 I0.781 J-2.0834
G2 X48.2165 Y97.1789 Z-6.9472 I-52.6538 J140.1783
G1 X47.6804 Y96.9964 Z-6.9479
G2 X43.2769 Y95.5809 Z-6.9534 I-46.318 J136.5331
G1 X42.7179 Y95.4118 Z-6.9541
G1 X42.1566 Y95.2445 Z-6.9548
G2 X32.5255 Y92.748 Z-6.9667 I-41.1448 J138.9073
G2 X22.0909 Y90.8499 Z-6.9794 I-29.3182 J131.5442
G2 X16.6557 Y90.2007 Z-6.986 I-18.2249 J129.4997
G1 X16.6556
G2 X4.9992 Y89.625 Z-7.0 I-11.7393 J119.3964
G3 X-2.225 Y82.4 I0.0008 J-7.225
G1 Y49.325
G1 Y47.825 Z-4.0
G1 Y44.175
G1 Y42.675 Z-7.0
G1 Y3.0
G3 X3.0 Y-2.225 I5.225 J0.0
G1 X215.675
G1 X217.175 Z-4.0
G1 X220.825
G1 X222.325 Z-7.0
G1 X237.3593
G3 X249.2976 Y12.6321 I0.0 J12.225
G2 Y187.3679 I396.2657 J87.3679
G3 X237.3593 Y202.225 I-11.9383 J2.6321
G1 X199.325
G1 X197.825 Z-4.0
G1 X194.175
G1 X192.675 Z-7.0
G1 X159.0983
G3 X147.4275 Y193.6393 I0.0 J-12.225
G2 X143.9406 Y183.9708 I-113.3386 J35.412
G3 X143.929 Y183.9418 I2.0584 J-0.8447
G2 X143.8902 Y183.8474 I-3.2921 J1.2973
G3 X143.8785 Y183.8195 I2.0457 J-0.8751
G2 X139.4992 Y174.329 I-116.0234 J47.7819
G3 X139.4984 Y174.3275 I1.9797 J-1.0156
G2 X136.1567 Y168.2051 I-117.5662 J60.1972
G3 X136.1561 Y168.2041 I1.9242 J-1.1172
G2 X131.2198 Y160.3158 I-119.6836 J69.4067
G3 X131.2195 Y160.3154 I1.8454 J-1.2431
G2 X123.8604 Y150.3139 I-123.394 J83.0852
G3 X123.8598 Y150.3131 I1.7355 J-1.3923
G2 X119.2933 Y144.8763 I-120.821 J96.8441
G3 X119.2927 Y144.8756 I1.6705 J-1.4697
G2 X113.7806 Y138.9191 I-119.2844 J104.8556
G3 X113.7802 Y138.9188 I1.5939 J-1.5524
G2 X107.1253 Y132.4548 I-118.8884 J115.7428
G2 X87.7616 Y117.1056 I-115.7129 J126.0883
G1 X87.1123 Y116.6652
G2 X74.9966 Y109.1981 I-95.9332 J142.0944
G3 X74.9962 Y109.1979 I1.0878 J-1.941
G2 X60.4485 Y101.9497 I-81.509 J145.3725
G1 Y101.9498
G1 Y101.9497
G2 X52.4224 Y98.6876 I-63.5571 J144.8672
G3 X52.4211 Y98.687 I0.781 J-2.0834
G2 X48.2165 Y97.1789 I-52.6538 J140.1783
G1 X47.6804 Y96.9964
G2 X43.2769 Y95.5809 I-46.318 J136.5331
G1 X42.7179 Y95.4118
G1 X42.1566 Y95.2445
G2 X32.5255 Y92.748 I-41.1448 J138.9073
G2 X22.0909 Y90.8499 I-29.3182 J131.5442
G2 X16.6557 Y90.2007 I-18.2249 J129.4997
G1 X16.6556
G2 X4.9992 Y89.625 I-11.7393 J119.3964
G1 Y89.225
G3 X-1.825 Y82.4 I0.0008 J-6.825
G1 Y49.325
G1 Y47.825 Z-4.0
G1 Y44.175
G1 Y42.675 Z-7.0
G1 Y3.0
G3 X3.0 Y-1.825 I4.825 J0.0
G1 X215.675
G1 X217.175 Z-4.0
G1 X220.825
G1 X222.325 Z-7.0
G1 X237.3593
G3 X248.907 Y12.546 I0.0 J11.825
G2 Y187.454 I396.6563 J87.454
G3 X237.3593 Y201.825 I-11.5477 J2.546
G1 X199.325
G1 X197.825 Z-4.0
G1 X194.175
G1 X192.675 Z-7.0
G1 X159.0983
G3 X147.8094 Y193.5201 I0.0 J-11.825
G2 X144.3107 Y183.8189 I-113.7204 J35.5311
G3 X144.3011 Y183.7952 I1.6884 J-0.6929
G2 X144.2579 Y183.69 I-3.6642 J1.4439
G3 X144.2483 Y183.6672 I1.6779 J-0.7178
G2 X139.8551 Y174.1464 I-116.3933 J47.9342
G3 X139.8545 Y174.1452 I1.6238 J-0.833
G2 X136.5026 Y168.0043 I-117.9223 J60.3795
G3 X136.5021 Y168.0034 I1.5783 J-0.9164
G2 X131.5515 Y160.0923 I-120.0296 J69.6074
G3 X131.5513 Y160.092 I1.5136 J-1.0196
G2 X124.1724 Y150.0636 I-123.7258 J83.3086
G3 X124.1719 Y150.063 I1.4235 J-1.142
G2 X119.5936 Y144.6121 I-121.1331 J97.0943
G3 X119.5931 Y144.6115 I1.3702 J-1.2055
G2 X114.0671 Y138.64 I-119.5848 J105.1197
G3 X114.0669 Y138.6397 I1.3074 J-1.2734
G2 X107.3958 Y132.1601 I-119.1751 J116.0219
G2 X87.9864 Y116.7747 I-115.9834 J126.3829
G1 X87.3365 Y116.3339
G2 X75.1922 Y108.8492 I-96.1574 J142.4256
G3 X75.1918 Y108.849 I0.8922 J-1.592
G2 X60.6092 Y101.5835 I-81.7047 J145.7214
G1 Y101.5834
G1 Y101.5835
G2 X52.5628 Y98.313 I-63.7178 J145.2335
G3 X52.5617 Y98.3126 I0.6406 J-1.7089
G2 X48.3457 Y96.8003 I-52.7945 J140.5527
G1 X47.8091 Y96.6177
G2 X43.3929 Y95.1981 I-46.4467 J136.9118
G1 X42.833 Y95.0287
G1 X42.2706 Y94.861
G2 X32.6125 Y92.3576 I-41.2588 J139.2907
G2 X22.1468 Y90.4539 I-29.4052 J131.9346
G2 X16.6948 Y89.8026 I-18.2808 J129.8958
G1 X16.6947
G2 X4.9993 Y89.225 I-11.7784 J119.7945
G1 X4.9992
G0 Z3.0
M5
M30
